creative/lut-kodak-film.cube
TITLE "Generated by Resolve"
LUT_3D_SIZE 9
0.054139 0.0586099 0.0373846
0.141039 0.0716106 0.0597391
0.290288 0.0807813 0.0707103
0.428473 0.0867628 0.0675059
0.551049 0.0968338 0.0549477
0.647395 0.115602 0.0338598
0.740444 0.139971 0.0286259
0.831571 0.16759 0.0287633
0.91014 0.197772 0.05449
0.0708629 0.129076 0.0690471
0.124788 0.125856 0.0637522
0.294636 0.138231 0.0772869
0.437629 0.145571 0.0703288
0.560494 0.157717 0.0543832
0.660395 0.176486 0.0320745
0.75378 0.198825 0.0280156
0.841505 0.224323 0.0283818
0.915816 0.252262 0.0559701
0.0625162 0.273335 0.127413
0.105287 0.256611 0.116426
0.237461 0.248829 0.0835584
0.420981 0.266651 0.070985
0.569757 0.281941 0.049958
0.688304 0.296529 0.0284886
0.786679 0.310246 0.0271
0.86656 0.325093 0.0302281
0.932509 0.344717 0.0603037
0.0479438 0.388922 0.15491
0.0921798 0.385672 0.150103
0.195697 0.368963 0.110231
0.370031 0.378637 0.0743267
0.561349 0.420096 0.0408942
0.706249 0.440269 0.0287175
0.80679 0.443183 0.0271763
0.885039 0.449775 0.0310063
0.948211 0.461784 0.0686961
0.0595254 0.508919 0.186679
0.103716 0.50724 0.179202
0.186343 0.506203 0.151324
0.359915 0.503258 0.0914015
0.546807 0.5458 0.0443122
0.711391 0.576074 0.0298314
0.826825 0.576974 0.0276951
0.906676 0.576761 0.0360113
0.965911 0.580697 0.0771038
0.089189 0.608789 0.220218
0.13637 0.608072 0.211231
0.20911 0.609567 0.180133
0.356191 0.61619 0.11899
0.545159 0.653635 0.0610971
0.698878 0.698177 0.0332647
0.832441 0.717693 0.0312505
0.918547 0.713451 0.0559396
0.979461 0.70457 0.101335
0.133806 0.691279 0.254475
0.181827 0.692744 0.247623
0.252369 0.6981 0.21915
0.360143 0.708782 0.162493
0.530159 0.739803 0.0915847
0.686763 0.794293 0.0570993
0.825528 0.836362 0.0585946
0.921981 0.842191 0.0816815
0.98114 0.828702 0.129976
0.17847 0.77023 0.304021
0.22591 0.772183 0.299184
0.29247 0.777569 0.276387
0.38027 0.784909 0.231739
0.509651 0.806607 0.173068
0.665446 0.856413 0.114031
0.807721 0.909255 0.0978256
0.914595 0.927443 0.131548
0.983856 0.924208 0.197101
0.206317 0.835935 0.34905
0.253681 0.837415 0.344701
0.3187 0.840192 0.32398
0.398093 0.84535 0.291325
0.507469 0.862257 0.258198
0.639048 0.896803 0.220783
0.776806 0.945403 0.194186
0.889998 0.972381 0.227161
0.974868 0.977203 0.295628
0.065156 0.0675669 0.112352
0.142321 0.0739452 0.117037
0.271366 0.0826734 0.117754
0.395224 0.0880446 0.114458
0.538827 0.0973068 0.102892
0.646204 0.110628 0.0784161
0.741711 0.131868 0.0700847
0.834104 0.159747 0.0731212
0.912459 0.192401 0.105119
0.0640421 0.130526 0.119844
0.115297 0.117098 0.104128
0.250996 0.128618 0.116625
0.388342 0.134798 0.116258
0.541222 0.144076 0.102007
0.651759 0.15848 0.0760204
0.748745 0.18201 0.0697032
0.840757 0.21149 0.0732738
0.917082 0.244999 0.105791
0.0611582 0.258824 0.170611
0.104112 0.236881 0.152239
0.217792 0.225544 0.124163
0.387488 0.240681 0.119402
0.553994 0.258518 0.102373
0.684443 0.273091 0.0723583
0.785351 0.288289 0.0693675
0.866865 0.308721 0.0749218
0.933333 0.335058 0.109422
0.0455329 0.388937 0.206516
0.0908217 0.383642 0.197986
0.191409 0.358526 0.153338
0.356695 0.364584 0.121691
0.549645 0.404929 0.0933394
0.704662 0.429282 0.072221
0.810498 0.433204 0.0700084
0.889235 0.440986 0.0786908
0.950652 0.456474 0.11751
0.0557412 0.51284 0.24181
0.100496 0.51046 0.232212
0.181292 0.504265 0.199634
0.351324 0.497917 0.141146
0.537087 0.539193 0.0973373
0.709514 0.573434 0.0719005
0.829999 0.574975 0.0714885
0.910307 0.574929 0.0862593
0.967834 0.579812 0.127733
0.0846113 0.611902 0.276371
0.131914 0.61149 0.266712
0.204364 0.612879 0.234089
0.348837 0.61709 0.173739
0.538598 0.651759 0.114336
0.696178 0.6981 0.0841688
0.834546 0.719448 0.0832837
0.922377 0.715404 0.106096
0.98146 0.705257 0.151888
0.130251 0.693553 0.309941
0.178378 0.695384 0.303349
0.248508 0.701381 0.275502
0.355734 0.711635 0.219623
0.523507 0.740139 0.149706
0.684977 0.79472 0.111955
0.826856 0.838468 0.11371
0.924498 0.844358 0.139055
0.982162 0.829374 0.184329
0.175814 0.771908 0.357931
0.223239 0.773892 0.353185
0.289677 0.779995 0.331762
0.377478 0.78735 0.287694
0.504891 0.807996 0.23003
0.662745 0.857145 0.170031
0.809491 0.911498 0.152209
0.91693 0.929183 0.186709
0.98436 0.924453 0.247623
0.202914 0.836606 0.401373
0.250187 0.838117 0.397101
0.315679 0.8421 0.377859
0.396048 0.847044 0.344594
0.503792 0.863447 0.311925
0.636118 0.896956 0.273915
0.776318 0.945251 0.244602
0.890822 0.972671 0.27277
0.975433 0.977646 0.340383
0.0889754 0.0805371 0.24387
0.155169 0.0806592 0.231785
0.250187 0.0843824 0.216175
0.367697 0.0922866 0.191531
0.515053 0.109972 0.193744
0.644678 0.124376 0.175998
0.753979 0.140536 0.160433
0.850553 0.160845 0.163775
0.925856 0.193652 0.193347
0.0684672 0.12166 0.201556
0.125643 0.120745 0.195727
0.228138 0.126253 0.189746
0.363165 0.142046 0.191913
0.519051 0.162142 0.196155
0.651164 0.176837 0.174762
0.760266 0.190692 0.158175
0.854932 0.20853 0.16112
0.928496 0.242069 0.192355
0.0601663 0.245014 0.238819
0.107591 0.231937 0.224765
0.210468 0.217517 0.203601
0.368612 0.234104 0.201114
0.533516 0.256519 0.199039
0.670207 0.273136 0.17261
0.781384 0.28246 0.157809
0.869429 0.289937 0.161456
0.937331 0.318639 0.193851
0.0415351 0.391699 0.2925
0.0862287 0.387274 0.281422
0.18146 0.359792 0.239506
0.342779 0.356924 0.206027
0.524941 0.386908 0.188388
0.683467 0.4121 0.170031
0.801373 0.422965 0.163012
0.892271 0.427085 0.16791
0.954314 0.440055 0.200916
0.0385595 0.520668 0.338781
0.0834974 0.519692 0.326879
0.162875 0.511833 0.290272
0.33048 0.492988 0.230152
0.509911 0.520607 0.191104
0.685161 0.558068 0.159594
0.817136 0.5682 0.161135
0.911116 0.573495 0.177157
0.971847 0.575555 0.216068
0.0692302 0.618418 0.371283
0.115862 0.619516 0.362387
0.187488 0.624048 0.330724
0.330953 0.620066 0.274388
0.512642 0.638834 0.222202
0.673732 0.681575 0.185489
0.820569 0.711589 0.181079
0.923323 0.716609 0.205051
0.986862 0.70721 0.240421
0.118135 0.699123 0.400732
0.165637 0.701671 0.395865
0.234791 0.711162 0.374075
0.343267 0.721187 0.326116
0.504448 0.737331 0.269429
0.669642 0.780758 0.235752
0.816114 0.827176 0.230655
0.925551 0.843214 0.250324
0.987396 0.8327 0.274418
0.16643 0.77583 0.441062
0.21326 0.778378 0.438346
0.278798 0.786984 0.423911
0.368429 0.796338 0.385397
0.491402 0.813245 0.335973
0.649958 0.854093 0.286336
0.808072 0.909178 0.263661
0.921965 0.930449 0.284779
0.987198 0.928405 0.314275
0.190753 0.8365 0.476051
0.237736 0.838773 0.474067
0.303227 0.846387 0.462577
0.387304 0.853147 0.431769
0.491402 0.868376 0.400137
0.625116 0.898085 0.362905
0.772839 0.944533 0.321584
0.893523 0.973312 0.334874
0.976654 0.978042 0.397375
0.119677 0.0895857 0.363729
0.178378 0.09131 0.35729
0.259083 0.0972152 0.338903
0.362112 0.107027 0.320119
0.501076 0.123598 0.302663
0.647593 0.147234 0.30515
0.763745 0.166567 0.302846
0.85803 0.191272 0.312169
0.931228 0.222141 0.336782
0.0923323 0.128923 0.338796
0.14992 0.12961 0.333577
0.233951 0.136858 0.314122
0.349187 0.151705 0.306767
0.501808 0.172305 0.301015
0.652354 0.197864 0.309163
0.767956 0.217197 0.305974
0.861463 0.240879 0.314336
0.933883 0.269825 0.337652
0.0678416 0.229953 0.3346
0.122972 0.224063 0.329442
0.220584 0.217594 0.316365
0.352819 0.234333 0.322164
0.519615 0.256886 0.323674
0.667277 0.282536 0.328984
0.781338 0.299535 0.319799
0.871778 0.318685 0.323659
0.941146 0.340078 0.34197
0.0459602 0.383902 0.390143
0.092668 0.379629 0.384802
0.184375 0.357992 0.360113
0.344457 0.357748 0.346838
0.51928 0.380224 0.340917
0.673548 0.402533 0.337774
0.790326 0.416785 0.328374
0.88043 0.431861 0.332189
0.94995 0.446128 0.349294
0.0526894 0.509117 0.432914
0.0938582 0.510796 0.429068
0.156405 0.507561 0.412284
0.319249 0.490791 0.373648
0.500954 0.509926 0.348394
0.66421 0.533501 0.331365
0.796399 0.550225 0.326177
0.891615 0.565835 0.33846
0.963165 0.575998 0.357839
0.0681773 0.615412 0.467979
0.111437 0.618448 0.465904
0.172457 0.626871 0.456291
0.310002 0.620478 0.420066
0.492485 0.628016 0.37499
0.653452 0.656596 0.347997
0.796994 0.683986 0.339757
0.903975 0.698329 0.354437
0.978149 0.704005 0.37586
0.115801 0.702525 0.497826
0.161105 0.705638 0.496971
0.22182 0.71812 0.492912
0.323705 0.731762 0.471397
0.485725 0.738079 0.421698
0.651881 0.762051 0.387625
0.793988 0.794751 0.376196
0.909361 0.817441 0.387243
0.984878 0.822721 0.405142
0.165316 0.779538 0.529122
0.21033 0.781979 0.528923
0.269169 0.791608 0.526131
0.354238 0.806867 0.510903
0.476478 0.824231 0.476677
0.635599 0.850278 0.440223
0.792645 0.885542 0.416953
0.915221 0.913085 0.421363
0.990372 0.922057 0.436866
0.185122 0.832853 0.546288
0.230198 0.835355 0.546487
0.288426 0.84506 0.546868
0.369558 0.858473 0.537026
0.473976 0.875074 0.511147
0.608103 0.9019 0.481956
0.762051 0.940291 0.434287
0.896208 0.969192 0.44126
0.973724 0.968811 0.488731
0.147265 0.0926223 0.467262
0.201862 0.0945754 0.468391
0.281819 0.105104 0.464591
0.387228 0.119142 0.460929
0.509148 0.1355 0.45597
0.637003 0.154284 0.446418
0.759182 0.180545 0.438895
0.856199 0.208331 0.447349
0.927428 0.242588 0.469429
0.124437 0.132647 0.468971
0.17879 0.133944 0.464775
0.262348 0.143206 0.462501
0.374365 0.162982 0.457313
0.506249 0.183368 0.452415
0.640681 0.203616 0.44358
0.763256 0.230518 0.440513
0.859144 0.258366 0.451438
0.929473 0.292271 0.473487
0.0839857 0.225635 0.472862
0.14081 0.225193 0.469886
0.235889 0.230747 0.465263
0.35642 0.246952 0.465354
0.509804 0.264424 0.460304
0.65536 0.284321 0.453605
0.777768 0.311376 0.460975
0.869032 0.337224 0.473243
0.93611 0.366842 0.489326
0.0530098 0.380789 0.512917
0.103792 0.374929 0.506676
0.200198 0.358297 0.490349
0.344198 0.363058 0.488624
0.517723 0.385519 0.491188
0.67042 0.405112 0.488365
0.791012 0.427741 0.496101
0.8813 0.44596 0.501778
0.946929 0.463508 0.508629
0.0426642 0.515709 0.537072
0.0889143 0.515435 0.536233
0.169055 0.503441 0.522927
0.324575 0.491997 0.506966
0.511925 0.516991 0.512566
0.6701 0.537209 0.50724
0.796826 0.551583 0.503166
0.893309 0.564797 0.505821
0.960006 0.573175 0.511589
0.0737621 0.614466 0.561257
0.118441 0.617029 0.561822
0.18764 0.622446 0.560525
0.320317 0.615366 0.54406
0.497322 0.63035 0.532082
0.661097 0.657343 0.521996
0.795377 0.675395 0.512016
0.900725 0.68864 0.512032
0.971572 0.694041 0.519005
0.127123 0.704036 0.586847
0.172946 0.707362 0.588052
0.235035 0.719921 0.592294
0.331777 0.731289 0.589853
0.483635 0.738277 0.568231
0.653559 0.760784 0.54725
0.793042 0.78439 0.534005
0.905364 0.80235 0.533639
0.980163 0.807797 0.53904
0.174289 0.780331 0.609262
0.219226 0.782834 0.609918
0.276936 0.792813 0.612329
0.354757 0.809857 0.615503
0.469276 0.830701 0.610895
0.632715 0.855268 0.58471
0.79086 0.877165 0.560494
0.909209 0.897093 0.556542
0.989532 0.909957 0.566125
0.170962 0.821073 0.609522
0.215717 0.82388 0.610239
0.276936 0.836225 0.614313
0.355505 0.853666 0.617441
0.455329 0.874464 0.616831
0.586511 0.904997 0.601801
0.749722 0.937102 0.566278
0.896529 0.964431 0.552682
0.976867 0.96936 0.576623
0.176379 0.0993515 0.566567
0.227619 0.100908 0.56849
0.302251 0.111177 0.571939
0.403998 0.130663 0.576547
0.524544 0.144366 0.577157
0.650217 0.159579 0.58677
0.760616 0.183154 0.592981
0.855299 0.215595 0.595087
0.926055 0.254917 0.600504
0.160479 0.140307 0.577127
0.211948 0.141894 0.575387
0.289143 0.149966 0.578622
0.393866 0.171374 0.580301
0.522667 0.189273 0.5823
0.652476 0.208148 0.589364
0.764874 0.23331 0.59472
0.858793 0.266514 0.597391
0.928435 0.305394 0.603922
0.110155 0.208667 0.602197
0.166049 0.211017 0.600839
0.254704 0.22414 0.597314
0.374014 0.252781 0.599832
0.521721 0.278141 0.600748
0.660197 0.293339 0.600946
0.776516 0.314229 0.603693
0.86894 0.347417 0.610224
0.935927 0.38291 0.617533
0.0794385 0.381079 0.644266
0.133883 0.37821 0.640558
0.22945 0.372671 0.628748
0.361929 0.380575 0.628824
0.520623 0.399863 0.629892
0.673823 0.413794 0.626017
0.791943 0.433387 0.627894
0.882261 0.460807 0.637003
0.947814 0.484474 0.641642
0.0505837 0.527596 0.662791
0.100389 0.524178 0.659449
0.187137 0.509834 0.645487
0.335592 0.499352 0.632975
0.510643 0.52108 0.644038
0.677974 0.548714 0.651484
0.802563 0.564294 0.652049
0.896574 0.580774 0.658259
0.962509 0.589212 0.657725
0.066392 0.647334 0.677882
0.112978 0.648936 0.679789
0.195544 0.645914 0.677287
0.335729 0.627176 0.657023
0.504555 0.635294 0.657526
0.675456 0.666819 0.671061
0.80766 0.683955 0.668009
0.907515 0.691798 0.661997
0.974975 0.690623 0.653422
0.135683 0.727367 0.685985
0.182162 0.73022 0.68838
0.249866 0.738521 0.694575
0.353033 0.739864 0.691737
0.500618 0.741268 0.683207
0.668879 0.766842 0.687633
0.809552 0.790295 0.684199
0.913298 0.802716 0.677089
0.98378 0.80206 0.66743
0.187839 0.789303 0.690364
0.232944 0.791165 0.691447
0.290547 0.79881 0.695659
0.367483 0.814038 0.704311
0.480919 0.834043 0.714504
0.640742 0.856565 0.711391
0.803204 0.880415 0.700282
0.915419 0.896239 0.693568
0.99028 0.902586 0.68629
0.161944 0.813764 0.667689
0.203082 0.813748 0.667567
0.265629 0.824384 0.676051
0.339483 0.841321 0.682704
0.436088 0.866239 0.693233
0.565652 0.895903 0.702754
0.736461 0.937118 0.690883
0.892683 0.957244 0.671931
0.978469 0.968246 0.674632
0.202274 0.11809 0.670253
0.251026 0.120317 0.670497
0.320928 0.1308 0.672923
0.417517 0.149905 0.675822
0.53489 0.163745 0.685496
0.659342 0.173373 0.693248
0.775692 0.198734 0.710903
0.867887 0.23772 0.725948
0.932448 0.278447 0.727733
0.189532 0.161135 0.684779
0.239445 0.16286 0.683406
0.311131 0.171939 0.682948
0.410163 0.191806 0.684581
0.532998 0.208072 0.693141
0.663264 0.220035 0.700801
0.780774 0.248096 0.716472
0.871443 0.28867 0.73022
0.934432 0.328099 0.730602
0.14136 0.215885 0.726543
0.193988 0.217853 0.725643
0.276555 0.226841 0.721431
0.388998 0.249882 0.716823
0.531533 0.280308 0.718975
0.675944 0.302129 0.725567
0.793164 0.332876 0.733791
0.880339 0.369451 0.743114
0.941588 0.404288 0.74078
0.126482 0.392111 0.766873
0.180728 0.391928 0.765499
0.271092 0.394018 0.76144
0.394583 0.405432 0.758251
0.543038 0.424414 0.756939
0.690639 0.439597 0.75642
0.805005 0.455879 0.75584
0.889998 0.480323 0.760693
0.952361 0.505089 0.757794
0.0957809 0.536431 0.789303
0.148928 0.534051 0.786923
0.24062 0.52697 0.777996
0.371084 0.523247 0.767605
0.527672 0.537987 0.768917
0.68777 0.565988 0.774899
0.814038 0.585458 0.776959
0.902785 0.601434 0.780026
0.965347 0.610025 0.775113
0.0860304 0.677806 0.815595
0.138994 0.675395 0.813855
0.23064 0.663478 0.803571
0.358648 0.642451 0.781552
0.510262 0.641062 0.773434
0.677287 0.671611 0.787625
0.817151 0.699229 0.796384
0.912917 0.710719 0.798154
0.977615 0.708156 0.787854
0.137606 0.774411 0.813153
0.187121 0.776242 0.815305
0.265064 0.778973 0.818921
0.375647 0.767102 0.807172
0.513573 0.751598 0.789761
0.673945 0.768185 0.798672
0.818891 0.796216 0.809934
0.921141 0.8094 0.808728
0.985809 0.796719 0.781704
0.200839 0.819516 0.787793
0.246708 0.821408 0.789487
0.308385 0.829236 0.796613
0.391318 0.842145 0.807965
0.505348 0.854032 0.816938
0.656733 0.862257 0.816327
0.815015 0.884718 0.821378
0.925353 0.901762 0.81828
0.992157 0.89865 0.793423
0.178424 0.829923 0.741665
0.219684 0.829938 0.741558
0.270054 0.835172 0.746319
0.33164 0.842176 0.749325
0.418082 0.860426 0.761608
0.539437 0.888395 0.778958
0.710674 0.925216 0.794141
0.888106 0.955444 0.78381
0.979477 0.964538 0.778286
0.223529 0.145541 0.770001
0.271855 0.147784 0.769497
0.34049 0.157412 0.768795
0.434028 0.174517 0.77026
0.544625 0.188251 0.776715
0.666255 0.196826 0.787106
0.780713 0.215702 0.80032
0.875639 0.262318 0.81915
0.942123 0.314092 0.82678
0.212161 0.190829 0.786252
0.261494 0.192645 0.785
0.332708 0.201175 0.781476
0.428656 0.218585 0.780423
0.544366 0.234058 0.784741
0.669856 0.242908 0.795026
0.786358 0.264195 0.807416
0.879911 0.312764 0.824781
0.943664 0.362478 0.829374
0.171878 0.251377 0.828962
0.223102 0.253025 0.828733
0.302556 0.260487 0.826123
0.411551 0.276661 0.817929
0.54435 0.297398 0.815091
0.684489 0.312734 0.823194
0.806439 0.344152 0.833799
0.893767 0.397787 0.844846
0.95111 0.436683 0.841672
0.151461 0.391821 0.868116
0.203998 0.39205 0.868254
0.290166 0.39527 0.868544
0.412818 0.409537 0.866438
0.56524 0.43328 0.861357
0.713832 0.456397 0.862913
0.828977 0.484962 0.86659
0.907866 0.517143 0.868696
0.963149 0.535409 0.861173
0.178805 0.566461 0.900557
0.231083 0.566506 0.899794
0.315557 0.566125 0.895964
0.432853 0.568856 0.889448
0.575433 0.582208 0.886854
0.722744 0.604181 0.888487
0.840024 0.622095 0.889326
0.918715 0.634089 0.887419
0.973083 0.636316 0.877852
0.165728 0.686793 0.922484
0.216358 0.685267 0.921309
0.296147 0.679164 0.915328
0.405875 0.670176 0.902678
0.542367 0.67129 0.89192
0.700313 0.694926 0.895994
0.835645 0.723949 0.902739
0.924468 0.737453 0.902052
0.980835 0.729503 0.890639
0.184756 0.800809 0.931914
0.234638 0.80145 0.932845
0.310765 0.800977 0.933379
0.412238 0.790097 0.923217
0.533333 0.772 0.904067
0.676036 0.776349 0.900526
0.823819 0.806714 0.910979
0.926177 0.826658 0.915389
0.985168 0.809461 0.896696
0.211719 0.854856 0.896666
0.259693 0.857176 0.89926
0.329488 0.866423 0.909331
0.423484 0.878553 0.92192
0.540841 0.883452 0.926482
0.67364 0.875441 0.916762
0.816739 0.885542 0.918593
0.928908 0.90837 0.925734
0.989532 0.88954 0.892973
0.20354 0.860365 0.832334
0.244877 0.860365 0.832288
0.294087 0.86566 0.838514
0.360357 0.875914 0.849241
0.44152 0.888273 0.859968
0.54873 0.903929 0.87187
0.695125 0.924636 0.884276
0.879774 0.952331 0.897139
0.983642 0.965393 0.886534
0.241199 0.182757 0.865797
0.291112 0.184512 0.864622
0.363684 0.19237 0.861402
0.457435 0.207218 0.859281
0.564721 0.22118 0.860441
0.677653 0.231556 0.870466
0.785931 0.251514 0.881666
0.878126 0.297047 0.894301
0.948333 0.355581 0.904906
0.230838 0.229984 0.878614
0.281346 0.231891 0.877287
0.357031 0.239368 0.872496
0.454582 0.253697 0.867506
0.565454 0.268482 0.86743
0.680751 0.278691 0.875761
0.789822 0.298802 0.885863
0.880705 0.345006 0.897612
0.94934 0.401801 0.90663
0.198215 0.299718 0.909148
0.250095 0.301305 0.909133
0.332052 0.30869 0.907164
0.443427 0.321843 0.899626
0.569314 0.338704 0.894774
0.695094 0.350744 0.897459
0.805737 0.37351 0.904799
0.889845 0.413764 0.910109
0.952377 0.465202 0.912718
0.180774 0.425284 0.935897
0.231693 0.42475 0.936553
0.314443 0.425406 0.938949
0.433249 0.434943 0.940658
0.577859 0.451698 0.935851
0.71696 0.466758 0.932403
0.82887 0.484688 0.933837
0.907347 0.51725 0.934432
0.961044 0.546578 0.927611
0.212131 0.580682 0.966476
0.262684 0.581476 0.966598
0.343603 0.583276 0.966491
0.455467 0.585519 0.966033
0.589761 0.595422 0.966232
0.731212 0.609049 0.962554
0.846098 0.621012 0.961028
0.922957 0.635355 0.958892
0.972198 0.638498 0.945617
0.194369 0.687297 0.985687
0.243442 0.686961 0.985245
0.318853 0.687358 0.983597
0.430793 0.691218 0.979721
0.566949 0.698146 0.97351
0.713314 0.714031 0.973816
0.841932 0.73164 0.975738
0.929808 0.740551 0.975433
0.979965 0.731868 0.959457
0.19498 0.781003 0.991974
0.242618 0.782635 0.993439
0.308888 0.783871 0.994583
0.397894 0.781857 0.992523
0.514534 0.775814 0.983551
0.652644 0.77763 0.975616
0.80972 0.799786 0.977371
0.923796 0.820432 0.982498
0.98352 0.810987 0.970352
0.229099 0.853162 0.973571
0.27039 0.853147 0.973693
0.312551 0.853101 0.974258
0.395056 0.862684 0.986099
0.495552 0.865797 0.988998
0.619318 0.86334 0.986313
0.75668 0.859815 0.978378
0.90312 0.887297 0.983429
0.986572 0.89192 0.980484
0.312779 0.915526 0.9608
0.354192 0.915587 0.960891
0.39646 0.915877 0.961273
0.439994 0.916442 0.962066
0.493248 0.917708 0.963195
0.593759 0.926604 0.971389
0.724422 0.932036 0.975357
0.882719 0.948226 0.983566
0.994034 0.978851 0.997711
