creative/lut-kodak-gold-200.cube
TITLE "Generated by Resolve"
LUT_3D_SIZE 33
0.0169833 0.0158846 0.016556
0.0167849 0.0155642 0.0162966
0.0168154 0.0156558 0.0163119
0.0385901 0.0236362 0.0233768
0.0884718 0.0375982 0.0355383
0.150286 0.0472267 0.0423743
0.214069 0.0523232 0.041413
0.271214 0.0560769 0.0368963
0.318303 0.0604105 0.0331884
0.357061 0.0661021 0.0321813
0.387991 0.0720684 0.0321508
0.41561 0.0787823 0.0334478
0.43975 0.0858015 0.0349737
0.4654 0.093904 0.0372015
0.489662 0.102586 0.0396582
0.512062 0.11162 0.0426184
0.531441 0.120089 0.0459449
0.549615 0.128954 0.0496376
0.567056 0.137438 0.0538491
0.583276 0.145464 0.0578317
0.599588 0.153735 0.0624399
0.61442 0.16144 0.0666514
0.628626 0.168933 0.0704662
0.641688 0.17702 0.0737163
0.654078 0.184741 0.0766461
0.666239 0.19295 0.0806287
0.677882 0.201831 0.0878157
0.689158 0.211475 0.0956436
0.700404 0.221851 0.104662
0.712612 0.233387 0.115801
0.72575 0.246464 0.128832
0.740276 0.261372 0.144396
0.754192 0.276631 0.168093
0.0237583 0.0376287 0.0238193
0.0237888 0.0377356 0.0238499
0.0238651 0.037995 0.0239414
0.0397498 0.0416266 0.0275578
0.0810254 0.0515908 0.035874
0.137179 0.0622416 0.0411383
0.19884 0.069749 0.0405737
0.25597 0.0749981 0.0379797
0.303349 0.0799573 0.0356603
0.342626 0.0849317 0.0342412
0.376211 0.0903487 0.0342565
0.405142 0.0955062 0.0340429
0.431281 0.101778 0.0348974
0.456611 0.108446 0.0361791
0.482292 0.115953 0.0381323
0.505608 0.123949 0.0404212
0.526207 0.131746 0.0431525
0.545419 0.139864 0.0465705
0.563836 0.148043 0.0502022
0.581048 0.155749 0.0535286
0.597528 0.163439 0.0574655
0.613428 0.171145 0.0614023
0.628168 0.178607 0.0651865
0.642039 0.185748 0.0689097
0.655009 0.192569 0.0723125
0.667643 0.198993 0.0769207
0.679316 0.205966 0.0840467
0.690303 0.213642 0.0921035
0.701076 0.222782 0.102068
0.712535 0.233249 0.114855
0.725429 0.246204 0.128527
0.739834 0.260975 0.143938
0.753918 0.276219 0.167269
0.0303044 0.0661784 0.0325933
0.0303044 0.0661784 0.0325933
0.0303044 0.0661784 0.0325933
0.0430152 0.0683299 0.0344396
0.0771496 0.0759442 0.038407
0.127779 0.0868238 0.0411231
0.185824 0.0966049 0.04094
0.240314 0.103853 0.0401312
0.287587 0.109651 0.0397192
0.328115 0.114763 0.0394751
0.362722 0.119661 0.0395666
0.393622 0.124666 0.0399939
0.421195 0.129824 0.0401923
0.446983 0.136095 0.0411994
0.473243 0.142458 0.0425116
0.497673 0.149355 0.0444343
0.519371 0.156634 0.0469062
0.539452 0.16379 0.0496681
0.558114 0.170779 0.052369
0.575967 0.177737 0.0550393
0.593408 0.184482 0.0580758
0.60943 0.191165 0.0611887
0.625055 0.197498 0.0643015
0.640055 0.203616 0.0675822
0.654429 0.20882 0.070573
0.668376 0.213077 0.0737469
0.681987 0.2168 0.0782177
0.694392 0.221408 0.0835279
0.705745 0.228061 0.0913252
0.717037 0.237171 0.102159
0.729351 0.248508 0.11667
0.742596 0.262364 0.134691
0.75584 0.277043 0.159228
0.0336156 0.0976425 0.0392767
0.0336004 0.0974594 0.0392309
0.0336004 0.0974594 0.0392309
0.0439307 0.0984817 0.0395514
0.0736706 0.104753 0.0409094
0.120211 0.116091 0.0419318
0.174517 0.126452 0.042359
0.226734 0.134829 0.0428016
0.273259 0.141527 0.0434119
0.314443 0.147646 0.0446479
0.35021 0.152789 0.045594
0.382284 0.15758 0.0463569
0.411841 0.162219 0.046952
0.438941 0.167681 0.0477607
0.465309 0.173785 0.0487526
0.490669 0.180331 0.0501106
0.513237 0.187015 0.0521553
0.533761 0.193439 0.0543221
0.553277 0.199939 0.0567178
0.57174 0.206271 0.0590829
0.58883 0.21239 0.0614633
0.605646 0.218311 0.0641489
0.621714 0.22385 0.0669108
0.636805 0.22858 0.0695201
0.650553 0.232959 0.071809
0.665446 0.235203 0.0741588
0.679713 0.236881 0.0767224
0.693889 0.239384 0.0805829
0.706798 0.242527 0.0852979
0.719951 0.247654 0.0932479
0.732555 0.255451 0.104723
0.746105 0.266957 0.121904
0.759991 0.280339 0.146075
0.0340734 0.130724 0.0441901
0.0340734 0.130724 0.0441901
0.0341192 0.130587 0.0442054
0.0433204 0.130755 0.0433967
0.0703441 0.13611 0.0430152
0.113939 0.146593 0.0438392
0.165347 0.156954 0.0443885
0.215808 0.166018 0.0457465
0.261631 0.17351 0.0472114
0.302953 0.180484 0.0489967
0.339574 0.186206 0.0507973
0.372381 0.19115 0.0518807
0.403647 0.196231 0.0532387
0.432151 0.20174 0.0543374
0.458228 0.207523 0.054963
0.485283 0.214099 0.0565042
0.508644 0.220157 0.0580301
0.529671 0.226154 0.0596933
0.549279 0.232136 0.0615549
0.567697 0.238132 0.0636606
0.585214 0.2439 0.0659953
0.602228 0.249241 0.0681163
0.618158 0.254673 0.0701152
0.632822 0.258961 0.0723735
0.647028 0.26305 0.0745403
0.661479 0.264027 0.0762188
0.676326 0.264332 0.0777447
0.691081 0.264302 0.079881
0.705501 0.263874 0.082826
0.719936 0.264958 0.0874647
0.734707 0.268635 0.0960861
0.749432 0.276219 0.110719
0.76463 0.287388 0.134356
0.032929 0.164324 0.0470741
0.0329137 0.164157 0.0470283
0.0329137 0.164157 0.0470283
0.0415351 0.163714 0.0460975
0.0673838 0.167224 0.0452125
0.108919 0.176944 0.0460822
0.158862 0.186969 0.0473793
0.208392 0.19585 0.0491493
0.25359 0.203922 0.0508583
0.294392 0.21117 0.0528725
0.331411 0.217746 0.0550546
0.365393 0.223713 0.0569009
0.397513 0.229572 0.0589303
0.427131 0.235401 0.0601511
0.453864 0.24152 0.061326
0.481331 0.247684 0.0626993
0.505425 0.253727 0.0639811
0.52694 0.259602 0.0652628
0.547021 0.265293 0.0667124
0.5664 0.271046 0.0687266
0.584024 0.276524 0.0707408
0.600809 0.281971 0.0726635
0.617121 0.286885 0.0748455
0.632547 0.291508 0.076997
0.646586 0.295369 0.0788586
0.660731 0.295277 0.0796979
0.674342 0.294118 0.0803388
0.688991 0.29247 0.0813458
0.703609 0.290562 0.082826
0.718975 0.288792 0.0857252
0.734615 0.288258 0.0909285
0.750988 0.292561 0.102556
0.767071 0.300572 0.123537
0.0327764 0.198276 0.0509346
0.0327153 0.198108 0.0508583
0.0326543 0.197925 0.0507515
0.0410468 0.196002 0.0493172
0.0655985 0.197543 0.0480812
0.105974 0.206149 0.0494392
0.155825 0.215625 0.0513771
0.204852 0.224552 0.0534371
0.249271 0.232105 0.0552987
0.289754 0.239277 0.0572976
0.326787 0.246494 0.0595254
0.361501 0.253468 0.061799
0.394049 0.260258 0.0637522
0.424384 0.266697 0.0657664
0.451438 0.27306 0.0670939
0.478798 0.279316 0.0683757
0.50338 0.285512 0.0695811
0.525399 0.291234 0.0708019
0.545983 0.296834 0.0720073
0.565194 0.30222 0.0736095
0.583551 0.307744 0.0757305
0.60058 0.313207 0.07776
0.617243 0.31809 0.0799573
0.632731 0.322713 0.0819409
0.647181 0.326574 0.0835126
0.660746 0.326314 0.0840925
0.674586 0.324819 0.0844739
0.688396 0.322957 0.0845197
0.70277 0.320455 0.0849165
0.718196 0.317571 0.0864271
0.734295 0.314961 0.0903029
0.751629 0.314809 0.0984512
0.769574 0.319081 0.115969
0.0346075 0.230686 0.0559854
0.034699 0.230426 0.0560006
0.0347753 0.230121 0.0559396
0.0426795 0.227131 0.0539559
0.0660563 0.226673 0.052079
0.105577 0.234287 0.0535439
0.15436 0.243931 0.05626
0.202701 0.252018 0.0581216
0.247044 0.259419 0.0601358
0.287816 0.266361 0.0622721
0.325139 0.273304 0.0643473
0.359457 0.280491 0.0664225
0.391943 0.28748 0.068513
0.422721 0.294636 0.0704356
0.450004 0.30161 0.0721904
0.477165 0.308263 0.0740063
0.501961 0.314519 0.0753643
0.524102 0.320394 0.0765698
0.5449 0.326116 0.07776
0.564569 0.331624 0.0792706
0.582818 0.33695 0.0806897
0.600015 0.342046 0.0825971
0.617182 0.347082 0.0848402
0.632883 0.351888 0.0871138
0.648203 0.356146 0.0892348
0.661921 0.356313 0.0899214
0.67602 0.355291 0.0903639
0.689799 0.35346 0.0902266
0.704005 0.35079 0.0901808
0.719005 0.347372 0.0905623
0.735119 0.343725 0.0924086
0.753109 0.341131 0.0978256
0.771527 0.341466 0.111467
0.0383764 0.261738 0.0616464
0.0383154 0.261357 0.0615091
0.0382086 0.261112 0.0613413
0.0453193 0.257237 0.0590219
0.0682078 0.255619 0.0567483
0.106279 0.261753 0.0578164
0.154025 0.270863 0.0607309
0.202213 0.279377 0.0635843
0.246571 0.286336 0.0656138
0.287221 0.292866 0.0675212
0.324117 0.299199 0.0693065
0.358206 0.305867 0.0712902
0.390677 0.312978 0.0734874
0.421485 0.320272 0.0751965
0.448997 0.327642 0.0773785
0.476143 0.334844 0.0791943
0.500496 0.341238 0.0805371
0.522423 0.347082 0.0815137
0.543435 0.352773 0.0827802
0.563195 0.358312 0.0841382
0.581537 0.36347 0.0855268
0.599161 0.368505 0.0874647
0.616297 0.373526 0.0899062
0.633005 0.378805 0.0924849
0.648356 0.38294 0.0945449
0.66276 0.383886 0.0959793
0.676844 0.38265 0.0962539
0.690791 0.381384 0.0963912
0.705348 0.378882 0.0961929
0.720348 0.376043 0.096025
0.736736 0.372961 0.0966506
0.755047 0.369574 0.0999924
0.775143 0.368002 0.111421
0.0433661 0.292027 0.0679637
0.0432593 0.291615 0.0677348
0.0431983 0.291386 0.0676432
0.049546 0.286854 0.0645914
0.0709544 0.283787 0.0619059
0.107927 0.288884 0.0629587
0.154131 0.297292 0.0657206
0.201816 0.305638 0.0687114
0.246357 0.312657 0.071046
0.286702 0.318776 0.0726787
0.323903 0.324453 0.074403
0.357504 0.330434 0.0760357
0.389761 0.337041 0.0781109
0.420249 0.344198 0.0799573
0.448539 0.351888 0.0822766
0.47451 0.358892 0.0840467
0.499306 0.365606 0.0856947
0.521324 0.371862 0.087129
0.54197 0.377722 0.0882277
0.561761 0.38323 0.0895247
0.58053 0.388266 0.090959
0.597848 0.393164 0.0925002
0.61529 0.397467 0.0944533
0.631907 0.401709 0.0968185
0.647425 0.405921 0.0994278
0.661997 0.407767 0.101045
0.676982 0.407919 0.102205
0.69189 0.407095 0.102937
0.70663 0.405173 0.103044
0.721645 0.402914 0.102663
0.738796 0.400687 0.10277
0.75761 0.398337 0.104677
0.778592 0.394781 0.114305
0.0500191 0.321416 0.0749371
0.0500191 0.321416 0.0749371
0.0498665 0.321065 0.0747082
0.0554665 0.316045 0.0712596
0.0751812 0.311681 0.0673381
0.110719 0.315877 0.0683299
0.155703 0.323705 0.0711986
0.202426 0.33196 0.0744182
0.246372 0.338811 0.0766766
0.2869 0.344411 0.0782635
0.32369 0.349645 0.0795148
0.357229 0.354833 0.0811322
0.389319 0.360601 0.0830854
0.419516 0.366979 0.0849317
0.447272 0.373907 0.086717
0.473243 0.381048 0.0888533
0.497932 0.388159 0.090547
0.519951 0.3944 0.0919051
0.540734 0.400275 0.09337
0.559823 0.405631 0.094316
0.578836 0.410574 0.0958267
0.596399 0.415183 0.0973983
0.613687 0.41944 0.0991836
0.63032 0.423331 0.10132
0.64625 0.427314 0.103563
0.661097 0.429786 0.105425
0.675822 0.430442 0.106935
0.691081 0.430259 0.108034
0.706432 0.429236 0.108995
0.722866 0.42771 0.109285
0.740475 0.426307 0.109133
0.759945 0.424125 0.11078
0.78114 0.42002 0.118547
0.057557 0.349737 0.0814527
0.0574502 0.349447 0.0813458
0.0573129 0.349157 0.081239
0.0622416 0.344518 0.0777447
0.0806592 0.339544 0.0731975
0.114229 0.342626 0.0737011
0.158083 0.349981 0.0765545
0.203403 0.357763 0.0798505
0.246891 0.364446 0.0823224
0.287022 0.36997 0.0836652
0.323857 0.374884 0.0850385
0.357351 0.379767 0.0863203
0.388739 0.384375 0.0875868
0.419135 0.389593 0.0897078
0.446571 0.395468 0.091371
0.472267 0.401984 0.0934157
0.49691 0.408942 0.0954299
0.51899 0.415442 0.0970016
0.538964 0.421332 0.0982986
0.558129 0.42678 0.0993362
0.576822 0.431846 0.100862
0.594522 0.436561 0.102327
0.611795 0.440589 0.104005
0.628763 0.444343 0.105638
0.644938 0.447761 0.107729
0.659663 0.450584 0.109758
0.674693 0.451499 0.111269
0.68986 0.452064 0.112795
0.70573 0.451896 0.114137
0.722179 0.450568 0.114733
0.740764 0.4495 0.115297
0.761288 0.448203 0.11667
0.783688 0.443961 0.124041
0.0648508 0.376776 0.087602
0.0647593 0.376593 0.08748
0.0646067 0.376211 0.0872663
0.0694133 0.371984 0.083772
0.0867018 0.367254 0.0790112
0.118807 0.369543 0.0789807
0.160739 0.375708 0.0816358
0.204898 0.383169 0.085008
0.247211 0.389715 0.0876478
0.286976 0.39501 0.0894331
0.323934 0.399969 0.0904707
0.357397 0.404318 0.0917372
0.388678 0.408591 0.0928054
0.418387 0.412604 0.0944686
0.445609 0.417212 0.0959182
0.47126 0.423056 0.0979782
0.496239 0.429557 0.100099
0.517861 0.43563 0.101564
0.53817 0.44184 0.102983
0.557046 0.447288 0.10428
0.575463 0.452247 0.105791
0.592798 0.456672 0.107134
0.609995 0.460822 0.108965
0.626795 0.464302 0.110414
0.643198 0.467643 0.112215
0.65832 0.470527 0.114061
0.673411 0.471672 0.115419
0.688533 0.472465 0.117052
0.704158 0.472541 0.118517
0.721126 0.47216 0.119875
0.74023 0.471595 0.120974
0.762158 0.470909 0.123095
0.785199 0.466773 0.129885
0.0723278 0.40235 0.0931106
0.072221 0.402045 0.0929885
0.0721447 0.401831 0.0928054
0.076524 0.398795 0.0897688
0.0931106 0.394141 0.0847181
0.12372 0.395834 0.0844739
0.163989 0.401343 0.0866407
0.206653 0.40827 0.0897688
0.248096 0.41442 0.0927901
0.287144 0.419944 0.0947127
0.323568 0.424414 0.0959182
0.357198 0.42887 0.09691
0.388449 0.432303 0.0977188
0.417823 0.435874 0.0988632
0.445197 0.439582 0.100481
0.470726 0.444266 0.102434
0.495323 0.449866 0.104601
0.517327 0.455543 0.106218
0.537682 0.461387 0.107744
0.55671 0.466926 0.109194
0.574838 0.472267 0.110826
0.59176 0.476707 0.112245
0.608545 0.480842 0.114
0.624949 0.484398 0.115312
0.641581 0.4878 0.117189
0.657206 0.4907 0.119142
0.67219 0.492332 0.120638
0.687327 0.493339 0.122057
0.702785 0.493767 0.123384
0.719753 0.493935 0.124926
0.739223 0.493706 0.126665
0.762081 0.493187 0.129381
0.786297 0.489601 0.136461
0.0794537 0.426734 0.0982834
0.0793622 0.426581 0.0981765
0.0793622 0.426581 0.0981765
0.0835126 0.423957 0.0951705
0.0991684 0.419974 0.0896925
0.128237 0.421485 0.089128
0.167819 0.426383 0.0915389
0.209506 0.433082 0.0946975
0.249454 0.438956 0.0975967
0.287739 0.44358 0.0996719
0.323278 0.448188 0.101183
0.35671 0.451942 0.101991
0.388128 0.455924 0.102678
0.418036 0.45922 0.103899
0.445487 0.462226 0.105318
0.470115 0.465705 0.106935
0.494591 0.4701 0.108675
0.516899 0.475196 0.110491
0.537652 0.481132 0.11223
0.557122 0.487083 0.114122
0.574868 0.492393 0.115755
0.59144 0.497017 0.117372
0.607813 0.501259 0.119249
0.624323 0.504845 0.120806
0.640848 0.508171 0.122698
0.656062 0.511315 0.124483
0.671489 0.513222 0.126329
0.686885 0.514504 0.12784
0.702205 0.51548 0.129152
0.718898 0.51574 0.130404
0.738735 0.515938 0.132738
0.761975 0.515145 0.135775
0.786572 0.512093 0.143206
0.0863661 0.449622 0.103014
0.0863661 0.449622 0.103014
0.0862898 0.449348 0.102907
0.0899825 0.447608 0.100404
0.104982 0.444236 0.0952773
0.133242 0.445823 0.0940261
0.171466 0.450782 0.0961471
0.212238 0.45655 0.0993668
0.251164 0.462013 0.102113
0.288472 0.466621 0.104494
0.323308 0.470848 0.106172
0.356298 0.474556 0.107088
0.388327 0.478981 0.10811
0.41796 0.482551 0.108949
0.445396 0.485344 0.109819
0.469963 0.488365 0.111147
0.494041 0.491829 0.112734
0.516228 0.496208 0.114519
0.537331 0.501549 0.116503
0.557122 0.507073 0.118364
0.575235 0.512398 0.120272
0.59202 0.517235 0.122255
0.608438 0.521508 0.124208
0.624552 0.525246 0.126116
0.640528 0.528511 0.128191
0.656031 0.531487 0.130159
0.67126 0.533928 0.132219
0.686641 0.535775 0.133913
0.702602 0.537346 0.135592
0.719158 0.538018 0.137072
0.738125 0.53782 0.138903
0.761776 0.536919 0.142809
0.786709 0.5337 0.150866
0.0931411 0.471458 0.107866
0.09308 0.471305 0.107759
0.0930343 0.471199 0.107729
0.0962692 0.469993 0.105882
0.110964 0.467338 0.100603
0.137942 0.469368 0.0989395
0.174929 0.474235 0.10103
0.214786 0.480034 0.104112
0.252995 0.485237 0.106859
0.28983 0.489799 0.109331
0.323857 0.493599 0.110948
0.356451 0.497475 0.112551
0.388113 0.501427 0.113649
0.417685 0.50515 0.114076
0.445487 0.508415 0.114992
0.470314 0.511193 0.116121
0.494179 0.514443 0.117449
0.516197 0.517922 0.118929
0.537026 0.522179 0.120623
0.556848 0.527123 0.12253
0.575357 0.532265 0.124392
0.59292 0.537179 0.126802
0.609674 0.541695 0.129107
0.626123 0.545541 0.131518
0.64126 0.548775 0.133333
0.656596 0.551843 0.135698
0.671901 0.554635 0.138186
0.687343 0.557031 0.140429
0.703517 0.559182 0.142489
0.720409 0.560449 0.144045
0.739437 0.560342 0.145983
0.7626 0.559213 0.150301
0.786938 0.555337 0.159335
0.10074 0.493187 0.112779
0.10074 0.493187 0.112779
0.10071 0.49308 0.112749
0.103182 0.492729 0.111574
0.117144 0.490867 0.106462
0.142229 0.492744 0.104524
0.177417 0.497276 0.105806
0.217029 0.503197 0.109636
0.254841 0.508186 0.1122
0.291157 0.512505 0.11426
0.324681 0.515969 0.115953
0.356497 0.519448 0.117403
0.387808 0.523125 0.118791
0.417517 0.526833 0.119371
0.445396 0.530159 0.120073
0.470649 0.533379 0.12108
0.494499 0.536629 0.122301
0.516396 0.539635 0.123705
0.537041 0.543191 0.125292
0.55668 0.547387 0.127001
0.57557 0.552316 0.129015
0.593637 0.557198 0.131411
0.610651 0.561608 0.133623
0.627634 0.565667 0.136339
0.643183 0.568841 0.138705
0.658213 0.572076 0.140963
0.673594 0.575326 0.143633
0.689097 0.578134 0.146456
0.70544 0.580865 0.148943
0.722332 0.58265 0.151034
0.742046 0.583612 0.153475
0.764294 0.582208 0.157488
0.787717 0.577523 0.168368
0.108919 0.514046 0.11754
0.108919 0.514046 0.11754
0.108934 0.514138 0.117617
0.11043 0.514107 0.11696
0.12285 0.51281 0.111772
0.146715 0.515068 0.110185
0.180133 0.5196 0.111162
0.218128 0.525048 0.114519
0.256443 0.530571 0.1178
0.292012 0.534279 0.119432
0.32546 0.537804 0.121096
0.356939 0.540887 0.122362
0.38764 0.544076 0.123568
0.417426 0.547814 0.124727
0.44535 0.551431 0.125582
0.470603 0.554711 0.126574
0.494636 0.557855 0.127565
0.516533 0.560983 0.128801
0.537148 0.564111 0.130419
0.556695 0.568124 0.13193
0.575753 0.572427 0.133776
0.593729 0.576883 0.135805
0.611658 0.581353 0.138415
0.629145 0.585367 0.140871
0.645197 0.588983 0.143404
0.661372 0.592569 0.146456
0.675853 0.595636 0.148608
0.691234 0.598733 0.151507
0.708095 0.602213 0.154711
0.725399 0.60473 0.157275
0.745617 0.607065 0.160555
0.767697 0.606195 0.164981
0.790051 0.600702 0.178164
0.117342 0.534203 0.121691
0.117357 0.53434 0.121813
0.117403 0.534447 0.12192
0.117937 0.534539 0.121813
0.129442 0.534676 0.117464
0.150851 0.536233 0.115587
0.182803 0.541039 0.116854
0.219287 0.54667 0.119951
0.25684 0.551843 0.123171
0.292103 0.555932 0.124895
0.325719 0.55906 0.126192
0.357382 0.561959 0.127214
0.38793 0.565118 0.128405
0.417227 0.568093 0.129656
0.444831 0.571527 0.130816
0.470085 0.575051 0.131853
0.494362 0.578286 0.133135
0.516625 0.581537 0.134386
0.537255 0.585046 0.135729
0.557229 0.588479 0.13727
0.57586 0.592508 0.138842
0.594491 0.596597 0.140734
0.612146 0.600748 0.142794
0.630381 0.604685 0.145296
0.647868 0.608789 0.148318
0.66392 0.612512 0.151034
0.679118 0.615641 0.153643
0.694728 0.619638 0.156695
0.711086 0.623529 0.159564
0.729137 0.626902 0.162982
0.749233 0.629786 0.166567
0.771923 0.630259 0.17258
0.793561 0.624659 0.189136
0.12697 0.55436 0.126253
0.127016 0.554452 0.126345
0.127062 0.554559 0.126421
0.127214 0.554849 0.12668
0.137209 0.555871 0.123033
0.156237 0.557565 0.121431
0.185519 0.561624 0.122484
0.21944 0.567132 0.125063
0.255665 0.572198 0.128283
0.291051 0.576288 0.130266
0.324865 0.57966 0.131258
0.357366 0.582696 0.132372
0.3879 0.585489 0.133318
0.41677 0.588022 0.134295
0.444205 0.591073 0.135576
0.469551 0.594156 0.137011
0.493294 0.597848 0.13843
0.516152 0.601389 0.139986
0.537743 0.605051 0.141573
0.557534 0.608789 0.14284
0.576761 0.612589 0.144335
0.59469 0.616144 0.14551
0.612772 0.620172 0.147341
0.631754 0.624262 0.150011
0.649927 0.628443 0.153063
0.666789 0.632074 0.156069
0.682353 0.63563 0.158587
0.699001 0.64007 0.162005
0.71519 0.644556 0.16492
0.732662 0.648264 0.168231
0.753491 0.651591 0.172702
0.776318 0.653101 0.179934
0.797757 0.648386 0.200656
0.137835 0.573968 0.132326
0.137972 0.574136 0.132418
0.138094 0.574304 0.132509
0.138293 0.574548 0.132662
0.145663 0.576181 0.129396
0.1617 0.577981 0.127459
0.186984 0.581231 0.12781
0.218585 0.586313 0.130114
0.252857 0.591363 0.132738
0.288426 0.596002 0.135409
0.322713 0.599893 0.136767
0.355383 0.60293 0.137423
0.386374 0.605386 0.137942
0.415808 0.607935 0.139147
0.443351 0.610544 0.140429
0.468559 0.613748 0.141848
0.492348 0.617136 0.143481
0.515404 0.620615 0.145464
0.53727 0.624613 0.147112
0.557839 0.628412 0.148516
0.576928 0.63209 0.149523
0.595071 0.635554 0.150469
0.614023 0.639216 0.152636
0.632746 0.642908 0.15462
0.651728 0.646769 0.157656
0.669413 0.650919 0.160784
0.686458 0.655421 0.164065
0.703365 0.660075 0.167468
0.719722 0.664469 0.170581
0.737392 0.668513 0.174212
0.757763 0.672343 0.178866
0.780926 0.674586 0.187884
0.801877 0.670558 0.21297
0.149294 0.592645 0.139864
0.149416 0.592905 0.13994
0.149493 0.593072 0.140002
0.149767 0.593622 0.140185
0.154177 0.595209 0.137026
0.166705 0.597513 0.133928
0.188525 0.600687 0.134142
0.216419 0.604761 0.135515
0.249012 0.610056 0.137789
0.283406 0.614878 0.140154
0.317662 0.619043 0.141588
0.351247 0.622278 0.142565
0.383474 0.625177 0.143282
0.413626 0.627756 0.143954
0.441672 0.630381 0.145022
0.467308 0.633036 0.146456
0.490929 0.636118 0.148394
0.513634 0.639353 0.150256
0.535714 0.643091 0.152041
0.557031 0.647044 0.153704
0.576623 0.650828 0.154711
0.596109 0.654383 0.156268
0.61445 0.657389 0.157549
0.633326 0.660609 0.159213
0.653315 0.664637 0.162432
0.672557 0.669779 0.166094
0.690837 0.674601 0.169955
0.707958 0.67953 0.173419
0.724697 0.683848 0.177066
0.742153 0.688304 0.181186
0.763043 0.692485 0.186831
0.785962 0.695216 0.197498
0.805905 0.691524 0.225162
0.160037 0.610788 0.148074
0.160327 0.611276 0.148257
0.160525 0.611597 0.148379
0.160723 0.611917 0.148501
0.163287 0.613367 0.146227
0.172107 0.616312 0.141695
0.189532 0.619425 0.141009
0.214038 0.623438 0.141787
0.243748 0.627832 0.143343
0.275792 0.632532 0.144945
0.309545 0.636851 0.146517
0.343999 0.640665 0.148257
0.376883 0.643748 0.148882
0.408637 0.646799 0.149508
0.437598 0.649226 0.14995
0.464042 0.651667 0.150988
0.48809 0.654444 0.152407
0.51133 0.657801 0.154543
0.534447 0.661509 0.156939
0.555901 0.665583 0.158923
0.576364 0.669062 0.160388
0.595392 0.672267 0.16141
0.614435 0.675151 0.162539
0.634607 0.678645 0.164645
0.654734 0.682475 0.167437
0.674189 0.687205 0.171008
0.693584 0.692424 0.175372
0.71223 0.697765 0.179995
0.729442 0.702724 0.184161
0.748028 0.707561 0.189654
0.767849 0.71191 0.195819
0.790448 0.714595 0.208362
0.81117 0.711879 0.238224
0.171344 0.628153 0.15787
0.171511 0.628428 0.158007
0.171664 0.628687 0.158145
0.171878 0.629023 0.158328
0.172686 0.629892 0.157748
0.178592 0.633661 0.151263
0.191363 0.637461 0.148959
0.211414 0.641062 0.148592
0.237293 0.644846 0.149218
0.26688 0.649485 0.150195
0.299168 0.653819 0.15169
0.333211 0.657771 0.153582
0.367056 0.66154 0.154894
0.400259 0.664637 0.155581
0.431067 0.667659 0.155978
0.459068 0.670558 0.156344
0.483833 0.673259 0.157488
0.507729 0.676402 0.15964
0.530983 0.680018 0.161822
0.553338 0.683818 0.163943
0.574594 0.687282 0.165805
0.594446 0.690593 0.166979
0.614771 0.69395 0.168597
0.635096 0.696925 0.170428
0.655467 0.700481 0.172869
0.675761 0.704753 0.176776
0.695644 0.710124 0.181292
0.715328 0.715648 0.186374
0.734142 0.72134 0.191943
0.753185 0.726268 0.19826
0.772961 0.730694 0.206012
0.795651 0.73312 0.220554
0.815839 0.731487 0.250782
0.181628 0.643748 0.169207
0.181811 0.644144 0.169451
0.181979 0.64448 0.169665
0.182254 0.644938 0.169986
0.182635 0.645502 0.170413
0.186404 0.64918 0.163455
0.195163 0.65362 0.158923
0.210132 0.657694 0.157122
0.231556 0.661555 0.156771
0.256809 0.665553 0.156756
0.287022 0.670268 0.157855
0.319524 0.674281 0.159335
0.353079 0.678004 0.160601
0.387518 0.681666 0.161852
0.420264 0.685389 0.162264
0.45037 0.688701 0.162249
0.477256 0.691569 0.163012
0.501305 0.694667 0.164416
0.525933 0.698466 0.166629
0.549874 0.702434 0.169574
0.57232 0.706447 0.171679
0.593378 0.709987 0.173526
0.614267 0.713039 0.175082
0.634852 0.716014 0.176699
0.656291 0.719615 0.179431
0.67686 0.723369 0.183017
0.696559 0.727947 0.187228
0.716777 0.733242 0.192782
0.737118 0.738903 0.199527
0.757687 0.744808 0.207233
0.779156 0.749798 0.21709
0.800763 0.752178 0.233173
0.821103 0.75053 0.263218
0.190951 0.658305 0.181918
0.191241 0.658686 0.18233
0.191608 0.659037 0.182788
0.192065 0.659495 0.183398
0.192325 0.659876 0.183764
0.194827 0.66273 0.179049
0.20087 0.66772 0.171954
0.21149 0.672847 0.16817
0.22771 0.677104 0.166171
0.249088 0.681437 0.165255
0.274708 0.685939 0.165209
0.30486 0.690303 0.166323
0.336873 0.694011 0.167193
0.37145 0.697948 0.168505
0.405783 0.702007 0.168734
0.437873 0.705547 0.168368
0.467857 0.709133 0.168826
0.493385 0.712718 0.169863
0.519005 0.716426 0.171679
0.543908 0.720409 0.174487
0.567636 0.724804 0.176989
