creative/lut-kodak-5207-cool.cube
TITLE "Generated by Resolve"
LUT_3D_SIZE 5
0.0762798 0.00639353 0
0.254337 0.0118105 0
0.537148 0.0732891 0
0.715389 0.163287 0
0.767117 0.15581 0
0.0286564 0.220661 0.123842
0.272465 0.213748 0
0.550881 0.23682 0
0.736431 0.317693 0.00469978
0.819089 0.352544 0.0180209
0.125887 0.437263 0.310277
0.25565 0.490135 0.124147
0.618296 0.472572 0.0605631
0.770489 0.449332 0.0504005
0.83682 0.46038 0.0452277
0.149035 0.567452 0.508049
0.268193 0.623209 0.489769
0.59353 0.560769 0.0792706
0.794293 0.568978 0.0689708
0.918959 0.597803 0.0771801
0.162188 0.626719 0.631052
0.249897 0.671107 0.63917
0.607034 0.646342 0.233738
0.844953 0.659678 0.0902724
0.915511 0.67425 0.155245
0.0884108 0.0910811 0.22829
0.27744 0.124483 0.197391
0.505669 0.113481 0.117723
0.734249 0.198856 0.0696117
0.776623 0.118425 0
0.0447089 0.218265 0.323629
0.251759 0.274617 0.333974
0.595117 0.298634 0.172274
0.746944 0.347036 0.130098
0.83624 0.371252 0.0870375
0.132174 0.458839 0.496117
0.192599 0.552911 0.548501
0.61117 0.553765 0.345541
0.81593 0.512505 0.17998
0.889067 0.528649 0.151064
0.146807 0.58439 0.592599
0.198306 0.614939 0.600732
0.515831 0.649409 0.401968
0.827207 0.640986 0.195941
0.865721 0.649775 0.255131
0.166781 0.630777 0.657038
0.248142 0.685267 0.697993
0.494057 0.732555 0.627878
0.841108 0.682902 0.176425
0.82562 0.721202 0.432593
0.137545 0.141985 0.593622
0.269032 0.0933394 0.572824
0.363409 0.0934462 0.520455
0.570626 0.180636 0.442237
0.694987 0.260243 0.443534
0.0690013 0.236454 0.569665
0.256184 0.299748 0.612711
0.48539 0.286778 0.610712
0.636149 0.320104 0.478019
0.761669 0.447456 0.479789
0.152193 0.38088 0.586465
0.167239 0.401053 0.629114
0.515175 0.580713 0.651514
0.773175 0.615991 0.56405
0.824903 0.665919 0.580957
0.157733 0.476081 0.649119
0.180056 0.512047 0.656947
0.443015 0.70277 0.748379
0.769024 0.757443 0.659434
0.849622 0.770871 0.68333
0.195499 0.546578 0.69752
0.273259 0.643091 0.73109
0.480583 0.747875 0.79144
0.773938 0.808515 0.713985
0.85359 0.832013 0.741436
0.239536 0.266041 0.715206
0.381384 0.170306 0.702556
0.495903 0.167865 0.691234
0.663355 0.25565 0.651392
0.752361 0.371572 0.683742
0.144762 0.332647 0.730205
0.355962 0.395911 0.77142
0.543633 0.304677 0.748867
0.670344 0.336049 0.694545
0.768643 0.50045 0.704265
0.163516 0.416754 0.697063
0.227405 0.485435 0.724117
0.561547 0.61944 0.766476
0.772183 0.661189 0.748043
0.826978 0.699504 0.74873
0.196887 0.497261 0.725582
0.255589 0.555581 0.737453
0.476005 0.692073 0.791241
0.788296 0.807248 0.801373
0.87332 0.81117 0.800778
0.308812 0.607752 0.781643
0.384009 0.663066 0.794629
0.583124 0.742046 0.825772
0.798306 0.840146 0.832761
0.865705 0.857801 0.818326
0.31577 0.334997 0.775982
0.466697 0.230854 0.762524
0.595056 0.243244 0.770199
0.746975 0.358312 0.792401
0.830777 0.485832 0.827588
0.217823 0.416373 0.780102
0.454734 0.471946 0.838026
0.634241 0.387396 0.853529
0.78851 0.447456 0.853605
0.844816 0.63856 0.797742
0.223484 0.490913 0.756451
0.312947 0.576379 0.774517
0.647242 0.690654 0.817014
0.812726 0.699641 0.806485
0.857984 0.744549 0.808179
0.320623 0.615015 0.79762
0.394507 0.659159 0.805066
0.616159 0.736248 0.835081
0.820859 0.835004 0.844511
0.876463 0.844678 0.842725
0.494621 0.707134 0.823484
0.576135 0.734951 0.835325
0.71899 0.786435 0.858076
0.833844 0.862348 0.869337
0.886748 0.874311 0.861952
