creative/lut-kodak-5207-cool.cube
TITLE "Generated by Resolve"
LUT_3D_SIZE 33
0.0762798 0.00639353 0
0.0965744 0.00695811 0
0.118135 0.00723278 0
0.142962 0.00402838 0
0.167117 0.00303655 0
0.190799 0.00416571 0
0.208545 0.00531014 0
0.227146 0.00733959 0
0.254337 0.0118105 0
0.282521 0.0183719 0
0.311452 0.0263371 0
0.347539 0.0341039 0
0.384894 0.0412299 0
0.423636 0.0482032 0
0.461204 0.0548867 0
0.499199 0.0622416 0
0.537148 0.0732891 0
0.573022 0.0834211 0
0.606867 0.0926986 0
0.629694 0.104082 0
0.65066 0.116991 0
0.669703 0.132342 0
0.688273 0.145434 0
0.706416 0.156497 0
0.715389 0.163287 0
0.723445 0.167254 0
0.731624 0.169055 0
0.734356 0.166995 0
0.736446 0.163973 0
0.741955 0.161349 0
0.749477 0.159579 0
0.757961 0.158129 0
0.767117 0.15581 0
0.0805219 0.0170901 0
0.100389 0.0183871 0
0.120745 0.0197299 0
0.148058 0.016434 0
0.171481 0.0154574 0
0.19202 0.0170291 0
0.211475 0.0178836 0
0.232227 0.0190738 0
0.258869 0.0238041 0
0.287633 0.0291447 0
0.31635 0.0343328 0
0.350988 0.041062 0
0.386465 0.0488746 0
0.42237 0.0581979 0
0.45716 0.0666209 0
0.493751 0.0754711 0
0.534737 0.0856641 0
0.572564 0.0963149 0
0.608621 0.10724 0
0.631403 0.1205 0
0.652811 0.13402 0
0.676768 0.14815 0
0.696574 0.161273 0
0.714778 0.174487 0
0.724056 0.18291 0
0.733684 0.190066 0
0.743008 0.195102 0
0.747692 0.19472 0
0.751232 0.193378 0
0.756252 0.191516 0
0.759518 0.189288 0
0.762371 0.186633 0
0.772152 0.185168 0
0.0809796 0.0311131 0
0.100755 0.033753 0
0.119524 0.0365454 0
0.143008 0.0370947 0
0.166812 0.0355688 0
0.190936 0.0320287 0
0.21384 0.0335851 0
0.237766 0.0363165 0
0.265019 0.0395514 0
0.293324 0.0411688 0
0.323171 0.0412451 0
0.35523 0.0477607 0
0.387793 0.0560311 0
0.420813 0.0670634 0
0.454719 0.0793011 0
0.491157 0.0914168 0
0.5346 0.0991836 0
0.569574 0.11017 0
0.598962 0.124559 0
0.629419 0.138018 0
0.65977 0.151598 0
0.688746 0.164355 0
0.708049 0.177813 0
0.720882 0.190463 0
0.732067 0.202548 0
0.741146 0.211673 0
0.748318 0.217243 0
0.754788 0.221073 0
0.761196 0.222873 0
0.766613 0.216129 0
0.769436 0.212299 0
0.771206 0.209674 0
0.780194 0.210819 0
0.0789654 0.0459754 0
0.0985275 0.0465553 0
0.11696 0.0484016 0
0.140002 0.0509957 0
0.164218 0.0525063 0
0.189837 0.0524758 0
0.215106 0.0539864 0
0.241428 0.0556649 0
0.268254 0.0564279 0
0.296376 0.0565652 0
0.324865 0.0562753 0
0.356527 0.0618448 0
0.389227 0.0698711 0
0.423285 0.0822919 0
0.458 0.0954299 0
0.493919 0.108309 0
0.53373 0.119615 0
0.567605 0.131243 0
0.596719 0.142229 0
0.63006 0.154711 0
0.662654 0.167926 0
0.690135 0.180453 0
0.710048 0.193164 0
0.725704 0.206622 0
0.740826 0.217746 0
0.752987 0.227573 0
0.762493 0.235798 0
0.768933 0.242069 0
0.774029 0.245884 0
0.777035 0.240803 0
0.779934 0.23772 0
0.782773 0.236271 0
0.79089 0.23621 0
0.0743267 0.0640421 0.0103456
0.0939803 0.0618143 0
0.114412 0.0608988 0
0.138247 0.06421 0
0.16231 0.0689403 0
0.187121 0.0750744 0
0.214527 0.0768597 0
0.242664 0.0770275 0
0.269993 0.0754559 0
0.298039 0.074876 0
0.326802 0.0751507 0
0.357382 0.0792248 0
0.390555 0.0871138 0
0.426474 0.100542 0
0.461097 0.11313 0
0.49662 0.12636 0
0.53254 0.142885 0
0.565209 0.154452 0
0.596201 0.162173 0
0.629938 0.173129 0
0.661601 0.184939 0
0.687373 0.198169 0
0.709422 0.21091 0
0.728847 0.223651 0
0.746914 0.232151 0
0.762951 0.242039 0
0.776486 0.253147 0
0.78233 0.261494 0
0.786191 0.267399 0
0.787442 0.26598 0
0.790829 0.264759 0
0.795605 0.264454 0
0.802243 0.262089 0
0.0564279 0.0977188 0.0353399
0.0825818 0.0912947 0.00976577
0.112261 0.0851911 0
0.139269 0.0856794 0
0.160754 0.0904097 0
0.176989 0.0995193 0
0.206134 0.103288 0
0.238132 0.105226 0
0.270817 0.104875 0
0.302708 0.102419 0
0.33283 0.0978408 0
0.36141 0.101152 0
0.391272 0.107836 0
0.422827 0.120119 0
0.456336 0.133761 0
0.491661 0.148089 0
0.527703 0.164065 0
0.560525 0.177798 0
0.591485 0.190204 0
0.623514 0.201007 0
0.654505 0.211841 0
0.683436 0.224445 0
0.707164 0.236072 0
0.72726 0.245731 0
0.743786 0.25272 0
0.759503 0.261479 0
0.773007 0.272251 0
0.783734 0.280751 0
0.793103 0.288167 0
0.797238 0.292042 0
0.803113 0.292439 0
0.809583 0.290043 0
0.81384 0.28751 0
0.0418402 0.136141 0.0611124
0.0701457 0.127611 0.0343328
0.102846 0.117998 0.00607309
0.13521 0.114443 0
0.159426 0.11635 0
0.175219 0.123354 0
0.2038 0.129671 0
0.235904 0.135409 0
0.27129 0.139239 0
0.305104 0.137133 0
0.337697 0.13077 0
0.368277 0.130877 0
0.39968 0.134569 0
0.429999 0.144259 0
0.462455 0.157504 0
0.495979 0.171618 0
0.528862 0.18677 0
0.560845 0.201602 0
0.59144 0.215991 0
0.620539 0.228275 0
0.649836 0.239689 0
0.679561 0.248142 0
0.703258 0.256764 0
0.724422 0.266621 0
0.741192 0.273655 0
0.756481 0.28191 0
0.770352 0.291722 0
0.782437 0.300374 0
0.793378 0.307927 0
0.80032 0.312612 0
0.807858 0.314107 0
0.816037 0.313222 0
0.821164 0.311498 0
0.0294499 0.178454 0.0884413
0.0558938 0.168093 0.0594492
0.0890822 0.156344 0.0315251
0.128344 0.149172 0.00900282
0.158206 0.145876 0
0.179095 0.147753 0
0.205966 0.157092 0
0.235523 0.167529 0
0.271473 0.177493 0
0.306691 0.177798 0
0.340825 0.171191 0
0.377218 0.166903 0
0.41294 0.16585 0
0.444617 0.171862 0
0.475578 0.182864 0
0.506554 0.196612 0
0.535103 0.210925 0
0.564324 0.225513 0
0.594644 0.240696 0
0.62034 0.255222 0
0.646601 0.267567 0
0.674708 0.268589 0
0.699031 0.275883 0
0.721584 0.286763 0
0.738933 0.295521 0
0.754299 0.303731 0
0.767849 0.31162 0
0.779416 0.319997 0.00117494
0.789868 0.32755 0.00480659
0.798138 0.328634 0.00689708
0.807538 0.331075 0.00808728
0.817258 0.334173 0.0084535
0.824475 0.334646 0.0106966
0.0286564 0.220661 0.123842
0.0474708 0.216068 0.0883955
0.073167 0.209796 0.0521553
0.117998 0.200992 0.0299535
0.154986 0.193072 0.0131838
0.184466 0.186069 0.00222782
0.211109 0.1944 0
0.23859 0.204959 0
0.272465 0.213748 0
0.308263 0.217456 0
0.345342 0.215702 0
0.385779 0.209995 0
0.426001 0.206607 0
0.46096 0.208209 0
0.493294 0.215274 0
0.523507 0.224613 0
0.550881 0.23682 0
0.577585 0.249302 0
0.604517 0.262303 0
0.62742 0.273671 0
0.648798 0.283207 0
0.672145 0.290761 0
0.69633 0.299886 0
0.720043 0.309728 0.00364691
0.736431 0.317693 0.00469978
0.752514 0.324697 0.00630198
0.767468 0.329641 0.00860609
0.777981 0.335821 0.00979629
0.787274 0.342061 0.0107576
0.794018 0.344594 0.0107118
0.802899 0.347982 0.0131228
0.812421 0.351461 0.0160372
0.819089 0.352544 0.0180209
0.0304265 0.261845 0.157122
0.0449226 0.261311 0.118288
0.0662394 0.258793 0.0789349
0.107958 0.251057 0.0547646
0.147112 0.242252 0.036347
0.18381 0.23035 0.0219425
0.211719 0.234928 0.0119478
0.240024 0.242985 0.00460822
0.274769 0.25124 0.00408942
0.311299 0.256626 0.00553903
0.349844 0.260334 0.0083772
0.392981 0.255024 0.0040589
0.436042 0.250278 0
0.476158 0.247288 0
0.511803 0.249973 0
0.544335 0.255039 0
0.569665 0.264836 0
0.593271 0.274922 0
0.615656 0.286259 0.00218204
0.636042 0.293843 0.00210575
0.656352 0.302144 0.00210575
0.676051 0.312261 0.00366217
0.69752 0.321324 0.00672923
0.719738 0.329793 0.0104524
0.736584 0.336172 0.0130465
0.752575 0.341802 0.0146487
0.768658 0.346365 0.0159609
0.778485 0.352392 0.0166018
0.786603 0.357977 0.0168002
0.79321 0.360037 0.0154421
0.800809 0.362936 0.0175174
0.80885 0.366445 0.0222171
0.814694 0.368048 0.0218509
0.0358587 0.301625 0.187686
0.0509651 0.301686 0.152514
0.0716106 0.30045 0.11545
0.100282 0.299428 0.0872206
0.134401 0.293416 0.0624399
0.175708 0.281727 0.0408179
0.207706 0.280079 0.0299229
0.24033 0.281819 0.0226596
0.27892 0.289006 0.0245518
0.317006 0.295827 0.0256046
0.354589 0.303105 0.0262913
0.39736 0.300542 0.0196536
0.442008 0.295521 0.0116884
0.489296 0.289418 0.00369268
0.532265 0.287495 0.00210575
0.569451 0.288075 0.00163272
0.592599 0.295476 0
0.612253 0.303563 0
0.628168 0.312291 0.00859083
0.648508 0.317678 0.0100099
0.668666 0.323705 0.0101625
0.688579 0.332906 0.0108949
0.706065 0.340337 0.0131838
0.722316 0.34696 0.017258
0.740841 0.35108 0.0220188
0.757366 0.355566 0.0234531
0.771267 0.361425 0.019913
0.780591 0.369253 0.0209964
0.788754 0.37557 0.0231479
0.796597 0.374243 0.0213321
0.802899 0.375311 0.0226139
0.807187 0.378317 0.0263828
0.812116 0.380728 0.0204166
0.0486763 0.334249 0.20145
0.060029 0.334859 0.165911
0.0751812 0.335119 0.130327
0.097612 0.339742 0.109773
0.129183 0.339254 0.0887007
0.171679 0.332692 0.0659648
0.209308 0.328008 0.051545
0.246342 0.323354 0.0387121
0.281361 0.324727 0.0352941
0.318837 0.329168 0.0343938
0.358526 0.335149 0.0355383
0.402228 0.338094 0.0360876
0.448157 0.338109 0.034699
0.49572 0.332845 0.0288701
0.539681 0.328344 0.0233616
0.580758 0.325719 0.0184176
0.606699 0.32752 0.0112764
0.627939 0.33167 0.0105898
0.644297 0.338247 0.0156558
0.661448 0.342229 0.0161746
0.67892 0.347036 0.0169223
0.695659 0.353765 0.0184024
0.714412 0.360281 0.0225376
0.734005 0.366888 0.0285344
0.745724 0.367575 0.0285344
0.757931 0.370565 0.0272068
0.76968 0.376272 0.0228733
0.778317 0.381613 0.0233005
0.786191 0.385657 0.0244602
0.795209 0.387045 0.0268711
0.801541 0.38822 0.0294041
0.806149 0.3897 0.0322118
0.813016 0.39266 0.0282597
0.0645762 0.36318 0.21648
0.0727092 0.36495 0.182406
0.0828412 0.367193 0.149584
0.100908 0.375647 0.132509
0.129702 0.381064 0.113603
0.16997 0.381598 0.0909133
0.209842 0.375219 0.0727398
0.250034 0.367407 0.0566262
0.282261 0.363729 0.0488289
0.319387 0.363882 0.0448157
0.361471 0.367376 0.0440223
0.405997 0.373968 0.0501564
0.451438 0.376928 0.0532387
0.499092 0.374121 0.0520333
0.544869 0.368688 0.0444953
0.587411 0.362753 0.0346685
0.617487 0.359731 0.0269627
0.641413 0.36054 0.0237888
0.660853 0.365408 0.0253452
0.676143 0.368154 0.02533
0.689937 0.370565 0.0247654
0.70396 0.375463 0.0258793
0.72221 0.380316 0.0299535
0.743816 0.385733 0.0367895
0.751339 0.384894 0.0334783
0.759686 0.386328 0.0302892
0.769787 0.391165 0.0270237
0.777081 0.393606 0.026627
0.783352 0.395377 0.0269932
0.793118 0.39942 0.0316625
0.800519 0.401236 0.034226
0.806928 0.401877 0.0360876
0.815244 0.405142 0.0346685
0.0844129 0.385794 0.239185
0.0917678 0.388724 0.214191
0.101061 0.392157 0.186877
0.119356 0.402502 0.163851
0.142061 0.411093 0.138766
0.169863 0.418097 0.110292
0.205875 0.417975 0.0930953
0.24419 0.414847 0.0793927
0.276188 0.408499 0.0725719
0.315312 0.404822 0.064332
0.36144 0.403464 0.0551614
0.405417 0.404807 0.0562295
0.450736 0.405661 0.0590219
0.499016 0.406394 0.0632029
0.544945 0.402564 0.0586099
0.588083 0.396918 0.0502937
0.621653 0.39173 0.0413977
0.651011 0.391318 0.0386358
0.675227 0.3935 0.040177
0.691615 0.39408 0.0404669
0.706493 0.395087 0.038819
0.717769 0.398733 0.0323644
0.730495 0.399863 0.0311437
0.744152 0.400198 0.0347906
0.756268 0.402167 0.0343786
0.766979 0.404105 0.0342565
0.776043 0.405768 0.034165
0.780072 0.406897 0.0339971
0.78381 0.408179 0.0339818
0.791531 0.411368 0.0333867
0.800931 0.414084 0.0331121
0.811292 0.416083 0.0332189
0.819959 0.418662 0.0337835
0.102647 0.404944 0.261753
0.109453 0.407034 0.242634
0.11812 0.410636 0.22211
0.13228 0.422415 0.195972
0.148898 0.433066 0.166934
0.168566 0.443015 0.136492
0.200259 0.446525 0.115984
0.235645 0.44741 0.0990463
0.268818 0.442679 0.0902266
0.309026 0.438682 0.0792554
0.355138 0.433219 0.0662394
0.4038 0.43209 0.0644541
0.451591 0.432517 0.0659037
0.495933 0.434562 0.0689708
0.541711 0.432395 0.0657511
0.58584 0.428916 0.0594492
0.621958 0.42417 0.0512703
0.654307 0.42031 0.0469673
0.683833 0.418799 0.0475929
0.703655 0.418021 0.0458228
0.719982 0.418235 0.043595
0.728328 0.419211 0.0379797
0.738186 0.418967 0.0370184
0.748745 0.417624 0.0390478
0.761807 0.418784 0.0397345
0.772717 0.419623 0.0404364
0.77969 0.419776 0.0408942
0.78439 0.421103 0.0411383
0.788968 0.423377 0.0408484
0.79472 0.424979 0.0373846
0.80415 0.42707 0.034699
0.816587 0.430198 0.0333257
0.825559 0.433585 0.0349279
0.119173 0.421927 0.284031
0.126009 0.422965 0.270115
0.13315 0.425513 0.255314
0.142 0.438621 0.228367
0.153033 0.450431 0.1991
0.166842 0.461448 0.167803
0.1944 0.46685 0.141192
0.226169 0.470588 0.117891
0.261143 0.471443 0.105333
0.300999 0.467521 0.09131
0.344686 0.459571 0.0757153
0.400641 0.457649 0.0738689
0.452293 0.457374 0.0726787
0.491691 0.460044 0.07187
0.536187 0.460029 0.0687266
0.581552 0.459205 0.0650339
0.619608 0.455283 0.057847
0.655528 0.449699 0.0531777
0.688563 0.442344 0.0509194
0.71313 0.441291 0.0463722
0.732341 0.441032 0.043473
0.73669 0.438407 0.0432746
0.745144 0.437476 0.0447089
0.755825 0.43711 0.0473335
0.767376 0.434516 0.0470436
0.776944 0.433341 0.0471809
0.782101 0.433753 0.047776
0.789456 0.436698 0.0483406
0.796368 0.439338 0.0473487
0.800214 0.439048 0.0416724
0.809079 0.44036 0.0379339
0.822354 0.443931 0.0350652
0.831891 0.44892 0.0382086
0.125887 0.437263 0.310277
0.131624 0.440131 0.300786
0.13724 0.44445 0.288975
0.142824 0.457618 0.272236
0.155001 0.470161 0.252949
0.174884 0.481285 0.228977
0.198459 0.48539 0.189288
0.224643 0.488045 0.14905
0.25565 0.490135 0.124147
0.292103 0.48687 0.100908
0.33344 0.479408 0.078584
0.385138 0.476661 0.0768444
0.438987 0.474754 0.0758526
0.491066 0.474632 0.0740826
0.537072 0.475303 0.0701762
0.579507 0.475471 0.0657816
0.618296 0.472572 0.0605631
0.654963 0.469474 0.0580148
0.688579 0.466941 0.0576333
0.714229 0.462257 0.0539254
0.735042 0.458869 0.0505531
0.740597 0.459236 0.0485084
0.750118 0.456672 0.0484932
0.763027 0.452033 0.0496529
0.770489 0.449332 0.0504005
0.777996 0.44799 0.051606
0.785351 0.448783 0.0534676
0.794156 0.451026 0.0502785
0.802563 0.452567 0.0459144
0.809293 0.45153 0.0429084
0.818479 0.453819 0.0423133
0.829053 0.458396 0.0434424
0.83682 0.46038 0.0452277
0.133089 0.455192 0.339055
0.134951 0.458305 0.331731
0.136843 0.463767 0.323354
0.143847 0.473716 0.313176
0.157733 0.484627 0.300618
0.179873 0.497002 0.286122
0.201358 0.502113 0.241749
0.225315 0.505501 0.193637
0.254566 0.507485 0.154055
0.288701 0.504234 0.12015
0.327306 0.496101 0.0895094
0.376822 0.491402 0.0821088
0.431876 0.488136 0.0777142
0.491035 0.487343 0.0755169
0.538323 0.488243 0.0720073
0.58027 0.490227 0.0683909
0.617334 0.490394 0.0639658
0.652949 0.489586 0.0621958
0.685802 0.487068 0.0621653
0.712047 0.481102 0.0588998
0.733577 0.476402 0.0552987
0.743786 0.478157 0.053666
0.755505 0.474998 0.0524758
0.76817 0.469108 0.0516518
0.775402 0.466804 0.0533913
0.782254 0.465126 0.0542916
0.789624 0.464851 0.0544137
0.799161 0.466026 0.0510414
0.809552 0.46743 0.0477913
0.818433 0.467063 0.0475471
0.827024 0.468971 0.0475319
0.834943 0.472877 0.0475776
0.845136 0.476524 0.0497444
0.141665 0.475914 0.371008
0.136004 0.479179 0.364584
0.131243 0.482887 0.357397
0.14464 0.485161 0.348028
0.160983 0.493309 0.341405
0.181018 0.50808 0.33666
0.203494 0.516655 0.300282
0.227741 0.522499 0.25417
0.257038 0.522622 0.197742
0.291203 0.517769 0.150515
0.329168 0.508827 0.11104
0.376806 0.500908 0.090135
0.430259 0.495644 0.0762493
0.4907 0.497368 0.0753643
0.539696 0.499382 0.0741588
0.584024 0.502724 0.0734417
0.61709 0.509697 0.0682383
0.648508 0.509056 0.0654307
0.679301 0.501976 0.0648966
0.704005 0.497002 0.0605173
0.726436 0.493355 0.0569314
0.744671 0.493111 0.0570077
0.758892 0.491508 0.0553597
0.769635 0.488106 0.0518502
0.78056 0.486 0.0545052
0.789654 0.484077 0.0544442
0.795834 0.481605 0.0501259
0.806027 0.482948 0.0514076
0.817411 0.484886 0.0539101
0.827253 0.485756 0.0560464
0.834455 0.486442 0.053193
0.839612 0.487037 0.0462348
0.858167 0.497871 0.0510109
0.13933 0.495293 0.395254
0.14052 0.496803 0.394461
0.14345 0.499641 0.393927
0.15314 0.50573 0.39176
0.165469 0.514534 0.387289
0.181247 0.525856 0.377691
0.20174 0.534203 0.345663
0.225666 0.540887 0.304616
0.259678 0.541817 0.246433
0.29662 0.536645 0.191409
0.336675 0.526421 0.139376
0.381918 0.518318 0.108003
0.433188 0.512154 0.0855116
0.49221 0.509544 0.0763104
0.546532 0.510094 0.0742199
0.59588 0.513191 0.0752117
0.624704 0.519707 0.0731212
0.649897 0.519905 0.0693675
0.671778 0.514031 0.0652018
0.69543 0.51043 0.0623636
0.719173 0.507774 0.0608377
0.740353 0.506004 0.0615244
0.757809 0.50396 0.0596323
0.772488 0.501427 0.0549172
0.782269 0.498817 0.0523842
0.793454 0.497887 0.0509804
0.8065 0.499535 0.0510719
0.818173 0.499733 0.0568551
0.82916 0.500404 0.0629435
0.839155 0.503868 0.0593423
0.847807 0.506264 0.0565805
0.855528 0.507973 0.0540017
0.870832 0.515969 0.0546731
0.137789 0.513481 0.419089
0.144991 0.512901 0.422187
0.155093 0.515206 0.427314
0.161151 0.526146 0.431601
0.169787 0.535546 0.427726
0.181613 0.543603 0.415564
0.202213 0.55169 0.3888
0.226886 0.558618 0.35259
0.264042 0.560265 0.294209
0.301656 0.555138 0.232853
0.341085 0.544671 0.169772
0.384863 0.536736 0.129519
0.433936 0.529015 0.0969863
0.493904 0.522316 0.0777142
0.552087 0.521614 0.0736553
0.606287 0.523339 0.0756085
0.632609 0.527184 0.0755169
0.653178 0.527901 0.0724498
0.667704 0.525154 0.0658274
0.689357 0.523217 0.0645914
0.7122 0.521385 0.0649271
0.735073 0.519142 0.0668345
0.754925 0.516167 0.0637369
0.772915 0.513054 0.0578927
0.783825 0.510674 0.0523537
0.797299 0.511055 0.0501564
0.816144 0.515435 0.0534981
0.829633 0.51635 0.0618143
0.841154 0.516503 0.0687572
0.850492 0.521492 0.0609751
0.860685 0.525856 0.0590524
0.871565 0.529183 0.0620127
0.883803 0.53402 0.0595712
0.141848 0.525567 0.444053
0.147372 0.525643 0.447578
0.155596 0.528923 0.454398
0.162829 0.541115 0.460822
0.171695 0.550866 0.461769
0.182803 0.557885 0.456123
0.209812 0.567193 0.431159
0.241276 0.575097 0.396765
0.273213 0.575006 0.331899
0.303624 0.571099 0.267857
0.33286 0.563287 0.204395
0.377768 0.553246 0.153872
0.431159 0.543923 0.111986
0.493751 0.536553 0.0803235
0.552285 0.534035 0.0720684
0.606271 0.533593 0.0730297
0.637263 0.531487 0.0733043
0.659251 0.531548 0.0713207
0.674495 0.535012 0.0683299
0.690349 0.534874 0.0676585
0.707622 0.534585 0.0689097
0.727932 0.533394 0.0723583
0.747982 0.529595 0.0687114
0.76762 0.523751 0.0597238
0.78497 0.523293 0.0590219
0.80293 0.524346 0.0582284
0.820859 0.527153 0.0571298
0.836423 0.531167 0.0611429
0.850828 0.536034 0.0654612
0.859388 0.541054 0.0604105
0.869703 0.544915 0.0605325
0.882017 0.548058 0.0651713
0.8963 0.551934 0.0663462
0.146319 0.542473 0.465324
0.148836 0.543679 0.466423
0.152895 0.546426 0.47042
0.165408 0.555337 0.480751
0.177157 0.563928 0.487388
0.188556 0.571664 0.490578
0.213901 0.581674 0.472419
0.244068 0.590661 0.442908
0.273686 0.590524 0.38172
0.30219 0.587762 0.313848
0.329656 0.582834 0.244327
0.370932 0.570291 0.181018
0.419623 0.557626 0.128679
0.477348 0.548226 0.0944228
0.537118 0.544747 0.0818036
0.594049 0.543557 0.0778363
0.629007 0.540612 0.0738994
0.656046 0.540795 0.0713512
0.674754 0.543526 0.069276
0.690288 0.544778 0.068574
0.706142 0.546075 0.0694438
0.724117 0.546029 0.0726787
0.743832 0.543511 0.0698711
0.764614 0.539849 0.0629129
0.786862 0.539269 0.0644388
0.808026 0.539452 0.0648508
0.828214 0.54229 0.0637827
0.844144 0.546685 0.0646067
0.857984 0.551583 0.065156
0.869032 0.557733 0.0628672
0.880858 0.562325 0.0637675
0.893324 0.566308 0.0678416
0.90428 0.570092 0.0706645
0.150546 0.561166 0.485069
0.149371 0.563241 0.482094
0.149691 0.565545 0.482887
0.168734 0.569284 0.496925
0.184497 0.575891 0.510384
0.197345 0.585489 0.521523
0.216983 0.595666 0.511482
0.239979 0.604822 0.489586
0.269825 0.606073 0.433326
0.29865 0.605402 0.368124
0.32813 0.60267 0.290272
0.364126 0.587121 0.211734
0.404791 0.57116 0.148516
0.452705 0.558541 0.114748
0.512551 0.554314 0.0974594
0.573846 0.553231 0.0860151
0.613413 0.552514 0.0769818
0.647028 0.552148 0.071931
0.672786 0.551446 0.0700084
0.690227 0.554025 0.0693065
0.706081 0.556069 0.0687877
0.722179 0.55729 0.070161
0.74081 0.557671 0.0691691
0.762524 0.55848 0.0672465
0.788174 0.556054 0.0690166
0.813336 0.555978 0.0708629
0.836378 0.558923 0.0714275
0.851225 0.562066 0.0687572
0.864012 0.565682 0.0660716
0.878645 0.572747 0.0662699
0.892409 0.578836 0.0681621
0.905791 0.58407 0.0709087
0.909743 0.587366 0.0737621
0.149035 0.567452 0.508049
0.151385 0.568307 0.508171
0.155383 0.570581 0.510643
0.167178 0.576349 0.522942
0.180438 0.58471 0.530159
0.195727 0.596139 0.531197
0.217502 0.606989 0.531929
0.242084 0.617456 0.526955
0.268193 0.623209 0.489769
0.298619 0.625269 0.436072
0.334005 0.622965 0.363439
0.370275 0.605798 0.273747
0.408698 0.587427 0.194278
0.446036 0.57145 0.137194
0.493629 0.564706 0.106538
0.545251 0.561868 0.0872053
0.59353 0.560769 0.0792706
0.636728 0.559625 0.0749065
0.674113 0.559182 0.0745403
0.695232 0.558404 0.0704509
0.712535 0.558694 0.0677806
0.724315 0.560327 0.0697185
0.74406 0.563455 0.0705119
0.76788 0.566705 0.0696727
0.794293 0.568978 0.0689708
0.818402 0.571298 0.0673381
0.83888 0.573266 0.0650339
0.855055 0.576944 0.0642863
0.870741 0.581689 0.0648051
0.886122 0.586786 0.0699016
0.898985 0.591226 0.0742809
0.909834 0.59472 0.0789044
0.918959 0.597803 0.0771801
0.147189 0.576944 0.524254
0.152102 0.576944 0.52697
0.158221 0.577859 0.531472
0.166567 0.584466 0.543069
0.178256 0.593484 0.547189
0.194491 0.605447 0.542351
0.216953 0.616098 0.548608
0.241382 0.626368 0.553674
0.265919 0.635523 0.534066
0.296284 0.639338 0.493187
0.334493 0.638224 0.431174
0.37406 0.623285 0.339895
0.414038 0.606317 0.248814
0.448737 0.589319 0.173968
0.488075 0.579171 0.127871
0.529946 0.572732 0.095613
0.577432 0.570916 0.0838483
0.625345 0.569223 0.0767071
0.671031 0.5682 0.074815
0.69691 0.566827 0.070573
0.717296 0.566644 0.0678721
0.730373 0.56936 0.0705425
0.750546 0.573083 0.0721294
0.774716 0.577249 0.0724651
0.800336 0.58201 0.0696574
0.823438 0.585809 0.0670634
0.842573 0.588632 0.0654917
0.859831 0.592157 0.0659037
0.8766 0.595926 0.0674601
0.891463 0.599771 0.0731212
0.904097 0.602991 0.0785992
0.914824 0.605646 0.0843214
0.926101 0.609277 0.0841535
0.145174 0.590158 0.533486
0.150576 0.589242 0.536934
0.157351 0.58819 0.543938
0.167086 0.594141 0.556664
0.178744 0.602258 0.560693
0.193759 0.612589 0.554757
0.214694 0.622049 0.561105
0.237888 0.631128 0.568002
0.262394 0.641062 0.562005
0.292012 0.646403 0.53782
0.328237 0.647608 0.495186
0.374517 0.639979 0.407233
0.421714 0.628122 0.31426
0.462211 0.612116 0.227771
0.497734 0.598215 0.164019
0.530236 0.585885 0.112703
0.565652 0.582177 0.0902876
0.610941 0.580011 0.0760204
0.664408 0.579904 0.0713664
0.694957 0.580331 0.069688
0.720165 0.581811 0.0697185
0.74052 0.584543 0.0720684
0.761486 0.587304 0.0737163
0.783078 0.590387 0.0757305
0.8065 0.595148 0.0711681
0.827878 0.599863 0.06981
0.847318 0.605005 0.0742504
0.865217 0.607401 0.0751659
0.882383 0.608988 0.0753033
0.89482 0.611322 0.076112
0.907637 0.614145 0.0805066
0.920378 0.617166 0.0875563
0.93022 0.621439 0.0947127
0.148989 0.59707 0.558785
0.152972 0.597574 0.56025
0.158038 0.598398 0.564782
0.1673 0.602853 0.576898
0.178363 0.60914 0.580468
0.192782 0.617487 0.575479
0.212161 0.626062 0.578286
0.233783 0.634974 0.581537
0.259266 0.64744 0.577127
