creative/lut-kodak-gold-200.cube
TITLE "Generated by Resolve"
LUT_3D_SIZE 5
0.0169833 0.0158846 0.016556
0.318303 0.0604105 0.0331884
0.531441 0.120089 0.0459449
0.654078 0.184741 0.0766461
0.754192 0.276631 0.168093
0.0383764 0.261738 0.0616464
0.246571 0.286336 0.0656138
0.500496 0.341238 0.0805371
0.648356 0.38294 0.0945449
0.775143 0.368002 0.111421
0.0931411 0.471458 0.107866
0.252995 0.485237 0.106859
0.494179 0.514443 0.117449
0.64126 0.548775 0.133333
0.786938 0.555337 0.159335
0.171344 0.628153 0.15787
0.237293 0.644846 0.149218
0.483833 0.673259 0.157488
0.655467 0.700481 0.172869
0.815839 0.731487 0.250782
0.232029 0.72192 0.308537
0.250309 0.743343 0.298024
0.34168 0.792447 0.254948
0.575387 0.829572 0.241947
0.823651 0.877302 0.355291
0.100252 0.0534371 0.272099
0.356039 0.108614 0.263233
0.537728 0.159182 0.281224
0.64329 0.212573 0.293446
0.754421 0.301686 0.351034
0.048249 0.274403 0.261326
0.246662 0.279927 0.240162
0.50428 0.296071 0.227665
0.651331 0.313451 0.230854
0.790799 0.331777 0.264027
0.104112 0.492897 0.337636
0.22771 0.483955 0.263081
0.49073 0.506294 0.246494
0.652079 0.522591 0.245106
0.827268 0.501945 0.242664
0.170428 0.625132 0.36434
0.219196 0.645274 0.28307
0.484413 0.676402 0.286381
0.667903 0.708858 0.302953
0.856336 0.741482 0.372946
0.235676 0.727031 0.435554
0.254276 0.74847 0.442496
0.306004 0.798764 0.396353
0.513771 0.845029 0.308125
0.833234 0.892546 0.427878
0.194949 0.111894 0.466987
0.388739 0.156161 0.459937
0.53286 0.198123 0.456367
0.641627 0.244282 0.471153
0.759884 0.337057 0.49163
0.0456397 0.244663 0.479744
0.271107 0.274754 0.468849
0.505852 0.308797 0.460487
0.649424 0.334081 0.456504
0.798901 0.395605 0.501335
0.108232 0.48394 0.535607
0.2448 0.492912 0.518151
0.498589 0.517403 0.504738
0.657374 0.524361 0.492164
0.824872 0.529671 0.517937
0.183246 0.632654 0.56022
0.225055 0.65507 0.534478
0.476616 0.684901 0.526009
0.666346 0.713588 0.533562
0.859922 0.739345 0.577417
0.245914 0.729595 0.583398
0.264683 0.753399 0.593561
0.319432 0.807568 0.593103
0.478492 0.852018 0.521019
0.826596 0.89482 0.569741
0.280278 0.178073 0.563821
0.424018 0.212726 0.560967
0.53344 0.247059 0.565148
0.627283 0.292897 0.572869
0.747311 0.368841 0.593149
0.0892195 0.219165 0.602457
0.307042 0.263996 0.596963
0.50576 0.320073 0.595483
0.643381 0.355093 0.597391
0.786374 0.424994 0.619837
0.141436 0.476616 0.657511
0.301274 0.488975 0.649729
0.501198 0.507851 0.642741
0.654383 0.528344 0.640864
0.821881 0.567025 0.658549
0.197116 0.646067 0.688609
0.258686 0.661128 0.693141
0.48307 0.686244 0.687831
0.676341 0.718029 0.691768
0.852506 0.738293 0.698512
0.256458 0.73817 0.686519
0.275975 0.76112 0.699733
0.339178 0.815183 0.725856
0.520745 0.857801 0.712795
0.827436 0.894224 0.71841
0.366384 0.291539 0.659403
0.442191 0.308904 0.659205
0.539055 0.339773 0.663142
0.624033 0.374105 0.670024
0.736171 0.446983 0.689723
0.272419 0.34078 0.703929
0.37821 0.350454 0.699687
0.528618 0.381964 0.698192
0.640162 0.418677 0.703639
0.764187 0.497368 0.720714
0.290837 0.507103 0.76997
0.371572 0.509697 0.766583
0.533715 0.518639 0.759365
0.665721 0.543694 0.758831
0.794171 0.595254 0.762936
0.321386 0.658763 0.807019
0.388037 0.665721 0.805798
0.535683 0.688685 0.802777
0.679927 0.709606 0.802716
0.819318 0.733059 0.801053
0.300359 0.765515 0.796735
0.34052 0.786954 0.81326
0.453574 0.819837 0.833631
0.613367 0.850294 0.839506
0.840406 0.889189 0.846525
