creative/lut-kodak-film.cube
TITLE "Generated by Resolve"
LUT_3D_SIZE 5
0.054139 0.0586099 0.0373846
0.290288 0.0807813 0.0707103
0.551049 0.0968338 0.0549477
0.740444 0.139971 0.0286259
0.91014 0.197772 0.05449
0.0625162 0.273335 0.127413
0.237461 0.248829 0.0835584
0.569757 0.281941 0.049958
0.786679 0.310246 0.0271
0.932509 0.344717 0.0603037
0.0595254 0.508919 0.186679
0.186343 0.506203 0.151324
0.546807 0.5458 0.0443122
0.826825 0.576974 0.0276951
0.965911 0.580697 0.0771038
0.133806 0.691279 0.254475
0.252369 0.6981 0.21915
0.530159 0.739803 0.0915847
0.825528 0.836362 0.0585946
0.98114 0.828702 0.129976
0.206317 0.835935 0.34905
0.3187 0.840192 0.32398
0.507469 0.862257 0.258198
0.776806 0.945403 0.194186
0.974868 0.977203 0.295628
0.0889754 0.0805371 0.24387
0.250187 0.0843824 0.216175
0.515053 0.109972 0.193744
0.753979 0.140536 0.160433
0.925856 0.193652 0.193347
0.0601663 0.245014 0.238819
0.210468 0.217517 0.203601
0.533516 0.256519 0.199039
0.781384 0.28246 0.157809
0.937331 0.318639 0.193851
0.0385595 0.520668 0.338781
0.162875 0.511833 0.290272
0.509911 0.520607 0.191104
0.817136 0.5682 0.161135
0.971847 0.575555 0.216068
0.118135 0.699123 0.400732
0.234791 0.711162 0.374075
0.504448 0.737331 0.269429
0.816114 0.827176 0.230655
0.987396 0.8327 0.274418
0.190753 0.8365 0.476051
0.303227 0.846387 0.462577
0.491402 0.868376 0.400137
0.772839 0.944533 0.321584
0.976654 0.978042 0.397375
0.147265 0.0926223 0.467262
0.281819 0.105104 0.464591
0.509148 0.1355 0.45597
0.759182 0.180545 0.438895
0.927428 0.242588 0.469429
0.0839857 0.225635 0.472862
0.235889 0.230747 0.465263
0.509804 0.264424 0.460304
0.777768 0.311376 0.460975
0.93611 0.366842 0.489326
0.0426642 0.515709 0.537072
0.169055 0.503441 0.522927
0.511925 0.516991 0.512566
0.796826 0.551583 0.503166
0.960006 0.573175 0.511589
0.127123 0.704036 0.586847
0.235035 0.719921 0.592294
0.483635 0.738277 0.568231
0.793042 0.78439 0.534005
0.980163 0.807797 0.53904
0.170962 0.821073 0.609522
0.276936 0.836225 0.614313
0.455329 0.874464 0.616831
0.749722 0.937102 0.566278
0.976867 0.96936 0.576623
0.202274 0.11809 0.670253
0.320928 0.1308 0.672923
0.53489 0.163745 0.685496
0.775692 0.198734 0.710903
0.932448 0.278447 0.727733
0.14136 0.215885 0.726543
0.276555 0.226841 0.721431
0.531533 0.280308 0.718975
0.793164 0.332876 0.733791
0.941588 0.404288 0.74078
0.0957809 0.536431 0.789303
0.24062 0.52697 0.777996
0.527672 0.537987 0.768917
0.814038 0.585458 0.776959
0.965347 0.610025 0.775113
0.137606 0.774411 0.813153
0.265064 0.778973 0.818921
0.513573 0.751598 0.789761
0.818891 0.796216 0.809934
0.985809 0.796719 0.781704
0.178424 0.829923 0.741665
0.270054 0.835172 0.746319
0.418082 0.860426 0.761608
0.710674 0.925216 0.794141
0.979477 0.964538 0.778286
0.241199 0.182757 0.865797
0.363684 0.19237 0.861402
0.564721 0.22118 0.860441
0.785931 0.251514 0.881666
0.948333 0.355581 0.904906
0.198215 0.299718 0.909148
0.332052 0.30869 0.907164
0.569314 0.338704 0.894774
0.805737 0.37351 0.904799
0.952377 0.465202 0.912718
0.212131 0.580682 0.966476
0.343603 0.583276 0.966491
0.589761 0.595422 0.966232
0.846098 0.621012 0.961028
0.972198 0.638498 0.945617
0.19498 0.781003 0.991974
0.308888 0.783871 0.994583
0.514534 0.775814 0.983551
0.80972 0.799786 0.977371
0.98352 0.810987 0.970352
0.312779 0.915526 0.9608
0.39646 0.915877 0.961273
0.493248 0.917708 0.963195
0.724422 0.932036 0.975357
0.994034 0.978851 0.997711
