creative/lut-kodak-5207-warm.cube
TITLE "Generated by Resolve"
LUT_3D_SIZE 9
0.0792859 0.0196536 0
0.166827 0.0164645 0
0.253437 0.0241855 0
0.380911 0.052842 0
0.529183 0.0842145 0
0.642924 0.126375 0
0.706722 0.171908 0
0.729381 0.172168 0
0.764645 0.162203 0
0.089189 0.0712596 0.0203403
0.165484 0.0789654 0
0.264317 0.0879683 0
0.38677 0.0978256 0
0.519387 0.15494 0
0.645075 0.196826 0
0.727657 0.243366 0
0.766766 0.277256 0
0.783123 0.271733 0
0.0549783 0.220111 0.125154
0.172335 0.194476 0.0306249
0.285817 0.215595 0.0114748
0.4177 0.21619 0
0.530663 0.24889 0
0.624979 0.294362 0
0.712596 0.326711 0
0.765881 0.349462 0
0.799084 0.359045 0
0.0968948 0.356329 0.213657
0.160281 0.373266 0.125338
0.305989 0.357259 0.0683452
0.467796 0.370901 0.0734722
0.616297 0.358907 0.0408331
0.677424 0.373083 0.0267948
0.734951 0.388403 0.0250401
0.767407 0.398459 0.0162356
0.799207 0.407996 0.019501
0.15964 0.427207 0.300267
0.189395 0.457679 0.251667
0.288731 0.475639 0.138705
0.462638 0.462348 0.0960555
0.632746 0.461341 0.0822003
0.744091 0.449561 0.0659342
0.770428 0.443946 0.0544747
0.799161 0.448447 0.0440833
0.830701 0.457176 0.0381018
0.174441 0.499413 0.3991
0.206653 0.520119 0.407584
0.30103 0.542016 0.29163
0.461631 0.513451 0.11606
0.650034 0.512871 0.0969863
0.729503 0.50692 0.0859998
0.801587 0.496437 0.0703746
0.852689 0.504768 0.0753796
0.894987 0.522057 0.0655528
0.186938 0.551003 0.478447
0.218463 0.567636 0.499001
0.308248 0.603479 0.464912
0.441535 0.568353 0.204715
0.614404 0.54493 0.100969
0.732265 0.542397 0.089662
0.818952 0.551019 0.0888533
0.897322 0.563546 0.083299
0.942306 0.58088 0.092958
0.190372 0.585397 0.545403
0.216846 0.597574 0.56202
0.296941 0.632898 0.555032
0.455879 0.634318 0.399268
0.613886 0.591043 0.155581
0.756008 0.588647 0.105196
0.849317 0.602487 0.0931868
0.920104 0.612634 0.10425
0.959991 0.622721 0.115053
0.201114 0.608316 0.591348
0.228046 0.623102 0.597574
0.290806 0.650538 0.59939
0.445014 0.672847 0.473671
0.632609 0.627909 0.243427
0.779812 0.631754 0.123415
0.877745 0.639582 0.10988
0.934813 0.644266 0.111513
0.948791 0.656031 0.171237
0.090425 0.0533455 0.0770123
0.170977 0.0682383 0.0750286
0.293217 0.0338293 0.0229648
0.408942 0.0439612 0
0.544518 0.0766003 0
0.654231 0.149432 0.00277714
0.729366 0.193317 0
0.745983 0.145464 0
0.769085 0.105257 0
0.0539712 0.108965 0.125154
0.17203 0.1308 0.1066
0.319097 0.100343 0.0359045
0.430533 0.0843824 0.00161746
0.546395 0.144305 0
0.646311 0.220356 0.0126955
0.730129 0.258915 0
0.77615 0.265248 0
0.788846 0.249378 0
0.0619059 0.247868 0.232868
0.146487 0.219501 0.184695
0.30042 0.240574 0.100008
0.451514 0.240986 0.051606
0.556512 0.259495 0.0110933
0.65362 0.292317 0
0.74464 0.314748 0
0.806195 0.334447 0
0.825528 0.361776 0.00633249
0.106264 0.377279 0.320073
0.125689 0.393927 0.319707
0.284504 0.39118 0.222858
0.473838 0.391028 0.174548
0.615976 0.385397 0.118181
0.709361 0.385275 0.0444495
0.773571 0.392386 0.0173953
0.815076 0.411627 0.0179294
0.851545 0.433234 0.0280766
0.153353 0.451713 0.369894
0.178012 0.470451 0.384573
0.267109 0.517327 0.351858
0.456992 0.508644 0.241123
0.633463 0.507424 0.199649
0.775891 0.483268 0.110765
0.825833 0.472953 0.0645151
0.849149 0.477287 0.0542306
0.877913 0.491188 0.0529183
0.176989 0.513054 0.433524
0.185779 0.517769 0.435264
0.266773 0.562753 0.462226
0.407675 0.560922 0.279927
0.616068 0.549752 0.167437
0.784848 0.547433 0.108537
0.869459 0.530358 0.0838636
0.896666 0.539254 0.0887617
0.912184 0.541512 0.0837415
0.184985 0.555016 0.508141
0.196948 0.561334 0.513726
0.267323 0.603815 0.539849
0.393713 0.607446 0.41001
0.621164 0.576516 0.16994
0.788586 0.58175 0.097612
0.861631 0.58349 0.0997482
0.910643 0.572946 0.098085
0.942031 0.588159 0.110155
0.19234 0.588571 0.555779
0.211948 0.602762 0.575006
0.279606 0.636088 0.59173
0.394003 0.665125 0.547265
0.579171 0.614557 0.254536
0.782361 0.609094 0.110765
0.859892 0.613993 0.106401
0.920378 0.61532 0.117159
0.940291 0.628428 0.15198
0.20206 0.614679 0.606668
0.227222 0.627756 0.614633
0.286534 0.65919 0.630838
0.388678 0.699657 0.636988
0.591974 0.677226 0.450538
0.761486 0.636942 0.193408
0.882643 0.642527 0.121294
0.930541 0.645106 0.137438
0.910582 0.671183 0.252644
0.102892 0.09897 0.211917
0.173358 0.14107 0.218189
0.282872 0.132708 0.189837
0.395377 0.117647 0.16144
0.501152 0.123537 0.122866
0.640284 0.185489 0.129152
0.733989 0.203357 0.0813001
0.757641 0.155169 0.0128786
0.776257 0.124956 0
0.0695048 0.139055 0.214603
0.170199 0.171283 0.246799
0.283421 0.221622 0.242802
0.455863 0.20351 0.212818
0.555917 0.216281 0.161959
0.646738 0.263767 0.156527
0.734524 0.294286 0.103319
0.798047 0.302785 0.0746929
0.818891 0.279927 0.0271305
0.0693523 0.219898 0.301595
0.100862 0.234073 0.322362
0.272358 0.274571 0.31368
0.484672 0.293904 0.229297
0.591012 0.302434 0.167773
0.653391 0.33698 0.118074
0.734691 0.350973 0.114244
0.785092 0.371038 0.0809644
0.8224 0.374716 0.0644541
0.105791 0.344411 0.391959
0.121386 0.372488 0.417716
0.238254 0.408026 0.421393
0.469444 0.429923 0.302205
0.620081 0.434684 0.240208
0.700435 0.41738 0.148058
0.778607 0.41593 0.0917678
0.831052 0.428534 0.0701457
0.858 0.450919 0.0863661
0.166217 0.448753 0.465278
0.176959 0.47776 0.473426
0.229435 0.537545 0.514931
0.39556 0.545357 0.42884
0.630457 0.53933 0.342016
0.741085 0.528283 0.280095
0.815351 0.506447 0.166003
0.857099 0.507698 0.115999
0.88603 0.523308 0.133852
0.179385 0.526497 0.516197
0.181781 0.543328 0.5093
0.254322 0.58471 0.545556
0.374182 0.617716 0.515328
0.589685 0.60705 0.376272
0.737972 0.605432 0.346426
0.831037 0.583871 0.260044
0.883528 0.573953 0.197162
0.896086 0.589502 0.2121
0.184741 0.567636 0.555093
0.1832 0.573632 0.545769
0.236683 0.59649 0.563088
0.349111 0.644968 0.577417
0.547692 0.629938 0.394003
0.745937 0.622629 0.265492
0.858259 0.621744 0.206729
0.904997 0.61825 0.205493
0.89659 0.631693 0.259236
0.193866 0.603891 0.587488
0.19942 0.603738 0.596399
0.258778 0.629923 0.614115
0.347936 0.679622 0.637903
0.536843 0.671122 0.503807
0.765805 0.636561 0.238331
0.886427 0.646357 0.15285
0.89958 0.652232 0.208881
0.882368 0.666773 0.331472
0.20531 0.612085 0.615534
0.232471 0.625101 0.628199
0.288869 0.664988 0.655314
0.37995 0.71046 0.680507
0.533028 0.714168 0.594339
0.731472 0.672374 0.367605
0.875349 0.663722 0.189776
0.89749 0.676036 0.266041
0.863478 0.706462 0.424536
0.119493 0.112367 0.41059
0.193515 0.124865 0.418692
0.24802 0.0948806 0.419272
0.319005 0.0939956 0.386374
0.442283 0.136141 0.317525
0.524254 0.176715 0.267445
0.626688 0.204623 0.242344
0.698802 0.216922 0.2
0.736675 0.206409 0.151431
0.0748455 0.149126 0.383627
0.193118 0.186587 0.421378
0.266529 0.216892 0.441917
0.381659 0.203265 0.416953
0.493217 0.200885 0.34818
0.562234 0.233692 0.290501
0.68481 0.282536 0.287495
0.75407 0.322347 0.289036
0.776791 0.29929 0.228214
0.083711 0.220417 0.408484
0.113405 0.218082 0.431159
0.258732 0.285771 0.460304
0.401205 0.340414 0.455863
0.560876 0.328466 0.411673
0.638132 0.335042 0.328389
0.718532 0.387625 0.317433
0.763943 0.416617 0.319707
0.800305 0.436484 0.313527
0.114504 0.308003 0.443519
0.11426 0.292866 0.460838
0.185138 0.33785 0.494728
0.388708 0.417502 0.504265
0.617334 0.451591 0.426291
0.708782 0.459022 0.347066
0.747997 0.473121 0.308919
0.778653 0.500877 0.321553
0.80177 0.525048 0.337301
0.161089 0.372854 0.486412
0.162402 0.371923 0.497612
0.196872 0.416434 0.532326
0.334539 0.522255 0.563226
0.596445 0.565026 0.47837
0.736171 0.580423 0.413169
0.782345 0.562737 0.358068
0.809552 0.564233 0.349416
0.831144 0.59086 0.368948
0.185977 0.446647 0.542885
0.190585 0.469673 0.550515
0.231922 0.531548 0.582254
0.338766 0.629297 0.628595
0.528786 0.636759 0.557137
0.729381 0.643977 0.482841
0.800168 0.650828 0.471809
0.838285 0.653315 0.454994
0.847852 0.66566 0.465248
0.186755 0.523735 0.585733
0.191012 0.549096 0.595743
0.230137 0.58645 0.609339
0.350256 0.672602 0.656748
0.507683 0.689784 0.609583
0.708827 0.690059 0.525139
0.807828 0.708583 0.530968
0.854948 0.713787 0.530114
0.867262 0.722286 0.544442
0.196612 0.564797 0.61471
0.206226 0.586099 0.6224
0.247684 0.611154 0.640711
0.338628 0.683314 0.677195
0.50106 0.715587 0.663935
0.706111 0.711528 0.545037
0.815198 0.726162 0.526345
0.852338 0.750546 0.546563
0.883177 0.752865 0.575463
0.215808 0.585657 0.630381
0.240711 0.610056 0.643565
0.287144 0.641672 0.666926
0.364599 0.702663 0.702861
0.493599 0.735348 0.723095
0.690791 0.743038 0.60148
0.814847 0.736873 0.525139
0.857877 0.761028 0.544076
0.883925 0.78262 0.596872
0.1523 0.150317 0.543282
0.224842 0.144228 0.542275
0.276265 0.104799 0.524208
0.29662 0.0817273 0.508675
0.366079 0.105638 0.477974
0.476387 0.145998 0.436637
0.568505 0.189853 0.415534
0.639902 0.229526 0.41149
0.695033 0.264042 0.420157
0.0926528 0.183444 0.516472
0.213886 0.216648 0.553384
0.302373 0.216373 0.554376
0.361807 0.163806 0.558297
0.420676 0.16112 0.529885
0.518349 0.196567 0.462669
0.591959 0.235676 0.426749
0.656031 0.277638 0.423728
0.721859 0.321431 0.414939
0.0924086 0.239475 0.52343
0.133486 0.242481 0.548318
0.277333 0.300526 0.56527
0.387778 0.318593 0.585245
0.493477 0.289952 0.565316
0.588037 0.297887 0.492927
0.638514 0.321218 0.450752
0.712596 0.374411 0.447135
0.775143 0.439033 0.457282
0.141436 0.324956 0.530709
0.136568 0.306264 0.551797
0.200381 0.342611 0.581857
0.38294 0.426673 0.600076
0.54403 0.476921 0.579446
0.677165 0.46627 0.547662
0.720562 0.456733 0.489967
0.780911 0.509636 0.498573
0.826139 0.558648 0.519265
0.18088 0.376257 0.544244
0.17438 0.377874 0.560739
0.196277 0.395453 0.584268
0.310582 0.47924 0.612543
0.544961 0.565744 0.611887
0.731151 0.5935 0.57554
0.797681 0.601724 0.536339
0.829953 0.621744 0.529213
0.850309 0.654505 0.545327
0.193011 0.422492 0.57171
0.191852 0.424582 0.57847
0.20528 0.444282 0.591699
0.302281 0.538979 0.645624
0.489723 0.626108 0.658259
0.716991 0.677897 0.598795
0.811109 0.69575 0.585687
0.851942 0.705608 0.573358
0.868452 0.721172 0.591028
0.190829 0.465843 0.605646
0.191531 0.476997 0.605844
0.214069 0.499397 0.613672
0.327642 0.608743 0.673671
0.482139 0.68397 0.708156
0.679942 0.721981 0.655894
0.808316 0.747585 0.634318
0.859892 0.758755 0.638422
0.88455 0.767758 0.64863
0.197253 0.497398 0.625055
0.211795 0.513848 0.633112
0.250401 0.560952 0.651057
0.344976 0.653513 0.696834
0.504799 0.717205 0.733776
0.676875 0.757198 0.712306
0.81117 0.781628 0.66598
0.866194 0.801923 0.684153
0.893278 0.803754 0.686946
0.230518 0.532128 0.653803
0.260609 0.569512 0.664378
0.312215 0.623667 0.687892
0.391073 0.689357 0.72694
0.519921 0.730938 0.752743
0.706523 0.777874 0.73022
0.818891 0.802625 0.689479
0.872999 0.823743 0.69337
0.903029 0.829602 0.718791
0.205478 0.216556 0.62417
0.274174 0.187716 0.618204
0.325902 0.140764 0.602655
0.348455 0.108293 0.578317
0.410391 0.127382 0.582116
0.51107 0.165698 0.544869
0.608621 0.213809 0.522347
0.666133 0.267277 0.522179
0.720729 0.318334 0.534569
0.137804 0.236561 0.606073
0.250904 0.271916 0.626688
0.349966 0.253529 0.640452
0.412131 0.193103 0.616388
0.438865 0.160479 0.600259
0.520424 0.191333 0.563668
0.608301 0.244556 0.536446
0.670314 0.310903 0.530556
0.716808 0.365789 0.549752
0.123217 0.268574 0.618112
0.184558 0.304219 0.63946
0.328573 0.348898 0.654902
0.44538 0.341863 0.673915
0.509438 0.27396 0.653651
0.563485 0.273838 0.6065
0.639841 0.318868 0.570443
0.690349 0.372534 0.557748
0.741207 0.429297 0.569284
0.168978 0.344396 0.605264
0.167727 0.342077 0.619226
0.25684 0.394156 0.644541
0.419745 0.453315 0.674998
0.561776 0.458198 0.704311
0.653193 0.434852 0.66331
0.715221 0.465721 0.610895
0.74963 0.494423 0.605692
0.791043 0.539437 0.600855
0.183413 0.396582 0.604379
0.192538 0.395331 0.620722
0.220981 0.427329 0.636866
0.329885 0.49955 0.657938
0.554055 0.57528 0.680232
0.703395 0.626001 0.659266
0.78793 0.63566 0.666743
0.818601 0.633661 0.648325
0.859586 0.666804 0.661051
0.194217 0.435523 0.618372
0.19733 0.434562 0.627375
0.224994 0.457679 0.639368
0.311788 0.534356 0.669078
0.473823 0.61384 0.699916
0.715419 0.691966 0.703044
0.818006 0.723262 0.700023
0.873991 0.726574 0.691875
0.892332 0.741238 0.693721
0.205371 0.463004 0.641184
0.210559 0.47335 0.64419
0.245197 0.494865 0.65037
0.326986 0.57586 0.691844
0.465736 0.657328 0.727138
0.670893 0.725582 0.739864
0.820966 0.776333 0.717327
0.868086 0.784924 0.708156
0.899748 0.788388 0.718471
0.232776 0.500252 0.661662
0.251102 0.512459 0.670054
0.286397 0.54934 0.677516
0.354452 0.616098 0.714229
0.50988 0.698009 0.752178
0.692134 0.759258 0.769696
0.813642 0.79794 0.740337
0.871946 0.820737 0.734768
0.901015 0.829587 0.748516
0.280415 0.539391 0.684001
0.30901 0.571328 0.695537
0.352178 0.612421 0.718334
0.425681 0.673594 0.747463
0.564553 0.730983 0.775296
0.725261 0.781643 0.788968
0.830396 0.824109 0.775402
0.880598 0.837446 0.759899
0.907759 0.848249 0.774792
0.257862 0.268666 0.662791
0.327428 0.236957 0.663447
0.388907 0.179049 0.650309
0.411734 0.146151 0.638041
0.497642 0.177935 0.641688
0.591287 0.20824 0.623499
0.662669 0.261051 0.606561
0.722484 0.317281 0.616983
0.759701 0.368414 0.639261
0.202899 0.317403 0.702342
0.31313 0.332357 0.687587
0.396551 0.301198 0.681285
0.467582 0.235294 0.663554
0.510628 0.207645 0.654505
0.582025 0.233127 0.634607
0.662211 0.289677 0.62237
0.713954 0.353719 0.632914
0.765698 0.420844 0.646494
0.169085 0.33138 0.680507
0.252857 0.374914 0.706813
0.378119 0.390646 0.723049
0.49041 0.365499 0.735714
0.549828 0.306722 0.700191
0.595254 0.294011 0.660594
0.673381 0.336446 0.6486
0.731289 0.405768 0.649668
0.785306 0.490455 0.663203
0.18323 0.357916 0.649577
0.207294 0.391028 0.657786
0.301885 0.445441 0.682048
0.483665 0.494469 0.737438
0.610697 0.473228 0.772305
0.681987 0.422583 0.73994
0.729534 0.459083 0.715099
0.779782 0.526741 0.678584
0.818128 0.589792 0.686427
0.192477 0.410254 0.649912
0.211902 0.428214 0.653803
0.259129 0.474327 0.678294
0.387976 0.538033 0.696361
0.590127 0.604074 0.725719
0.733837 0.64976 0.724147
0.801343 0.647822 0.713252
0.837705 0.667262 0.719753
0.863386 0.687922 0.718563
0.199207 0.450523 0.656703
0.217334 0.461753 0.664347
0.258106 0.496544 0.679896
0.343755 0.56144 0.702785
0.510048 0.63949 0.729076
0.736278 0.712108 0.748974
0.823911 0.754467 0.744854
0.867262 0.760922 0.760922
0.896773 0.760845 0.751598
0.228885 0.485451 0.680049
0.250278 0.506767 0.683925
0.290455 0.540139 0.692744
0.370779 0.602777 0.711803
0.512901 0.673915 0.751858
0.690105 0.728328 0.774395
0.832975 0.802686 0.774746
0.883131 0.810178 0.766857
0.919585 0.808743 0.777768
0.284215 0.536828 0.706615
0.310216 0.557015 0.711513
0.349233 0.597711 0.715572
0.425437 0.64828 0.74406
0.55903 0.703975 0.773739
0.708568 0.74992 0.78616
0.834562 0.822797 0.800305
0.887663 0.842145 0.785138
0.918059 0.844633 0.789334
0.345174 0.589975 0.739071
0.374456 0.61323 0.741039
0.422568 0.643824 0.753185
0.497734 0.688838 0.772152
0.619181 0.728054 0.790463
0.749706 0.780713 0.808316
0.849973 0.83682 0.809552
0.894331 0.854475 0.800702
0.913359 0.857755 0.794766
0.302312 0.302266 0.704341
0.366354 0.271946 0.696666
0.429145 0.20589 0.682628
0.464347 0.170275 0.674876
0.551232 0.209262 0.684153
0.637385 0.262119 0.676204
0.712489 0.314244 0.675898
0.764157 0.356115 0.693339
0.809491 0.408438 0.727398
0.246296 0.354696 0.753216
0.356054 0.356695 0.737301
0.439933 0.33817 0.719463
0.511498 0.270054 0.712062
0.56556 0.243977 0.699077
0.654429 0.294102 0.689021
0.72166 0.343282 0.699916
0.776242 0.400687 0.730541
0.825864 0.476814 0.734386
0.206714 0.367224 0.710353
0.295186 0.419852 0.739406
0.430747 0.42385 0.767727
0.535012 0.39527 0.786816
0.5935 0.346624 0.754772
0.661418 0.34876 0.732158
0.735668 0.386221 0.74226
0.794568 0.461769 0.746563
0.838315 0.558663 0.725414
0.209155 0.397375 0.686717
0.247837 0.440696 0.690257
0.349569 0.489311 0.711604
0.524208 0.534569 0.759793
0.649958 0.523369 0.797269
0.720851 0.460166 0.796475
0.773953 0.486168 0.766888
0.814725 0.570352 0.738231
0.851575 0.636118 0.728222
0.215351 0.434165 0.680842
0.24094 0.465202 0.691173
0.303548 0.516396 0.707835
0.433234 0.578225 0.727718
0.637598 0.644663 0.753796
0.765408 0.679255 0.753002
0.827848 0.66569 0.757916
0.862043 0.689616 0.75172
0.878416 0.71516 0.754101
0.236774 0.480766 0.695323
0.265354 0.500954 0.705455
0.310903 0.545083 0.715526
0.398245 0.601892 0.733822
0.577432 0.66836 0.760327
0.770642 0.732509 0.774639
0.848981 0.773068 0.77879
0.884855 0.776745 0.785031
0.906676 0.785046 0.788373
0.285374 0.531853 0.719051
0.313726 0.555993 0.725078
0.351522 0.587411 0.732357
0.436652 0.637888 0.746624
0.575723 0.692546 0.772656
0.737118 0.75259 0.799329
0.856703 0.821561 0.801923
0.88748 0.834546 0.80444
0.915343 0.837507 0.8103
0.347982 0.586877 0.742412
0.376547 0.609354 0.74818
0.419745 0.636316 0.751614
0.502998 0.674037 0.76907
0.629191 0.721584 0.79173
0.759899 0.769253 0.81207
0.847761 0.832746 0.82501
0.892668 0.852064 0.807324
0.918685 0.854505 0.808835
0.418372 0.640528 0.764279
0.457343 0.654871 0.770489
0.510491 0.680949 0.775692
0.588815 0.713878 0.791363
0.690349 0.751125 0.810559
0.794675 0.798993 0.825269
0.86392 0.850217 0.838056
0.902525 0.865003 0.826322
0.930037 0.868025 0.822919
0.335271 0.333288 0.726085
0.411566 0.302495 0.720882
0.473106 0.23682 0.71313
0.508583 0.199786 0.701793
0.595697 0.248981 0.72256
0.678523 0.314382 0.719005
0.752941 0.355673 0.747036
0.804135 0.399084 0.774472
0.848783 0.475059 0.785809
0.287724 0.39498 0.782162
0.40589 0.385458 0.773587
0.490043 0.365698 0.763531
0.548318 0.305257 0.744823
0.61413 0.301961 0.742794
0.702419 0.350088 0.74818
0.772747 0.388586 0.786923
0.829831 0.442603 0.801556
0.861616 0.544564 0.781033
0.244221 0.409583 0.732921
0.338369 0.453529 0.760098
0.476707 0.462013 0.793484
0.580697 0.426474 0.826535
0.640879 0.383948 0.808927
0.716869 0.393469 0.802609
0.801877 0.438788 0.810254
0.851179 0.532692 0.784054
0.87602 0.624994 0.763302
0.242618 0.446479 0.707805
0.287327 0.482536 0.723659
0.401541 0.532052 0.731487
0.575936 0.580118 0.782712
0.685603 0.570993 0.808911
0.766049 0.509117 0.819104
0.821454 0.54641 0.798535
0.865583 0.626627 0.779263
0.885237 0.681117 0.763592
0.254719 0.479271 0.710872
0.287358 0.513542 0.720562
0.347631 0.559731 0.730877
0.491188 0.61207 0.754437
0.677745 0.676371 0.780896
0.797925 0.70518 0.778225
0.848035 0.688426 0.774685
0.87689 0.707729 0.778408
0.899062 0.737301 0.781079
0.297398 0.533318 0.731533
0.325338 0.558953 0.734615
0.37023 0.595728 0.747875
0.472267 0.640543 0.755764
0.637217 0.699123 0.785946
0.800839 0.757458 0.80145
0.86714 0.793866 0.807965
0.899779 0.79028 0.801999
0.919875 0.797391 0.80763
0.357076 0.596872 0.755413
0.382605 0.615213 0.759365
0.432242 0.640101 0.764065
0.528756 0.675914 0.779644
0.650965 0.723033 0.800366
0.78381 0.781338 0.814389
0.872206 0.831617 0.821332
0.908934 0.842115 0.819699
0.92546 0.844022 0.821424
0.428992 0.643183 0.770291
0.465675 0.6607 0.78088
0.521782 0.68162 0.781704
0.598169 0.713359 0.796811
0.694377 0.749569 0.817456
0.801938 0.796231 0.816953
0.877943 0.85034 0.83035
0.905287 0.86453 0.821103
0.928283 0.865629 0.834028
0.530953 0.689357 0.784909
0.565301 0.700099 0.7953
0.611673 0.720455 0.799512
0.671443 0.746578 0.814679
0.760464 0.779416 0.827283
0.836988 0.823377 0.837354
0.887007 0.860563 0.844282
0.913054 0.87248 0.840162
0.935164 0.875151 0.837888
