creative/lut-reed.cube
TITLE "Generated by Resolve"
LUT_3D_SIZE 9
0 0 0
0.111269 0.00354009 0.00535592
0.231632 0.00460822 0.00842298
0.355779 0.00463874 0.0105592
0.48246 0.0039826 0.0120394
0.611063 0.00282292 0.0130617
0.741238 0.00122072 0.0136873
0.87274 0 0.013962
1 0 0.0139773
0.0018616 0.125658 0
0.110491 0.129122 0.00177005
0.230793 0.130159 0.00534066
0.355001 0.130144 0.00782788
0.481788 0.129412 0.00970474
0.610529 0.128161 0.0110781
0.740841 0.126482 0.0120851
0.872465 0.124453 0.0133669
1 0.122118 0.0156252
0.0037232 0.250675 0
0.111589 0.254078 0
0.231708 0.255116 0.00303655
0.355718 0.255131 0.00572213
0.482414 0.254444 0.00762951
0.611093 0.253208 0.00903334
0.741375 0.251545 0.0100404
0.872953 0.249516 0.0121462
1 0.247181 0.0143893
0.0055848 0.375433 0
0.113283 0.37882 0
0.233387 0.379812 0.00102235
0.35729 0.379843 0.00401312
0.483833 0.379171 0.00608835
0.612421 0.377966 0.00755322
0.742626 0.376318 0.00865187
0.874159 0.374304 0.0108949
1 0.371969 0.0131533
0.00743114 0.500053 0
0.115373 0.50341 0
0.235508 0.504387 0
0.35935 0.504402 0.00248722
0.485801 0.503731 0.00477607
0.614267 0.502525 0.00639353
0.744396 0.500893 0.00750744
0.875853 0.498909 0.00962844
1 0.496605 0.0119173
0.00927749 0.624537 0
0.117739 0.627894 0
0.237888 0.62884 0
0.361746 0.628824 0.00105287
0.488136 0.628153 0.00358587
0.616526 0.626963 0.00538643
0.746563 0.625345 0.00660716
0.877974 0.623362 0.00830091
1 0.621057 0.0106203
0.0111391 0.748928 0
0.120317 0.752285 0
0.240497 0.753216 0
0.364385 0.75317 0
0.490745 0.752483 0.00250248
0.619089 0.751308 0.00445563
0.74905 0.749691 0.00582895
0.880385 0.747707 0.00689708
1 0.745418 0.00929274
0.0129854 0.873259 0
0.123079 0.8766 0
0.243305 0.877516 0
0.367193 0.877455 0
0.493584 0.876753 0.00148013
0.621897 0.875547 0.00361639
0.751797 0.873945 0.00512703
0.883085 0.871977 0.00614939
1 0.869703 0.00787366
0.0148318 0.997513 0
0.125978 0.997009 0
0.246189 0.99649 0
0.370077 0.996002 0
0.496483 0.99556 0.00062562
0.624781 0.995132 0.00291447
0.754696 0.99472 0.00456245
0.885954 0.994308 0.00567636
1 0.993881 0.00637827
0 0.00117494 0.144991
0.107073 0.00267033 0.151339
0.22771 0.00355535 0.155352
0.352209 0.0033875 0.158526
0.479286 0.00251774 0.16112
0.608286 0.00109865 0.163256
0.738888 0 0.165026
0.870802 0 0.166461
1 0 0.16762
0 0.126848 0.133227
0.102205 0.130007 0.142321
0.226719 0.129274 0.151064
0.351247 0.129091 0.154269
0.478355 0.128206 0.156863
0.607385 0.126787 0.158999
0.737987 0.124941 0.160769
0.869917 0.122744 0.162203
1 0.120226 0.163363
0.000137331 0.250416 0.134997
0.107027 0.253483 0.143236
0.227329 0.254368 0.148302
0.3514 0.254383 0.150958
0.478172 0.253666 0.152834
0.606897 0.252415 0.154223
0.737209 0.250736 0.15523
0.868849 0.248692 0.155901
1 0.246357 0.156283
0.00231937 0.375036 0.132845
0.108736 0.378241 0.140749
0.229053 0.379095 0.146029
0.352911 0.37911 0.14931
0.479484 0.378424 0.151354
0.608103 0.377203 0.152789
0.738354 0.37554 0.153796
0.869963 0.37351 0.154482
1 0.371176 0.154879
0.00428778 0.49958 0.130846
0.110796 0.502831 0.138598
0.231113 0.503685 0.143954
0.355001 0.503639 0.147646
0.481437 0.502983 0.150072
0.609903 0.501778 0.151659
0.740063 0.500145 0.152743
0.871595 0.498131 0.15346
1 0.495796 0.153841
0.00619516 0.624063 0.129076
0.113146 0.627314 0.136751
0.233478 0.628168 0.142153
0.357412 0.628092 0.146075
0.483787 0.627405 0.148836
0.612146 0.62623 0.150668
0.742199 0.624598 0.151888
0.87364 0.622599 0.152651
1 0.620295 0.153094
0.00805676 0.74844 0.127504
0.11574 0.75172 0.135164
0.236072 0.75256 0.140566
0.360021 0.752468 0.144656
0.486412 0.751751 0.147631
0.614725 0.750561 0.149706
0.744671 0.748928 0.15111
0.87602 0.74696 0.15201
1 0.744671 0.152514
0.0099031 0.872755 0.126116
0.118502 0.876051 0.133745
0.238849 0.876875 0.139162
0.362829 0.876753 0.143343
0.489235 0.87602 0.146502
0.617533 0.874815 0.148821
0.747433 0.873198 0.150408
0.878706 0.871229 0.151446
1 0.86894 0.152056
0.0117494 0.997024 0.124865
0.121401 0.998093 0.132555
0.241733 0.997513 0.138003
0.365728 0.996963 0.14226
0.492164 0.99649 0.145556
0.620478 0.996033 0.148013
0.750362 0.995621 0.149767
0.881605 0.995209 0.150942
1 0.993133 0.151659
0 0.00221256 0.275181
0.104158 0.00299077 0.281758
0.224735 0.00390631 0.285649
0.349157 0.00376898 0.288746
0.476173 0.00291447 0.291295
0.605142 0.00151064 0.293416
0.735698 0 0.29514
0.867613 0 0.29659
1 0 0.297734
0 0.136156 0.242756
0.0983902 0.130358 0.275105
0.223697 0.129641 0.281315
0.348119 0.129488 0.284413
0.475151 0.128634 0.286976
0.60415 0.12723 0.289113
0.734737 0.125399 0.290867
0.866651 0.123201 0.292317
0.999725 0.120668 0.293477
0 0.253147 0.256901
0.0989853 0.256214 0.264958
0.219318 0.25684 0.272404
0.34876 0.254582 0.281819
0.475853 0.253697 0.284413
0.604883 0.252277 0.286549
0.735485 0.250431 0.288304
0.867414 0.248234 0.289754
1 0.245716 0.290944
0 0.376226 0.260105
0.104646 0.379156 0.268666
0.225864 0.379599 0.275334
0.350011 0.379416 0.279713
0.476616 0.378729 0.281758
0.60531 0.377493 0.283146
0.735607 0.375814 0.284153
0.867247 0.373785 0.284825
1 0.371435 0.285206
0.000656138 0.500526 0.258732
0.107134 0.503563 0.267033
0.227985 0.504173 0.273274
0.352117 0.503975 0.277806
0.478523 0.503304 0.280507
0.607019 0.502098 0.282078
0.737209 0.50045 0.283116
0.868788 0.498436 0.283803
1 0.496086 0.284199
0.00285344 0.624872 0.257298
0.109667 0.627985 0.265431
0.23035 0.628656 0.271458
0.354482 0.628458 0.276036
0.480903 0.627726 0.279164
0.609247 0.626535 0.281117
0.7393 0.624918 0.282292
0.870771 0.622904 0.283055
1 0.620584 0.283482
0.00488289 0.749187 0.25594
0.112337 0.752346 0.263966
0.232944 0.753063 0.269871
0.357061 0.75285 0.274449
0.483528 0.752087 0.277836
0.611826 0.750866 0.28011
0.741756 0.749249 0.281559
0.873121 0.74728 0.282445
1 0.744976 0.282933
0.0068513 0.873442 0.254688
0.11516 0.876646 0.262638
0.235721 0.877379 0.268467
0.359854 0.877165 0.27306
0.48632 0.876371 0.276585
0.614649 0.875135 0.279118
0.744533 0.873518 0.280812
0.875792 0.87155 0.281895
1 0.869245 0.28249
0.00875868 0.997681 0.253544
0.118105 0.999161 0.261494
0.238605 0.998489 0.267292
0.362737 0.997879 0.271901
0.489265 0.99733 0.275502
0.617594 0.996857 0.278218
0.747478 0.996429 0.28011
0.878706 0.995727 0.281346
1 0.993454 0.282109
0 0.00321965 0.400336
0.101747 0.00366217 0.407156
0.222324 0.00459297 0.411002
0.3467 0.00447089 0.414023
0.47364 0.00364691 0.41651
0.602579 0.00225834 0.41857
0.733104 0.000442512 0.420279
0.864973 0 0.421698
0.998016 0 0.422827
0 0.138705 0.370047
0.0960098 0.130983 0.400839
0.221286 0.130327 0.406699
0.345647 0.130205 0.409689
0.472618 0.129381 0.412161
0.601556 0.127993 0.414267
0.732097 0.126177 0.415991
0.863981 0.12398 0.417411
0.997024 0.121462 0.418585
0 0.26537 0.347082
0.072694 0.266346 0.366979
0.21503 0.257832 0.40032
0.346258 0.255299 0.407065
0.473213 0.254459 0.409537
0.602197 0.253071 0.411643
0.732769 0.25124 0.413382
0.864652 0.249042 0.414847
0.997726 0.246525 0.416007
0 0.379416 0.376806
0.0968948 0.382284 0.385443
0.218173 0.382757 0.391821
0.342229 0.382376 0.398352
0.474464 0.379294 0.407568
0.603479 0.377874 0.409705
0.734081 0.376043 0.411475
0.866011 0.373831 0.412924
0.999084 0.371328 0.414084
0 0.502281 0.38056
0.10277 0.505165 0.389212
0.224338 0.50547 0.39617
0.349416 0.50486 0.402045
0.476097 0.503975 0.40589
0.604639 0.50277 0.407431
0.73492 0.501106 0.408438
0.866529 0.499062 0.40911
0.999313 0.496712 0.409522
0 0.626352 0.379705
0.105943 0.629313 0.388205
0.227161 0.62977 0.394858
0.351827 0.629328 0.40032
0.478508 0.628428 0.404288
0.606836 0.627222 0.406516
0.736904 0.625589 0.407675
0.868406 0.623575 0.408392
1 0.621241 0.408804
0.00128176 0.750515 0.378714
0.108949 0.753552 0.387076
0.229938 0.754086 0.39353
0.354421 0.753719 0.398733
0.481102 0.752804 0.402747
0.60943 0.751553 0.405417
0.73933 0.749935 0.406958
0.87071 0.747951 0.407828
1 0.745647 0.408286
0.00347906 0.874678 0.377737
0.111955 0.87776 0.385992
0.232807 0.87837 0.392264
0.357214 0.878019 0.39736
0.483879 0.877134 0.401373
0.612238 0.875822 0.404288
0.742107 0.874189 0.40618
0.873365 0.872221 0.407294
1 0.869932 0.407889
0.00553903 0.998825 0.376761
0.115007 1 0.385
0.235752 0.999557 0.391165
0.360098 0.998825 0.396185
0.486763 0.998199 0.400214
0.615198 0.997665 0.403265
0.745083 0.997208 0.405386
0.87628 0.996414 0.406729
1 0.994125 0.407507
0 0.00421149 0.522316
0.0996567 0.00456245 0.529381
0.220218 0.00549325 0.533227
0.344579 0.00538643 0.536187
0.471504 0.00456245 0.538628
0.600397 0.00320439 0.540642
0.730877 0.00140383 0.542336
0.862715 0 0.543725
0.995758 0 0.544823
0 0.138842 0.497169
0.093492 0.132021 0.523018
0.219196 0.131228 0.528939
0.343542 0.131106 0.531884
0.470466 0.130312 0.534295
0.599344 0.128939 0.536309
0.729839 0.127138 0.538003
0.861708 0.124971 0.539406
0.99472 0.122454 0.540566
0 0.272755 0.459586
0.0603342 0.270359 0.488579
0.213519 0.258457 0.523461
0.344167 0.256199 0.529274
0.471061 0.25539 0.53167
0.599954 0.254032 0.533684
0.730465 0.252216 0.535393
0.862348 0.250034 0.536812
0.995377 0.247532 0.537957
0 0.391745 0.460151
0.0684215 0.39469 0.471504
0.192309 0.393149 0.490028
0.337804 0.383719 0.523018
0.472282 0.38024 0.529671
0.601175 0.378866 0.531685
0.731716 0.37705 0.53341
0.863615 0.374853 0.534844
0.996658 0.372351 0.536019
0 0.505653 0.494224
0.0953994 0.508461 0.503105
0.217151 0.508721 0.510231
0.342382 0.508064 0.515984
0.469001 0.507012 0.521752
0.602823 0.503548 0.530129
0.73341 0.501701 0.531884
0.865324 0.499504 0.533333
0.998413 0.496986 0.534508
0 0.628443 0.498192
0.101427 0.631296 0.506905
0.223117 0.631571 0.513939
0.348516 0.630838 0.520088
0.476127 0.629511 0.525429
0.60473 0.628122 0.528725
0.734829 0.62649 0.529885
0.866438 0.624445 0.530571
0.999191 0.62211 0.530953
0 0.752346 0.497719
0.105119 0.755261 0.50634
0.226551 0.755642 0.513176
0.351568 0.755047 0.51902
0.478767 0.753887 0.523919
0.60734 0.752468 0.527413
0.737224 0.750835 0.529198
0.868635 0.748852 0.530037
1 0.746532 0.530465
0 0.876341 0.497063
0.108522 0.879316 0.505608
0.22974 0.879789 0.512261
0.354528 0.879271 0.517876
0.481544 0.878202 0.522545
0.610147 0.876783 0.526085
0.740017 0.875105 0.528344
0.87126 0.873137 0.529519
1 0.870832 0.530098
0.00198367 1 0.496376
0.111833 1 0.504891
0.232853 1 0.511406
0.357504 0.999878 0.516838
0.484459 0.999115 0.521401
0.613062 0.998474 0.524926
0.742992 0.997971 0.527428
0.874189 0.997314 0.528954
1 0.995041 0.529747
0 0.00517281 0.642023
0.0977951 0.00563058 0.649348
0.218341 0.00656138 0.653162
0.342702 0.00645457 0.656107
0.469596 0.0056611 0.658503
0.598474 0.00430304 0.660471
0.728939 0.00251774 0.66212
0.860731 0.000350958 0.663493
0.993729 0 0.664576
0 0.138918 0.620691
0.0910658 0.133257 0.642817
0.217319 0.13228 0.64889
0.341665 0.132174 0.651804
0.468574 0.131395 0.654169
0.597421 0.130037 0.656138
0.727886 0.128252 0.657786
0.859709 0.126101 0.659159
0.992691 0.123598 0.660273
0 0.277333 0.577996
0.0569772 0.271427 0.61297
0.211475 0.259571 0.643549
0.34229 0.257252 0.649241
0.469169 0.256474 0.65156
0.598032 0.255131 0.653498
0.728496 0.25333 0.655146
0.860304 0.251179 0.656535
0.993301 0.248676 0.657664
0 0.402121 0.558297
0.047013 0.402762 0.579477
0.179232 0.397696 0.608423
0.336736 0.384436 0.644083
0.470405 0.381308 0.649592
0.599237 0.379965 0.651514
0.729702 0.37818 0.653162
0.86154 0.376013 0.654551
0.994568 0.373495 0.655695
0 0.516747 0.578332
0.0696269 0.520455 0.585275
0.189563 0.521065 0.594079
0.316915 0.518639 0.611337
0.464851 0.508507 0.644007
0.600855 0.504662 0.649912
0.731319 0.502861 0.651576
0.863172 0.500679 0.652995
0.996231 0.498177 0.654154
0 0.631922 0.609827
0.0944381 0.634699 0.618845
0.216327 0.634882 0.6262
0.341985 0.634028 0.632654
0.469932 0.632593 0.638132
0.598627 0.630991 0.643259
0.733257 0.627405 0.650309
0.865171 0.625208 0.651774
0.998245 0.62269 0.652949
0 0.754665 0.613825
0.100557 0.757504 0.622614
0.222293 0.757763 0.629648
0.347814 0.756985 0.635889
0.475761 0.755535 0.641505
0.605249 0.753704 0.646372
0.735348 0.751904 0.649149
0.866804 0.74992 0.649927
0.999542 0.747585 0.650339
0 0.878431 0.613611
0.104631 0.881315 0.622354
0.226169 0.881636 0.629282
0.351385 0.880964 0.635309
0.478965 0.879667 0.64062
0.608057 0.878004 0.645029
0.73817 0.876188 0.648081
0.869383 0.874189 0.649485
1 0.8719 0.650019
0 1 0.61326
0.108339 1 0.621988
0.229664 1 0.628779
0.354681 1 0.634623
0.482002 1 0.639689
0.610971 0.999374 0.64387
0.741115 0.998749 0.646983
0.872312 0.998276 0.648829
1 0.996094 0.649714
0 0.00611887 0.759945
0.0960861 0.00683604 0.767514
0.216648 0.00776684 0.771313
0.340993 0.00766003 0.774243
0.467887 0.0068513 0.776608
0.59675 0.00550851 0.778546
0.727184 0.00373846 0.780163
0.858961 0.00158694 0.781491
0.991913 0.000381476 0.782559
0 0.139391 0.7411
0.0887922 0.134646 0.7608
0.215625 0.133486 0.767056
0.339971 0.133379 0.769955
0.466865 0.132586 0.77229
0.595697 0.131243 0.774227
0.726131 0.129473 0.77583
0.857923 0.127337 0.777157
0.990875 0.124849 0.778256
0 0.279881 0.69868
0.0570993 0.271626 0.735653
0.209369 0.260884 0.761654
0.340597 0.258457 0.767391
0.46746 0.257664 0.769696
0.596307 0.256336 0.771588
0.726741 0.254566 0.77319
0.858518 0.252415 0.774517
0.99147 0.249928 0.775631
0 0.409323 0.667979
0.0323644 0.408133 0.694499
0.175021 0.399237 0.730541
0.334966 0.385641 0.762448
0.468711 0.382498 0.767742
0.597528 0.38117 0.769619
0.727947 0.3794 0.771191
0.859739 0.377264 0.772519
0.992706 0.374762 0.773632
0 0.529458 0.663127
0.0431525 0.531502 0.678752
0.168017 0.529473 0.699214
0.303578 0.523491 0.727413
0.46389 0.509392 0.76318
0.599145 0.505852 0.768048
0.729564 0.504097 0.769589
0.861341 0.50193 0.770932
0.994324 0.499443 0.772076
0 0.641596 0.696788
0.0727855 0.645228 0.703227
0.191928 0.64651 0.707851
0.315358 0.64625 0.715038
0.444938 0.643244 0.731258
0.595148 0.632502 0.763607
0.731456 0.628672 0.768307
0.863249 0.626505 0.769665
0.996277 0.624002 0.770809
0 0.75819 0.723949
0.093904 0.760952 0.733089
0.215854 0.761105 0.74052
0.341604 0.760204 0.747173
0.469917 0.758618 0.753231
0.600031 0.756542 0.758633
0.730571 0.754421 0.763317
0.865446 0.750957 0.768658
0.998505 0.74844 0.769818
0 0.880903 0.727901
0.100099 0.883726 0.736767
0.221866 0.88397 0.743847
0.347417 0.883177 0.750103
0.475471 0.881712 0.755795
0.605325 0.879728 0.760967
0.736309 0.877516 0.765408
0.867674 0.875395 0.767636
1 0.873075 0.768124
0 1 0.727916
0.104387 1 0.736782
0.225971 1 0.743786
0.351308 1 0.74992
0.479088 1 0.755398
0.608606 1 0.76025
0.739254 0.999603 0.764233
0.870634 0.999008 0.766827
1 0.997299 0.767865
0 0.00706493 0.876387
0.0945602 0.0081178 0.884199
0.215122 0.0090486 0.887999
0.339437 0.00895705 0.890929
0.466331 0.00816358 0.893263
0.595163 0.00683604 0.895171
0.725582 0.005066 0.896757
0.857359 0.00291447 0.89807
0.990295 0.00114443 0.899123
0 0.140246 0.85922
0.0866407 0.136156 0.877287
0.214084 0.134768 0.883741
0.33843 0.134676 0.886641
0.465293 0.133883 0.888945
0.594141 0.13257 0.890852
0.724544 0.130785 0.892424
0.856306 0.128649 0.893721
0.989227 0.126192 0.894789
0 0.281132 0.819669
0.0576944 0.271946 0.855665
0.20734 0.262333 0.878218
0.33904 0.259754 0.884092
0.465919 0.258961 0.886366
0.594736 0.257649 0.888243
0.725155 0.255879 0.889799
0.856916 0.253742 0.891081
0.989837 0.25127 0.892164
0 0.414847 0.781292
0.0235447 0.411444 0.812589
0.174914 0.399634 0.851896
0.333074 0.38703 0.879133
0.467155 0.383795 0.884443
0.595972 0.382483 0.886275
0.726375 0.380728 0.8878
0.858122 0.378576 0.889097
0.991043 0.37612 0.89015
0 0.538659 0.763928
0.0235294 0.539178 0.78558
0.152987 0.53518 0.8121
0.299001 0.525338 0.847807
0.462242 0.510704 0.880064
0.597589 0.507149 0.884749
0.727977 0.505394 0.886213
0.859724 0.503273 0.887495
0.99266 0.500816 0.888563
0 0.655253 0.773602
0.0436408 0.65832 0.784527
0.165301 0.657908 0.798321
0.293706 0.654932 0.817838
0.431571 0.64831 0.845579
0.594018 0.633585 0.88101
0.729885 0.629969 0.884962
0.861631 0.627848 0.886198
0.994568 0.62536 0.887282
0 0.766705 0.813703
0.0758526 0.770077 0.820783
0.195666 0.771145 0.82533
0.318639 0.771405 0.82887
0.444373 0.770596 0.834745
0.575616 0.767193 0.850004
0.727886 0.755886 0.881895
0.863737 0.752316 0.885161
0.996719 0.749828 0.886244
0 0.884474 0.836866
0.0937362 0.887205 0.846113
0.215702 0.887358 0.85359
0.341497 0.886442 0.860288
0.469871 0.88481 0.866468
0.600183 0.882643 0.872221
0.732036 0.880064 0.877592
0.864454 0.877409 0.88217
0.999115 0.874205 0.885451
0 1 0.840726
0.0998856 1 0.849683
0.221622 1 0.856779
0.347189 1 0.863066
0.475319 1 0.868788
0.605341 1 0.874052
0.736767 1 0.878874
0.868986 0.999817 0.882856
1 0.998611 0.88455
0 0.00799573 0.991592
0.0931563 0.00949111 0.995804
0.213779 0.0104067 0.998199
0.338109 0.0103151 1
0.465003 0.00952163 1
0.593805 0.00820935 1
0.724208 0.00643931 1
0.855924 0.00430304 1
0.9888 0.00187686 1
0 0.141421 0.975479
0.0846265 0.137743 0.991165
0.212696 0.136156 0.996414
0.337057 0.136049 0.998901
0.46392 0.135256 1
0.592721 0.133928 1
0.72311 0.132189 1
0.854841 0.130053 1
0.987747 0.127611 1
0 0.281804 0.93962
0.0580148 0.272572 0.972854
0.205402 0.26389 0.991531
0.337652 0.261128 0.997162
0.464546 0.260334 0.999695
0.593332 0.259037 1
0.723705 0.257282 1
0.855451 0.255146 1
0.988357 0.252689 1
0 0.418891 0.896819
0.0192416 0.413306 0.931395
0.175647 0.400015 0.969162
0.331228 0.388556 0.992294
0.465751 0.385168 0.997971
0.594568 0.383871 1
0.724941 0.382132 1
0.856657 0.37998 1
0.989563 0.377539 1
0 0.545907 0.871168
0.00817884 0.545159 0.896056
0.143694 0.538827 0.926345
0.298772 0.525902 0.965423
0.460487 0.512184 0.993362
0.596185 0.508522 0.99884
0.726543 0.506798 1
0.858274 0.504677 1
0.991165 0.502235 1
0 0.666377 0.864591
0.0205539 0.667933 0.881209
0.145892 0.665705 0.900832
0.278828 0.660746 0.926192
0.426963 0.650294 0.961822
0.592401 0.635019 0.99469
0.728466 0.631342 0.999756
0.860166 0.629252 1
0.993072 0.626795 1
0 0.780072 0.888243
0.0474098 0.783505 0.894682
0.167529 0.78407 0.90193
0.292653 0.782818 0.913695
0.423178 0.779309 0.932372
0.562554 0.772305 0.960342
0.726497 0.757229 0.996246
0.862303 0.753704 1
0.995209 0.751263 1
0 0.892119 0.928756
0.0789502 0.894987 0.934737
0.199893 0.895598 0.939239
0.323919 0.895476 0.942962
0.449561 0.895003 0.945983
0.57673 0.89395 0.950774
0.708797 0.890471 0.965637
0.86244 0.878859 0.998032
0.997513 0.875669 1
0 1 0.948775
0.0939803 1 0.954437
0.215961 1 0.960571
0.341756 1 0.966903
0.47013 1 0.973358
0.600458 1 0.979904
0.732357 1 0.986542
0.865614 1 0.99324
1 1 1
