creative/lut-kodak-5207-warm.cube
TITLE "Generated by Resolve"
LUT_3D_SIZE 33
0.0792859 0.0196536 0
0.0969558 0.0208133 0
0.116823 0.0215305 0
0.142336 0.018204 0
0.166827 0.0164645 0
0.190143 0.01738 0
0.208606 0.0182498 0
0.227008 0.0200656 0
0.253437 0.0241855 0
0.281331 0.0306096 0
0.30956 0.0383001 0
0.34461 0.0459297 0
0.380911 0.052842 0
0.41828 0.059556 0
0.454688 0.0662699 0
0.491814 0.0736248 0
0.529183 0.0842145 0
0.564843 0.0940719 0
0.59855 0.102892 0
0.621653 0.113878 0
0.642924 0.126375 0
0.662043 0.141619 0
0.680293 0.154238 0
0.698955 0.165133 0
0.706722 0.171908 0
0.714992 0.176089 0
0.723415 0.177417 0
0.726741 0.175143 0
0.729381 0.172168 0
0.736278 0.169238 0
0.745144 0.166796 0
0.755077 0.164614 0
0.764645 0.162203 0
0.0848096 0.0295415 0
0.10164 0.0317998 0
0.120607 0.033463 0
0.147311 0.0300145 0
0.170687 0.0289464 0
0.190402 0.030518 0
0.211017 0.0303655 0
0.232273 0.0310674 0
0.258625 0.0357977 0
0.286534 0.0407263 0
0.314641 0.0459907 0
0.348196 0.052491 0
0.382498 0.0601053 0
0.41706 0.0691997 0
0.451316 0.0776379 0
0.487343 0.0862135 0
0.527687 0.0962081 0
0.564858 0.106447 0
0.600732 0.117266 0
0.623056 0.130098 0
0.644022 0.14342 0
0.667979 0.157275 0
0.687358 0.17055 0
0.704204 0.183673 0
0.712322 0.19234 0
0.720989 0.199634 0
0.730938 0.204654 0
0.736461 0.203937 0
0.740963 0.202243 0
0.747097 0.199985 0
0.751614 0.19733 0
0.756069 0.193881 0
0.76582 0.192706 0
0.0900282 0.0408179 0
0.104753 0.0451362 0
0.120577 0.0488441 0
0.141817 0.0502632 0
0.163958 0.0493019 0
0.188968 0.0451972 0
0.21323 0.0458991 0
0.237827 0.0477913 0
0.264652 0.0510872 0
0.292607 0.0525216 0
0.32134 0.0526894 0
0.35227 0.0588083 0
0.384207 0.067155 0
0.416388 0.0776989 0
0.449897 0.0897536 0
0.485359 0.101579 0
0.527764 0.109285 0
0.561715 0.120134 0
0.589792 0.134676 0
0.61973 0.147845 0
0.649805 0.161196 0
0.677897 0.174182 0
0.69604 0.187518 0
0.707286 0.200809 0
0.717128 0.212665 0
0.725551 0.222171 0
0.732143 0.227741 0
0.738766 0.231266 0
0.745647 0.232563 0
0.754086 0.225238 0
0.75845 0.22092 0
0.759945 0.21828 0
0.769528 0.219409 0
0.0918593 0.0542 0
0.107256 0.0558938 0
0.121904 0.0587015 0
0.141253 0.0623789 0
0.162081 0.0649729 0
0.185672 0.0657511 0
0.210376 0.0671397 0
0.237934 0.0680705 0
0.266041 0.06804 0
0.294728 0.0676585 0
0.323339 0.0671244 0
0.354192 0.0726787 0
0.386007 0.0805219 0
0.419272 0.0926833 0
0.452598 0.105714 0
0.487266 0.118776 0
0.525567 0.12987 0
0.558068 0.141817 0
0.58526 0.153017 0
0.617838 0.165377 0
0.649958 0.178256 0
0.675731 0.191104 0
0.694713 0.204135 0
0.7084 0.217563 0
0.72343 0.228382 0
0.735424 0.238178 0
0.744549 0.245975 0
0.750576 0.252216 0
0.756024 0.256092 0
0.759976 0.250416 0
0.763531 0.247578 0
0.766247 0.246265 0
0.775128 0.245533 0
0.089189 0.0712596 0.0203403
0.106447 0.0694438 0.00340276
0.124102 0.0691081 0
0.145006 0.073106 0
0.165484 0.0789654 0
0.18645 0.0860761 0
0.209751 0.089189 0
0.236545 0.0900282 0
0.264317 0.0879683 0
0.294133 0.086717 0
0.324224 0.0861524 0
0.35436 0.0899519 0
0.38677 0.0978256 0
0.420325 0.111421 0
0.45243 0.124529 0
0.485512 0.138109 0
0.519387 0.15494 0
0.55079 0.166659 0
0.580957 0.174182 0
0.613672 0.185016 0
0.645075 0.196826 0
0.668849 0.2103 0
0.689937 0.222629 0
0.709087 0.235431 0
0.727657 0.243366 0
0.744152 0.252689 0
0.757641 0.263188 0
0.763348 0.271473 0
0.766766 0.277256 0
0.766934 0.276005 0
0.770214 0.274876 0
0.775387 0.274434 0
0.783123 0.271733 0
0.0744335 0.102998 0.0428168
0.0987106 0.0969558 0.0218662
0.124605 0.091783 0.000823987
0.149279 0.0927901 0
0.169512 0.0976425 0
0.185351 0.106203 0
0.209934 0.111681 0
0.235157 0.116152 0
0.264347 0.117052 0
0.294469 0.115206 0
0.325856 0.110033 0
0.352743 0.113741 0
0.381277 0.120577 0
0.411429 0.133196 0
0.442542 0.146838 0
0.475624 0.161517 0
0.509087 0.178042 0
0.540581 0.191943 0
0.569955 0.204135 0
0.601404 0.214603 0
0.63238 0.225223 0
0.660456 0.237583 0
0.684077 0.248371 0
0.704616 0.257389 0
0.721584 0.26392 0
0.737758 0.272129 0
0.752132 0.282521 0
0.762524 0.290776 0
0.771481 0.297627 0
0.77586 0.301671 0
0.781872 0.301991 0
0.788891 0.299474 0
0.794202 0.296696 0
0.0628519 0.139376 0.066865
0.0890822 0.13138 0.0440986
0.118853 0.122545 0.0210269
0.148089 0.119738 0.00601205
0.170535 0.121981 0
0.186038 0.128771 0
0.213306 0.135012 0
0.24329 0.14136 0.00386053
0.273289 0.147051 0
0.299382 0.14786 0
0.327672 0.143191 0
0.355978 0.144045 0
0.385718 0.148211 0
0.41442 0.158007 0
0.445335 0.171374 0
0.477333 0.185458 0
0.508232 0.200885 0
0.538949 0.215869 0
0.568444 0.23006 0
0.596338 0.241749 0
0.62501 0.253101 0
0.654063 0.260975 0
0.678462 0.269261 0
0.700786 0.278279 0
0.717815 0.284901 0
0.733639 0.292592 0
0.747768 0.301808 0
0.760418 0.309911 0
0.77142 0.317098 0
0.778454 0.321248 0
0.786664 0.322728 0
0.795285 0.321721 0
0.801175 0.319799 0
0.0534371 0.179614 0.0919966
0.0780652 0.169757 0.0674754
0.108522 0.158831 0.0436713
0.144396 0.152499 0.0251926
0.171862 0.149767 0.0110475
0.191333 0.151888 0.00151064
0.217411 0.161135 0.00389105
0.246693 0.17116 0.00663767
0.281941 0.181018 0.002121
0.314382 0.182071 0
0.339971 0.178729 0
0.367712 0.178088 0
0.399176 0.178546 0
0.428138 0.185138 0
0.457679 0.196445 0
0.487358 0.21033 0
0.514473 0.224537 0
0.54258 0.238911 0
0.572106 0.253605 0
0.596506 0.267826 0
0.621485 0.279545 0
0.649073 0.280995 0
0.673732 0.287739 0
0.696895 0.297917 0
0.714794 0.30605 0
0.730709 0.31368 0
0.744808 0.321004 0
0.757 0.328771 0
0.768032 0.335485 0
0.77702 0.336599 0
0.78677 0.338796 0
0.796689 0.341665 0
0.804379 0.34197 0
0.0549783 0.220111 0.125154
0.0726635 0.215702 0.0941939
0.0964828 0.209628 0.0628977
0.138216 0.201587 0.0445869
0.172335 0.194476 0.0306249
0.19942 0.188266 0.0210422
0.225116 0.196506 0.0166629
0.252323 0.206714 0.0133822
0.285817 0.215595 0.0114748
0.320089 0.219272 0.0108949
0.354849 0.218173 0.0113069
0.387976 0.21561 0.00422675
0.4177 0.21619 0
0.44744 0.219425 0
0.4766 0.227054 0
0.505013 0.236973 0
0.530663 0.24889 0
0.556344 0.261051 0
0.582315 0.274113 0
0.603967 0.284886 0
0.624979 0.294362 0
0.647532 0.301762 0
0.671717 0.310399 0
0.695689 0.319295 0
0.712596 0.326711 0
0.729259 0.333303 0
0.745129 0.337957 0
0.756146 0.343664 0
0.765881 0.349462 0
0.772747 0.351843 0
0.782101 0.354894 0
0.792187 0.358083 0
0.799084 0.359045 0
0.0587472 0.259434 0.155886
0.0724346 0.258824 0.122133
0.0925002 0.256382 0.0879683
0.131868 0.249317 0.0678569
0.168307 0.241245 0.0523079
0.20209 0.230426 0.0400397
0.228595 0.234974 0.031342
0.256611 0.242817 0.024979
0.290532 0.25095 0.0247044
0.32604 0.256733 0.0265507
0.362783 0.260395 0.0289311
0.403876 0.256092 0.0251621
0.440192 0.253681 0.0159915
0.469978 0.254047 0.002533
0.499153 0.258824 0
0.527596 0.265385 0
0.551019 0.275181 0
0.573312 0.285222 0
0.594858 0.296345 0
0.614206 0.303853 0
0.633585 0.311696 0
0.653254 0.321538 0
0.674678 0.330144 0
0.697108 0.33814 0.000595102
0.71429 0.344091 0.00149538
0.730602 0.349371 0.00128176
0.747204 0.353445 0.00108339
0.757504 0.359136 0.00112917
0.76614 0.364294 0.000991836
0.772869 0.366201 0
0.780453 0.368841 0.000183108
0.789227 0.372137 0.00440986
0.795316 0.373602 0.00335698
0.0662242 0.297734 0.185138
0.0804913 0.297505 0.154269
0.100069 0.296284 0.122042
0.127428 0.295567 0.0980087
0.159365 0.289845 0.0767987
0.197787 0.279072 0.0578622
0.22829 0.277943 0.0489052
0.259983 0.279667 0.0426032
0.297658 0.286946 0.0445716
0.334173 0.293523 0.0455177
0.370626 0.301045 0.0467384
0.411414 0.29897 0.0408026
0.453208 0.294621 0.0336309
0.494194 0.290394 0.0228428
0.526802 0.292271 0.0137026
0.55584 0.295598 0.00608835
0.577173 0.302892 0.000198367
0.5953 0.311025 0.0012665
0.610117 0.319615 0.00819409
0.628656 0.325307 0.00761425
0.647715 0.331365 0.00602731
0.667399 0.340154 0.00541695
0.684916 0.347372 0.00601205
0.701228 0.353506 0.00817884
0.720043 0.357763 0.0107118
0.736843 0.361959 0.0102388
0.750957 0.367483 0.00596628
0.76112 0.374578 0.00695811
0.769894 0.380453 0.00868238
0.777401 0.379355 0.00552377
0.78381 0.380316 0.00637827
0.788373 0.383139 0.00935378
0.793271 0.385443 0.00364691
0.0801556 0.32874 0.199008
0.0910506 0.329168 0.167865
0.105745 0.32958 0.137102
0.127077 0.333944 0.119173
0.15729 0.333379 0.10132
0.197513 0.327672 0.0819715
0.232914 0.32314 0.0692302
0.269032 0.319112 0.0584573
0.302632 0.320592 0.055314
0.338201 0.324849 0.0544442
0.376715 0.331151 0.0557565
0.418708 0.334188 0.0566873
0.461692 0.334356 0.0550851
0.506249 0.330144 0.0497444
0.544472 0.327443 0.0417487
0.576043 0.327718 0.0296788
0.597818 0.331151 0.0195621
0.615808 0.336172 0.0159915
0.630564 0.342977 0.0187533
0.645777 0.347402 0.0170138
0.661646 0.352224 0.0153811
0.677989 0.358923 0.0155642
0.69604 0.365484 0.0167849
0.715404 0.371954 0.0202029
0.726726 0.372793 0.0183719
0.738796 0.375738 0.0155489
0.751202 0.380896 0.0113375
0.760052 0.385824 0.0110781
0.768521 0.3897 0.0116426
0.777447 0.39115 0.0126192
0.783795 0.392355 0.0140841
0.788556 0.393774 0.0163119
0.795392 0.396674 0.0119936
0.0968948 0.356329 0.213657
0.104692 0.3579 0.183902
0.114702 0.360143 0.155459
0.132403 0.368124 0.141131
0.160281 0.373266 0.125338
0.198871 0.373831 0.105821
0.236698 0.367529 0.0895857
0.275776 0.360494 0.0755932
0.305989 0.357259 0.0683452
0.341299 0.357687 0.0651102
0.381903 0.361227 0.0647746
0.424796 0.367834 0.0702373
0.467796 0.370901 0.0734722
0.512398 0.368521 0.0721904
0.555444 0.363897 0.0648661
0.592279 0.359686 0.0527352
0.616297 0.358907 0.0408331
0.635431 0.361303 0.0334478
0.652064 0.366567 0.0319371
0.665385 0.370199 0.029572
0.677424 0.373083 0.0267948
0.690852 0.377981 0.026154
0.707546 0.383246 0.0267643
0.727947 0.389013 0.0295567
0.734951 0.388403 0.0250401
0.743114 0.389807 0.0213321
0.753674 0.394476 0.0176242
0.761059 0.39678 0.0165713
0.767407 0.398459 0.0162356
0.77705 0.402411 0.019379
0.78436 0.404257 0.0204776
0.790555 0.404974 0.0211948
0.799207 0.407996 0.019501
0.117189 0.378195 0.235355
0.124269 0.380758 0.213321
0.133547 0.384146 0.189837
0.151614 0.39379 0.170306
0.173846 0.401785 0.148867
0.200885 0.408301 0.12401
0.235615 0.408103 0.109148
0.273091 0.405081 0.0970169
0.303349 0.399313 0.0907759
0.340398 0.395865 0.0835126
0.384573 0.39498 0.0753643
0.426612 0.396689 0.0765393
0.469032 0.39794 0.0790417
0.514549 0.398993 0.0828717
0.557977 0.395575 0.0789044
0.598413 0.390494 0.070573
0.628031 0.386786 0.0602121
0.652659 0.387915 0.0534676
0.672496 0.391516 0.0505379
0.685649 0.393164 0.0468757
0.698314 0.395041 0.0424659
0.709819 0.398352 0.0358434
0.720989 0.400061 0.0321202
0.73228 0.401358 0.031754
0.743496 0.403586 0.0293889
0.753811 0.405661 0.0275425
0.762448 0.407446 0.0260319
0.766506 0.408637 0.0254368
0.770047 0.409827 0.0247959
0.777905 0.412863 0.023621
0.78735 0.415473 0.022446
0.79736 0.417563 0.02121
0.805768 0.420172 0.0206302
0.135698 0.396536 0.256367
0.142138 0.398123 0.239506
0.15079 0.401709 0.222019
0.165164 0.412604 0.199649
0.181674 0.422477 0.174655
0.201053 0.431739 0.147936
0.231693 0.434943 0.13019
0.266743 0.43563 0.115267
0.298329 0.43125 0.107378
0.33666 0.427649 0.0978256
0.380392 0.422889 0.0859693
0.426856 0.422141 0.0847028
0.471839 0.422934 0.0859693
0.513405 0.425254 0.0890974
0.556725 0.423499 0.0858625
0.598642 0.420386 0.0801862
0.632929 0.416083 0.0723888
0.662455 0.413108 0.0664073
0.687633 0.413153 0.0623636
0.70396 0.413672 0.0568246
0.717662 0.414878 0.0510567
0.725612 0.415946 0.0450904
0.733898 0.41648 0.0419165
0.741634 0.416144 0.0400549
0.753094 0.417945 0.0376287
0.762554 0.419333 0.0359045
0.768856 0.419806 0.0345312
0.773404 0.421164 0.0340887
0.77821 0.423239 0.0337987
0.784192 0.424735 0.0301213
0.793317 0.426856 0.0264439
0.805325 0.430045 0.0237583
0.814267 0.433356 0.0241398
0.152499 0.412619 0.276844
0.159014 0.413321 0.264637
0.166247 0.415824 0.251926
0.175402 0.42797 0.228977
0.186618 0.43888 0.203677
0.200397 0.449104 0.176455
0.227054 0.454108 0.153017
0.258717 0.457374 0.132555
0.292714 0.458183 0.121508
0.330617 0.454627 0.109041
0.372213 0.447364 0.0952773
0.425513 0.446052 0.0935378
0.474205 0.446174 0.0925917
0.511437 0.448966 0.0920424
0.553429 0.449241 0.0894331
0.596704 0.448692 0.0859541
0.632883 0.445151 0.0790875
0.667475 0.439902 0.0747082
0.697597 0.433707 0.069749
0.719829 0.433509 0.0624094
0.736751 0.434165 0.0559243
0.739376 0.432319 0.0537881
0.745769 0.432227 0.0526131
0.753918 0.433051 0.051957
0.762844 0.431724 0.0478065
0.770275 0.431159 0.0448463
0.774746 0.431846 0.0441749
0.781888 0.434775 0.0437171
0.788876 0.437369 0.042237
0.792798 0.437003 0.0365301
0.801297 0.438437 0.0319829
0.814343 0.442008 0.0280461
0.823743 0.446906 0.0298466
0.15964 0.427207 0.300267
0.165438 0.429786 0.292363
0.171069 0.433768 0.282322
0.177005 0.446021 0.268208
0.189395 0.457679 0.251667
0.209354 0.467887 0.231296
0.23209 0.471595 0.196384
0.258045 0.473945 0.160952
0.288731 0.475639 0.138705
0.323049 0.472786 0.1178
0.362295 0.465934 0.0980087
0.412253 0.463676 0.0967269
0.462638 0.462348 0.0960555
0.511833 0.462623 0.0944381
0.555383 0.46363 0.0909285
0.595804 0.464042 0.0870527
0.632746 0.461341 0.0822003
0.668238 0.458457 0.0793774
0.701335 0.456016 0.078172
0.725643 0.452277 0.0729381
0.744091 0.449561 0.0659342
0.749249 0.450034 0.0634318
0.756664 0.448402 0.0606546
0.76553 0.445518 0.0571145
0.770428 0.443946 0.0544747
0.776043 0.443442 0.0529946
0.782193 0.444694 0.052781
0.790829 0.446921 0.0490578
0.799161 0.448447 0.0440833
0.804761 0.447913 0.0396582
0.813458 0.45034 0.0378271
0.823774 0.454887 0.0376593
0.830701 0.457176 0.0381018
0.167468 0.44416 0.326162
0.169345 0.447059 0.320058
0.171572 0.452064 0.313115
0.178714 0.461402 0.30428
0.192798 0.471641 0.29395
0.215045 0.482872 0.281956
0.236072 0.487327 0.243488
0.259678 0.490379 0.200717
0.28838 0.492042 0.165591
0.321187 0.48893 0.135576
0.357687 0.481483 0.107851
0.405264 0.477409 0.101472
0.456947 0.474769 0.0978561
0.512413 0.47454 0.096025
0.557488 0.47602 0.0931716
0.597436 0.477806 0.0897993
0.63328 0.47837 0.0858015
0.667552 0.477378 0.0836805
0.700191 0.47483 0.083299
0.726162 0.469093 0.0790723
0.746593 0.464942 0.0736248
0.756695 0.466743 0.0713664
0.76669 0.464439 0.0679942
0.776089 0.459922 0.062974
0.781094 0.458564 0.0619669
0.785962 0.45774 0.0604868
0.792004 0.458213 0.0586557
0.800717 0.45951 0.0536965
0.81033 0.461173 0.0493324
0.817533 0.461509 0.0467079
0.825574 0.463844 0.0454261
0.833494 0.467384 0.0448005
0.842908 0.471351 0.0454566
0.176593 0.463813 0.35494
0.171298 0.466819 0.349569
0.166766 0.470329 0.343069
0.180209 0.47245 0.335241
0.196231 0.480018 0.329885
0.216526 0.493584 0.326741
0.238666 0.50135 0.29514
0.263432 0.506416 0.255009
0.291981 0.506249 0.205478
0.324437 0.502022 0.163546
0.36051 0.49366 0.127916
0.405844 0.48632 0.108858
0.455787 0.481788 0.0966812
0.512749 0.483909 0.0961929
0.55938 0.486397 0.0955062
0.601801 0.489555 0.0944839
0.633982 0.496269 0.090013
0.66453 0.495872 0.0872663
0.694591 0.48896 0.0861219
0.719554 0.483925 0.0819562
0.74229 0.480293 0.0773022
0.760311 0.480339 0.0762798
0.77377 0.478859 0.0730297
0.783062 0.476127 0.0678264
0.792065 0.474861 0.0677195
0.799359 0.473732 0.0652171
0.804196 0.47187 0.0595712
0.813138 0.473701 0.0585184
0.82298 0.476265 0.0583505
0.830747 0.477882 0.0579538
0.837507 0.478782 0.0540627
0.842924 0.479225 0.0476997
0.861814 0.490059 0.0514839
0.175326 0.482261 0.37789
0.176349 0.483604 0.377127
0.179492 0.486198 0.376699
0.189044 0.49192 0.375021
0.201602 0.500145 0.371084
0.217441 0.510582 0.362997
0.237736 0.518166 0.335134
0.262257 0.523964 0.299809
0.29575 0.524422 0.248951
0.330632 0.51957 0.200305
0.368566 0.510079 0.153414
0.412039 0.502785 0.125536
0.459602 0.497322 0.105379
0.514931 0.495369 0.097261
0.566781 0.496529 0.0957809
0.613748 0.499504 0.0964523
0.641962 0.505776 0.0944381
0.666789 0.506264 0.0912947
0.687938 0.500648 0.0869612
0.711528 0.496757 0.0837568
0.735836 0.493919 0.0820172
0.7579 0.492271 0.082002
0.774899 0.49012 0.0783398
0.788708 0.487968 0.0726329
0.797696 0.485801 0.0685893
0.807477 0.485451 0.0653391
0.820035 0.487709 0.0638285
0.828824 0.48864 0.0659953
0.837522 0.490272 0.0681163
0.847608 0.493843 0.0644236
0.855787 0.496132 0.0610208
0.86331 0.498146 0.0578775
0.878691 0.506081 0.0579843
0.174441 0.499413 0.3991
0.181292 0.498939 0.401709
0.191272 0.501045 0.406699
0.19765 0.511376 0.410636
0.206653 0.520119 0.407584
0.218433 0.52784 0.39733
0.23917 0.53521 0.374136
0.264744 0.541161 0.342306
0.30103 0.542016 0.29163
0.336751 0.537102 0.237446
0.3738 0.527337 0.181445
0.415625 0.52015 0.145281
0.461631 0.513451 0.11606
0.517311 0.507408 0.0986648
0.572702 0.507286 0.0952926
0.624231 0.509209 0.0968032
0.650034 0.512871 0.0969863
0.670253 0.513588 0.0939193
0.684703 0.511193 0.0879988
0.706096 0.508949 0.0860456
0.729503 0.50692 0.0859998
0.753445 0.504753 0.0874495
0.773526 0.501671 0.0836805
0.791333 0.498512 0.0765087
0.801587 0.496437 0.0703746
0.814694 0.496986 0.066804
0.832685 0.501656 0.0677501
0.844221 0.503777 0.0725414
0.852689 0.504768 0.0753796
0.863478 0.509422 0.0693828
0.873549 0.513375 0.0669413
0.883452 0.517449 0.0682078
0.894987 0.522057 0.0655528
0.178698 0.511009 0.421317
0.184329 0.511345 0.424933
0.192264 0.514214 0.430472
0.199786 0.52575 0.436286
0.20882 0.534905 0.43743
0.219959 0.541451 0.432822
0.247303 0.549783 0.411704
0.280003 0.557 0.382666
0.310704 0.556191 0.324849
0.339727 0.55227 0.26891
0.367376 0.54522 0.212757
0.41033 0.535943 0.167544
0.459449 0.527428 0.129686
0.51812 0.520836 0.101091
0.573632 0.519097 0.0937819
0.625116 0.519036 0.0946975
0.654856 0.516991 0.0948348
0.676463 0.517021 0.0928664
0.691829 0.520256 0.0903182
0.708324 0.520226 0.0897383
0.72549 0.519585 0.0901198
0.746944 0.518425 0.093019
0.76788 0.514427 0.08925
0.787625 0.508705 0.079942
0.804685 0.508019 0.0776837
0.822568 0.509514 0.0756542
0.83975 0.512215 0.0726329
0.854582 0.516503 0.074464
0.868238 0.521965 0.0774395
0.877546 0.526268 0.0727245
0.887861 0.53048 0.0724041
0.897963 0.534035 0.074815
0.910826 0.538399 0.0745556
0.183597 0.527077 0.440497
0.186175 0.528191 0.441535
0.190341 0.531151 0.44506
0.203098 0.539528 0.454582
0.215106 0.547555 0.460914
0.226276 0.554971 0.463737
0.251774 0.563867 0.447776
0.282872 0.571923 0.422538
0.312062 0.571221 0.368704
0.339345 0.568261 0.310048
0.36524 0.563516 0.248447
0.404898 0.551858 0.192264
0.449958 0.540413 0.145388
0.503548 0.53167 0.114122
0.559487 0.528984 0.102831
0.61355 0.528328 0.0991836
0.647196 0.525628 0.0958267
0.673701 0.525872 0.0931868
0.692454 0.52842 0.0910201
0.708736 0.529702 0.0907301
0.724834 0.53048 0.0910353
0.743862 0.53048 0.0936446
0.764096 0.52784 0.0906539
0.78584 0.523552 0.0834821
0.808698 0.522942 0.0840772
0.829664 0.523156 0.0828412
0.850019 0.52636 0.0805066
0.865217 0.530632 0.0796674
0.878828 0.535561 0.0795605
0.890761 0.54168 0.0774701
0.902083 0.54641 0.0779889
0.913085 0.550576 0.0801556
0.923232 0.555062 0.082475
0.188525 0.545022 0.458488
0.187442 0.546746 0.455634
0.18761 0.549004 0.456199
0.206348 0.552605 0.468894
0.222187 0.558846 0.480949
0.235172 0.567926 0.491264
0.255421 0.577447 0.482551
0.279805 0.585962 0.464179
0.309026 0.586374 0.41503
0.337194 0.585245 0.357733
0.365057 0.582498 0.289357
0.399008 0.567727 0.219852
0.436606 0.553017 0.162905
0.480873 0.541283 0.132479
0.536843 0.537881 0.116854
0.595163 0.537636 0.107149
0.632868 0.536889 0.0986038
0.665324 0.536721 0.0937667
0.691096 0.536294 0.092134
0.708888 0.538262 0.0912337
0.72546 0.540124 0.0908217
0.742199 0.540948 0.0915541
0.761898 0.541207 0.090486
0.78468 0.541466 0.0878004
0.811948 0.538994 0.0888533
0.837263 0.538598 0.0891127
0.86038 0.541573 0.088426
0.875364 0.545052 0.085359
0.887587 0.548592 0.0823072
0.902525 0.555367 0.0822156
0.915908 0.561593 0.0834516
0.928206 0.567529 0.0858015
0.932113 0.570504 0.0885328
0.186938 0.551003 0.478447
0.18941 0.552117 0.478828
0.193454 0.553948 0.481132
0.205188 0.559762 0.492302
0.218463 0.567636 0.499001
0.233814 0.578164 0.499947
0.256504 0.588647 0.501091
0.281956 0.598245 0.496971
0.308248 0.603479 0.464912
0.338094 0.604776 0.418021
0.372122 0.602304 0.35433
0.406668 0.585626 0.275914
0.441535 0.568353 0.204715
0.475227 0.553567 0.15285
0.519921 0.547662 0.125444
0.56846 0.545602 0.108034
0.614404 0.54493 0.100969
0.65597 0.544076 0.0972152
0.692882 0.543282 0.0964218
0.714672 0.54258 0.0924697
0.732265 0.542397 0.089662
0.744793 0.544137 0.0914015
0.765301 0.546593 0.0913252
0.790829 0.549264 0.0903029
0.818952 0.551019 0.0888533
0.844572 0.553231 0.0870985
0.865049 0.555016 0.084184
0.881422 0.558465 0.0830091
0.897322 0.563546 0.083299
0.912322 0.568856 0.0870985
0.923796 0.573541 0.0906386
0.933715 0.577508 0.0941939
0.942306 0.58088 0.092958
0.185229 0.560143 0.493034
0.190066 0.560174 0.495537
0.196323 0.561303 0.499855
0.204776 0.56759 0.51043
0.216587 0.576135 0.514366
0.233066 0.587427 0.510323
0.255879 0.597177 0.515938
0.281682 0.607111 0.521035
0.306294 0.61561 0.503685
0.336782 0.618982 0.468254
0.373831 0.617365 0.414572
0.411582 0.602731 0.334569
0.447898 0.586526 0.254322
0.478752 0.570672 0.186557
0.515175 0.561303 0.144808
0.554391 0.555505 0.115511
0.599435 0.554162 0.105074
0.645457 0.55285 0.0986191
0.690349 0.551858 0.0969253
0.716915 0.550637 0.0927443
0.737728 0.549935 0.0897993
0.751751 0.552529 0.0919966
0.772824 0.555749 0.0926833
0.798733 0.559319 0.0926986
0.825864 0.563561 0.0895552
0.850553 0.566857 0.0869306
0.870893 0.569696 0.0855573
0.888258 0.573114 0.0852522
0.904921 0.576745 0.0862745
0.919173 0.581201 0.0913558
0.930541 0.584924 0.0958114
0.939773 0.587777 0.100679
0.950118 0.592157 0.100755
0.18381 0.572656 0.50164
0.189151 0.571984 0.504891
0.195758 0.571191 0.511177
0.205264 0.576593 0.522744
0.217182 0.584222 0.526604
0.232486 0.594324 0.521508
0.253986 0.60322 0.527779
0.277913 0.611536 0.533806
0.303075 0.621134 0.529366
0.33257 0.626169 0.507881
0.368475 0.626795 0.470558
0.413565 0.619074 0.39501
0.456931 0.608042 0.313344
0.493538 0.59292 0.236149
0.525704 0.579782 0.178241
0.55555 0.568032 0.131548
0.589044 0.565118 0.111299
0.632258 0.563363 0.0984665
0.684535 0.563424 0.0938735
0.715541 0.563607 0.0919051
0.741482 0.564538 0.0914015
0.76321 0.566903 0.0933242
0.785702 0.569451 0.0946517
0.808545 0.572198 0.0958419
0.833432 0.576104 0.0914778
0.856092 0.580499 0.0895552
0.87657 0.585336 0.0936751
0.895109 0.587945 0.0946365
0.911864 0.589746 0.0942702
0.923598 0.592264 0.0947738
0.935714 0.595514 0.0991379
0.946578 0.598947 0.105028
0.955184 0.60412 0.111666
0.187488 0.579461 0.524422
0.191379 0.579965 0.525658
0.196719 0.581003 0.530175
0.205631 0.585016 0.541176
0.216846 0.590967 0.544442
0.231296 0.598886 0.539971
0.251225 0.606928 0.542992
0.274174 0.615595 0.54638
0.299687 0.627237 0.542306
