creative/lut-fuji-c200-warm.cube
TITLE "Generated by Resolve"
LUT_3D_SIZE 33
0.076051 0.0759442 0.0764782
0.088365 0.0842298 0.084184
0.114199 0.0923476 0.0883803
0.152621 0.098024 0.0890516
0.203967 0.100175 0.0869306
0.256886 0.101961 0.0845808
0.310643 0.103227 0.0816663
0.367941 0.104494 0.0776532
0.428367 0.106111 0.0738079
0.488197 0.107805 0.0696269
0.545708 0.109453 0.0663767
0.59559 0.111803 0.0639963
0.640162 0.114321 0.0623026
0.681086 0.117037 0.0606546
0.718151 0.119432 0.0590219
0.751095 0.121553 0.0573281
0.780255 0.123293 0.0560159
0.805829 0.124743 0.0546883
0.829206 0.126009 0.0536812
0.850706 0.126589 0.0529183
0.869886 0.127031 0.0525368
0.887617 0.127764 0.0520943
0.90338 0.128573 0.0516518
0.918059 0.129976 0.0518349
0.931868 0.131167 0.0525368
0.944427 0.133074 0.0538643
0.955779 0.135134 0.0549935
0.966934 0.137942 0.0576791
0.977951 0.141543 0.0617075
0.989944 0.146426 0.0680552
1 0.15349 0.077821
1 0.162631 0.0922408
1 0.173846 0.111864
0.0759442 0.0910964 0.0789502
0.0904097 0.0981613 0.0856794
0.110689 0.107347 0.0898146
0.142458 0.11606 0.0898909
0.190188 0.12256 0.0879377
0.241917 0.126558 0.0852369
0.29398 0.129564 0.0822461
0.351049 0.132006 0.0784924
0.411368 0.133959 0.0748455
0.470497 0.135424 0.0706493
0.528328 0.13669 0.0666972
0.580667 0.138735 0.0636759
0.627817 0.141482 0.0614023
0.669963 0.143862 0.0592355
0.707485 0.145876 0.0567178
0.74081 0.147478 0.054551
0.770092 0.148653 0.0525521
0.795727 0.149401 0.0510872
0.819135 0.150301 0.049897
0.84123 0.150866 0.0490883
0.861143 0.151278 0.048188
0.879622 0.151965 0.0474556
0.896315 0.152453 0.0466316
0.912291 0.153292 0.0463264
0.927108 0.153857 0.0463264
0.941054 0.154803 0.0472725
0.95404 0.155825 0.0478981
0.966598 0.157275 0.0491646
0.979324 0.158801 0.0511482
0.992386 0.162036 0.0558175
1 0.167559 0.0640269
1 0.175494 0.0772106
1 0.185916 0.0963912
0.0752575 0.112428 0.0805066
0.088426 0.118837 0.0849622
0.107958 0.127413 0.0889143
0.132189 0.138506 0.0901961
0.177676 0.146609 0.0887465
0.228443 0.153246 0.0857252
0.279622 0.158129 0.0829633
0.336263 0.161685 0.079942
0.395834 0.164385 0.0765698
0.455055 0.166751 0.0727092
0.513039 0.169131 0.0693217
0.56733 0.171771 0.065919
0.615549 0.174762 0.0626688
0.658915 0.17734 0.0600748
0.696941 0.179095 0.0569162
0.730297 0.180331 0.0540932
0.759564 0.181094 0.0516976
0.785046 0.182055 0.0497444
0.808164 0.183032 0.0481117
0.830198 0.183993 0.0471199
0.851011 0.185016 0.0463569
0.869917 0.185718 0.0453346
0.887221 0.186252 0.0446174
0.903334 0.186618 0.0440681
0.918807 0.186862 0.0439612
0.933272 0.186694 0.0438697
0.947158 0.186435 0.0442359
0.961181 0.186084 0.0445258
0.975189 0.186236 0.0455787
0.989349 0.187625 0.0479896
1 0.190753 0.0538949
1 0.19646 0.0651102
1 0.204776 0.0834669
0.0729229 0.137911 0.0794232
0.0846571 0.143755 0.0828717
0.102937 0.152667 0.086244
0.12842 0.161669 0.0886549
0.161318 0.17351 0.0877241
0.215625 0.179126 0.0860304
0.266056 0.185809 0.0834974
0.32163 0.191943 0.081117
0.380407 0.196796 0.0787518
0.440131 0.20058 0.0759442
0.498558 0.204379 0.0730907
0.55378 0.208087 0.0696269
0.60293 0.21146 0.0659648
0.646616 0.214603 0.0625315
0.685679 0.216861 0.0590829
0.719432 0.218219 0.0557412
0.748837 0.219028 0.0529488
0.774624 0.22002 0.0508583
0.798383 0.222019 0.0492409
0.820447 0.223346 0.0478065
0.841367 0.224781 0.0469673
0.860731 0.226261 0.0462654
0.87834 0.226612 0.0455177
0.894621 0.226734 0.0450599
0.90985 0.225818 0.0443275
0.92459 0.224674 0.0439918
0.938933 0.222904 0.0436408
0.953094 0.22089 0.0430915
0.967987 0.219577 0.0434882
0.983581 0.219593 0.0450904
0.998856 0.220539 0.0492409
1 0.223484 0.0583047
1 0.229404 0.0747692
0.0691997 0.1673 0.0769207
0.0797436 0.171038 0.0793164
0.0973678 0.180316 0.0825513
0.121752 0.188815 0.0848249
0.156146 0.196338 0.0854963
0.197406 0.20882 0.0846113
0.253605 0.214206 0.0842756
0.307256 0.221897 0.0817731
0.365072 0.229313 0.0806744
0.424826 0.235294 0.0792401
0.483192 0.24004 0.0770428
0.539132 0.24448 0.0736706
0.589136 0.248753 0.0699168
0.633921 0.252308 0.0662089
0.673426 0.25539 0.0626993
0.708019 0.257237 0.0591592
0.738293 0.25864 0.0561837
0.764752 0.260182 0.0540169
0.788815 0.262562 0.0521859
0.811337 0.264836 0.0506752
0.833143 0.26717 0.0499733
0.852461 0.268757 0.0492409
0.869947 0.269505 0.0485847
0.886687 0.269245 0.0481727
0.90164 0.267994 0.0474708
0.916243 0.265339 0.0466316
0.930678 0.26244 0.0458991
0.945708 0.25922 0.0452735
0.961273 0.256596 0.0450446
0.977325 0.255314 0.0459144
0.993881 0.254871 0.0490272
1 0.256229 0.0570687
1 0.259342 0.0720073
0.0648508 0.199252 0.0734417
0.074464 0.200015 0.0749981
0.0908064 0.208042 0.0776837
0.114916 0.217502 0.0801862
0.147555 0.224643 0.0813001
0.192645 0.232242 0.0821546
0.234287 0.247501 0.0821851
0.296864 0.253162 0.0837568
0.351156 0.259785 0.081178
0.410071 0.267308 0.0811475
0.468391 0.273823 0.0803693
0.525078 0.279088 0.0777447
0.575631 0.283818 0.0741283
0.620722 0.288029 0.0700236
0.661234 0.291875 0.0666667
0.69688 0.294591 0.0630655
0.728283 0.296895 0.0600443
0.75552 0.299382 0.0575723
0.780346 0.30219 0.0559396
0.802915 0.305318 0.054551
0.824399 0.307942 0.0536507
0.843824 0.310475 0.0530709
0.861967 0.311635 0.0529946
0.878431 0.311406 0.0523995
0.893858 0.309941 0.0517281
0.908888 0.307347 0.0504158
0.923583 0.303883 0.0492256
0.938994 0.299931 0.0483864
0.9552 0.296483 0.0480964
0.972091 0.293996 0.0492561
0.989914 0.292958 0.0525368
1 0.292805 0.0594186
1 0.293782 0.0731823
0.0610666 0.234302 0.069337
0.0690471 0.231586 0.0694438
0.0841688 0.238499 0.0715038
0.106905 0.247547 0.0738231
0.139345 0.255207 0.0755016
0.183627 0.261204 0.0767376
0.227344 0.272953 0.0796368
0.276539 0.287602 0.0814221
0.342885 0.291676 0.0843366
0.397162 0.297047 0.0819257
0.455055 0.304875 0.0817731
0.512413 0.31194 0.0807507
0.563348 0.31809 0.0778058
0.608515 0.3234 0.0741894
0.648859 0.328176 0.0706951
0.685283 0.331868 0.0670939
0.717433 0.33492 0.0640421
0.745403 0.337896 0.0613718
0.770565 0.341283 0.0595865
0.793713 0.344793 0.0579843
0.814878 0.348272 0.0569924
0.834134 0.351202 0.0566415
0.85214 0.352483 0.0563668
0.869032 0.352926 0.0558938
0.885283 0.351629 0.0550546
0.900587 0.349645 0.0537728
0.916075 0.346914 0.0526284
0.932464 0.343557 0.0521401
0.949279 0.339742 0.0523079
0.966766 0.336553 0.0539254
0.985397 0.33489 0.0578622
1 0.333806 0.065095
1 0.333043 0.0776226
0.0575875 0.274769 0.0644388
0.0641642 0.267781 0.0629587
0.0778973 0.272343 0.0640421
0.0995041 0.280278 0.0662089
0.130312 0.287709 0.0685435
0.172992 0.292531 0.070634
0.221698 0.298421 0.0728161
0.265171 0.315343 0.0790417
0.324636 0.327749 0.0828565
0.390936 0.331289 0.0865797
0.444968 0.336843 0.0831464
0.501762 0.344747 0.0822461
0.553582 0.35288 0.0804761
0.598627 0.359976 0.0779431
0.638712 0.36582 0.0750286
0.674754 0.370092 0.0715038
0.70695 0.373709 0.0682689
0.736095 0.376791 0.0656596
0.761456 0.379889 0.0634012
0.784405 0.383261 0.0615396
0.805783 0.38674 0.060029
0.82504 0.389761 0.0590982
0.843107 0.391806 0.0585641
0.860227 0.392325 0.0580606
0.876875 0.392096 0.0574502
0.892607 0.390768 0.0563516
0.908751 0.389059 0.0555734
0.925811 0.38703 0.0559701
0.943542 0.384604 0.0572366
0.96199 0.381903 0.0601968
0.980713 0.3794 0.0651713
0.999405 0.377203 0.0730907
1 0.375341 0.0851148
0.0555276 0.315206 0.0611124
0.0607462 0.305425 0.0569619
0.0725872 0.307378 0.0568551
0.0924849 0.314305 0.0581826
0.121553 0.321874 0.0601053
0.162615 0.327962 0.0625772
0.21178 0.333455 0.0654917
0.263539 0.341161 0.06981
0.308583 0.362951 0.0792401
0.373434 0.37528 0.0855116
0.44213 0.378958 0.0897993
0.494194 0.382162 0.0844892
0.54461 0.388098 0.0818494
0.590051 0.395575 0.0804913
0.629999 0.402396 0.0785229
0.665797 0.408057 0.0758679
0.69778 0.412192 0.0730602
0.726421 0.415259 0.0701305
0.752041 0.418662 0.0676585
0.775692 0.42153 0.065507
0.797009 0.424887 0.0635386
0.816434 0.427619 0.0621195
0.834699 0.429679 0.0607004
0.851911 0.431006 0.0598917
0.868376 0.431449 0.0591287
0.885206 0.43151 0.0591287
0.901854 0.431037 0.059556
0.919188 0.43064 0.0611582
0.937148 0.429847 0.0635538
0.956451 0.428885 0.0679942
0.975647 0.426703 0.0740368
0.994842 0.423453 0.0828717
1 0.419623 0.0944991
0.0542611 0.359106 0.0584726
0.0580758 0.346685 0.0511025
0.0675212 0.347219 0.0486915
0.0852674 0.354131 0.0489967
0.113039 0.361852 0.0502327
0.153063 0.368505 0.0529335
0.202502 0.374472 0.0561837
0.253071 0.380133 0.0598459
0.307012 0.391196 0.0687572
0.355505 0.415885 0.0815442
0.424186 0.427604 0.0888838
0.494987 0.428641 0.0943465
0.541176 0.428077 0.0871595
0.583398 0.431678 0.0834363
0.622126 0.437339 0.0811017
0.65716 0.443626 0.0793469
0.689021 0.448554 0.0770123
0.717372 0.452827 0.074342
0.742733 0.456886 0.0720073
0.765972 0.460777 0.0696574
0.788052 0.464515 0.0678721
0.80795 0.467567 0.066392
0.826444 0.469917 0.0651713
0.844007 0.471763 0.0640269
0.861463 0.473198 0.0637675
0.877958 0.474083 0.0640269
0.894453 0.474952 0.0652476
0.912016 0.476265 0.067628
0.930205 0.476585 0.0711681
0.949645 0.476692 0.0765087
0.969619 0.475608 0.0838178
0.989807 0.472099 0.0931563
1 0.466163 0.104677
0.0540322 0.40325 0.057435
0.0561074 0.390692 0.045304
0.0633555 0.389654 0.0405432
0.079118 0.396567 0.0396887
0.105135 0.404532 0.0405432
0.143755 0.410986 0.0424201
0.193088 0.416617 0.0462196
0.244236 0.422004 0.0506752
0.297139 0.427314 0.0566415
0.352255 0.443854 0.0708629
0.405814 0.46865 0.085359
0.477928 0.478004 0.0941939
0.545205 0.477226 0.0992294
0.584176 0.475105 0.0925307
0.618936 0.476524 0.0869459
0.651026 0.480201 0.0834516
0.680766 0.484565 0.0806592
0.708507 0.489601 0.0783856
0.733455 0.495018 0.0762493
0.757076 0.499901 0.0743877
0.778607 0.504417 0.0728923
0.798978 0.50869 0.071519
0.818341 0.51191 0.0706645
0.83621 0.514244 0.0698253
0.853956 0.516167 0.0699626
0.870832 0.518166 0.0704509
0.887739 0.519936 0.0723583
0.905089 0.521477 0.0753643
0.923506 0.523247 0.0794537
0.94284 0.524117 0.0852674
0.963638 0.523461 0.0930953
0.984558 0.519524 0.101961
1 0.512703 0.113329
0.0554665 0.445624 0.0585794
0.0563211 0.434012 0.0421302
0.061265 0.432441 0.0341039
0.0740673 0.438926 0.0313268
0.097673 0.447135 0.0310521
0.134752 0.453971 0.0329442
0.183902 0.45893 0.0362554
0.234394 0.46363 0.0411841
0.287266 0.467903 0.0474861
0.343816 0.473884 0.0561379
0.398978 0.497993 0.0758068
0.457954 0.520714 0.0905776
0.529564 0.527626 0.0998856
0.589136 0.526772 0.105013
0.624247 0.525002 0.100206
0.65185 0.524392 0.093492
0.678569 0.52549 0.0882124
0.703548 0.528511 0.0846418
0.726864 0.532815 0.0819715
0.749065 0.537469 0.07953
0.770336 0.542138 0.0778821
0.7906 0.546777 0.076997
0.810086 0.550866 0.076463
0.828824 0.554421 0.0762798
0.846693 0.557076 0.0764935
0.864225 0.559548 0.0780804
0.881376 0.562127 0.080293
0.899046 0.56434 0.0833295
0.917479 0.566186 0.0875868
0.937041 0.5673 0.0931716
0.957946 0.566537 0.100206
0.979538 0.562814 0.108537
0.997971 0.55581 0.12079
0.0586709 0.484642 0.0632334
0.0585336 0.474601 0.0419928
0.0610513 0.47274 0.0298772
0.0707256 0.478904 0.0245518
0.0911574 0.4878 0.0231327
0.125261 0.494636 0.0237888
0.173373 0.499702 0.0267491
0.224277 0.504265 0.0319219
0.276677 0.507805 0.0383001
0.331426 0.51136 0.0454108
0.392645 0.52195 0.0590677
0.44773 0.552071 0.0828412
0.509041 0.570993 0.0964675
0.572045 0.57705 0.104707
0.625696 0.576669 0.110979
0.659175 0.575051 0.10898
0.684276 0.573358 0.102968
0.706035 0.572854 0.0968948
0.72639 0.573739 0.0923323
0.746303 0.576043 0.0888075
0.765972 0.578897 0.0860761
0.785626 0.582727 0.0844739
0.803922 0.586389 0.0832074
0.822309 0.589715 0.0830549
0.840146 0.593011 0.0836805
0.857466 0.596002 0.085069
0.875456 0.599176 0.0876326
0.893233 0.601923 0.0906844
0.912169 0.604257 0.0944533
0.931823 0.60502 0.0996262
0.952926 0.603647 0.105882
0.974304 0.600381 0.113512
0.993149 0.594141 0.12723
0.0627756 0.520562 0.070161
0.0621195 0.512108 0.0447242
0.0633097 0.509926 0.0284733
0.0698863 0.515587 0.020325
0.0864576 0.525567 0.0168154
0.116625 0.533867 0.0165103
0.162799 0.538918 0.0186618
0.212222 0.543435 0.0228428
0.265858 0.547158 0.0293736
0.321447 0.550149 0.0369726
0.379019 0.553964 0.0458228
0.442298 0.571694 0.0663767
0.496666 0.603067 0.0905013
0.553094 0.618082 0.101747
0.608362 0.622995 0.109483
0.656352 0.622934 0.116182
0.690761 0.621286 0.116625
0.714244 0.619272 0.112917
0.733288 0.617655 0.107515
0.750835 0.616388 0.102464
0.767865 0.616617 0.0981613
0.785397 0.617639 0.0950484
0.802915 0.619913 0.0930495
0.819791 0.622553 0.0920424
0.836576 0.624979 0.0919356
0.853376 0.62771 0.092668
0.870558 0.631037 0.0944076
0.888563 0.633814 0.0970932
0.907698 0.635904 0.10016
0.927779 0.637278 0.104662
0.948653 0.635645 0.109712
0.969924 0.632212 0.117418
0.988708 0.627131 0.133028
0.067628 0.555016 0.0793469
0.0669566 0.548867 0.050309
0.067216 0.546715 0.0299687
0.0714885 0.551156 0.0185245
0.0837415 0.560967 0.0122835
0.109087 0.571466 0.0102998
0.151843 0.577462 0.0114137
0.199802 0.581537 0.0146792
0.253147 0.584939 0.0204471
0.30956 0.587671 0.0279545
0.367086 0.58912 0.0366217
0.429221 0.59527 0.0504311
0.488655 0.621408 0.0768749
0.540276 0.648783 0.0974441
0.590784 0.660227 0.107317
0.63949 0.664042 0.114855
0.685359 0.663111 0.12137
0.717906 0.66186 0.123766
0.740703 0.659251 0.121965
0.758709 0.656764 0.117739
0.774716 0.655039 0.113161
0.790326 0.653834 0.108812
0.805676 0.653483 0.105364
0.82089 0.654124 0.103059
0.836652 0.655772 0.102083
0.852293 0.657694 0.101976
0.868437 0.66009 0.102281
0.885893 0.66273 0.10396
0.90457 0.664393 0.105714
0.924422 0.664775 0.108721
0.945541 0.663615 0.112993
0.966354 0.660639 0.120745
0.98471 0.656031 0.138369
0.0733043 0.586297 0.0897078
0.0729381 0.583017 0.0580301
0.0728466 0.581689 0.0345464
0.0754711 0.585245 0.0193637
0.0846113 0.594339 0.0103304
0.104921 0.605875 0.0061799
0.142 0.61294 0.00588998
0.188128 0.61735 0.00851453
0.240269 0.619669 0.0133364
0.297063 0.621057 0.0199893
0.355642 0.621851 0.0288396
0.415457 0.623148 0.039765
0.479149 0.635874 0.0607614
0.530373 0.666926 0.088777
0.578668 0.687129 0.104921
0.623575 0.695674 0.113741
0.669276 0.698329 0.120684
0.710735 0.697078 0.127123
0.742046 0.695613 0.130495
0.765209 0.693629 0.130465
0.78323 0.692027 0.127855
0.798596 0.689784 0.123934
0.813001 0.688838 0.120699
0.826764 0.688045 0.117159
0.840452 0.687495 0.114733
0.854612 0.688182 0.11313
0.869535 0.689006 0.111971
0.885359 0.690044 0.111803
0.903349 0.690669 0.112291
0.922667 0.691066 0.113802
0.943389 0.690044 0.116686
0.963485 0.686244 0.124086
0.981781 0.682002 0.14345
0.0808881 0.610819 0.10016
0.0809949 0.611261 0.0686809
0.081529 0.612161 0.04271
0.0834669 0.615518 0.0239261
0.0903639 0.623331 0.0120851
0.105974 0.634058 0.00523384
0.13666 0.642756 0.00328069
0.178286 0.646647 0.00460822
0.229191 0.649393 0.00874342
0.28571 0.650263 0.0149691
0.344717 0.650416 0.0230869
0.404135 0.650202 0.0334478
0.466468 0.654826 0.0494087
0.524193 0.677333 0.0767071
0.568551 0.70544 0.100389
0.613031 0.720226 0.113664
0.655467 0.726848 0.121279
0.697063 0.728405 0.128099
0.734829 0.72726 0.134157
0.76495 0.726116 0.137896
0.788373 0.725063 0.1393
0.806546 0.724041 0.138186
0.821546 0.722881 0.135821
0.835111 0.721859 0.132799
0.847608 0.720607 0.12987
0.860258 0.719814 0.127123
0.873396 0.718791 0.124376
0.887968 0.717983 0.122286
0.904433 0.717144 0.121187
0.922789 0.716365 0.12076
0.942885 0.71545 0.122606
0.96231 0.710689 0.12958
0.979477 0.706065 0.149493
0.0901045 0.631708 0.11136
0.0906233 0.634928 0.0804761
0.0916609 0.637461 0.0529946
0.0941939 0.641413 0.0317998
0.0993362 0.64799 0.0170443
0.111147 0.657359 0.00761425
0.135134 0.667155 0.00289921
0.171069 0.672587 0.00254826
0.21854 0.675624 0.00543221
0.273518 0.6766 0.0111696
0.333394 0.676646 0.019089
0.393637 0.676143 0.0294957
0.453346 0.67628 0.042298
0.514458 0.688518 0.064683
0.561395 0.716365 0.0924239
0.603296 0.739086 0.112108
0.644648 0.750195 0.122942
0.68368 0.755215 0.12958
0.722545 0.756191 0.136385
0.758053 0.755596 0.14255
0.787228 0.755184 0.146761
0.810285 0.755291 0.148974
0.828229 0.754376 0.149248
0.842908 0.75317 0.147753
0.85565 0.752178 0.145724
0.867582 0.750744 0.142824
0.87953 0.748806 0.139284
0.892805 0.746319 0.135607
0.907958 0.743938 0.132525
0.925307 0.741848 0.13019
0.943908 0.739376 0.130419
0.961975 0.733898 0.137575
0.977935 0.728176 0.157916
0.100099 0.648493 0.122118
0.101228 0.654185 0.0929122
0.10338 0.658274 0.0654765
0.105806 0.662577 0.0419928
0.110323 0.668666 0.0250248
0.119112 0.677104 0.0128786
0.137011 0.686992 0.00508125
0.166903 0.694423 0.00263981
0.210178 0.698863 0.00453193
0.262562 0.700511 0.00923171
0.321752 0.700618 0.0171511
0.382376 0.699901 0.0271458
0.442161 0.698817 0.0388342
0.502358 0.703929 0.0568246
0.554772 0.723873 0.0826886
0.595987 0.752087 0.108446
0.635493 0.769497 0.124117
0.67422 0.777752 0.132982
0.710155 0.781826 0.13933
0.746807 0.783154 0.145876
0.780804 0.7832 0.152224
0.808545 0.783413 0.157122
0.831006 0.782895 0.160174
0.848219 0.78201 0.161044
0.862287 0.780499 0.160357
0.874586 0.778607 0.158526
0.886595 0.776791 0.155398
0.899428 0.773953 0.151614
0.913558 0.770779 0.147036
0.929381 0.766857 0.142443
0.946273 0.763012 0.140948
0.96318 0.756512 0.14873
0.976883 0.748592 0.168643
0.110124 0.662531 0.133181
0.111559 0.669581 0.105531
0.114488 0.675273 0.0788128
0.11754 0.680217 0.0543526
0.121584 0.686183 0.0351568
0.128466 0.693874 0.0206455
0.141726 0.703868 0.0104524
0.166445 0.712978 0.00578317
0.203845 0.718822 0.00563058
0.253361 0.722148 0.00972
0.310445 0.722789 0.0166934
0.371145 0.722072 0.0263676
0.432135 0.72108 0.0384985
0.490425 0.722301 0.0527962
0.545998 0.734356 0.0750896
0.590311 0.75967 0.102007
0.628 0.784161 0.123674
0.666346 0.797375 0.136294
0.701549 0.80412 0.14403
0.735988 0.807309 0.150332
0.770794 0.809033 0.157031
0.801953 0.809308 0.163134
0.828946 0.808423 0.168368
0.849821 0.80734 0.171939
0.866484 0.806012 0.173129
0.880568 0.804303 0.172992
0.893645 0.80264 0.171771
0.906645 0.800214 0.168551
0.920272 0.797162 0.163806
0.934783 0.792264 0.157916
0.950378 0.786633 0.154101
0.965408 0.778714 0.16199
0.97734 0.768673 0.182132
0.119493 0.674357 0.144335
0.121431 0.682719 0.118303
0.124697 0.689433 0.0923018
0.128603 0.695476 0.0682536
0.132967 0.701534 0.0478218
0.138567 0.708919 0.0317235
0.148211 0.718196 0.0191806
0.168048 0.72842 0.0114443
0.200259 0.736477 0.00914015
0.244572 0.741115 0.0113222
0.298848 0.743069 0.0175631
0.35938 0.743069 0.0273442
0.4206 0.742214 0.0392157
0.478111 0.741848 0.0517891
0.534142 0.747936 0.070222
0.584024 0.766613 0.0954452
0.621149 0.792996 0.120348
0.658274 0.812634 0.138109
0.694362 0.823056 0.149126
0.727749 0.828641 0.156374
0.760571 0.831785 0.1626
0.792538 0.833173 0.168841
0.822751 0.832776 0.175387
0.847791 0.831571 0.181079
0.867628 0.830396 0.184588
0.884428 0.828717 0.186435
0.899062 0.827283 0.187167
0.913222 0.82536 0.185931
0.926757 0.822736 0.182116
0.941421 0.818311 0.175921
0.956008 0.811536 0.16994
0.968673 0.801968 0.176089
0.978347 0.789258 0.196338
0.128237 0.684627 0.156558
0.130449 0.693858 0.131151
0.134493 0.701808 0.106416
0.138781 0.708446 0.0828717
0.143236 0.71516 0.0622416
0.148577 0.72224 0.0447547
0.1561 0.730739 0.0305943
0.171496 0.741482 0.0201419
0.198352 0.751125 0.0150149
0.238132 0.757946 0.0154269
0.288502 0.761257 0.0207218
0.346181 0.762066 0.0295415
0.407965 0.762173 0.0412909
0.466636 0.761898 0.0540169
0.521004 0.764004 0.0686656
0.572763 0.774929 0.0897688
0.615564 0.798367 0.115755
0.651804 0.823682 0.138872
0.686976 0.838575 0.153628
0.720836 0.846799 0.162753
0.752422 0.851316 0.169406
0.783261 0.854047 0.17528
0.813733 0.85478 0.182147
0.841886 0.854307 0.188769
0.865217 0.853437 0.19408
0.885298 0.852567 0.198398
0.902647 0.851408 0.201282
0.918761 0.850385 0.202548
0.933867 0.848493 0.200671
0.948241 0.844099 0.194888
0.962509 0.837522 0.188128
0.974502 0.827115 0.191241
0.981048 0.811749 0.211566
0.136797 0.694392 0.169711
0.139055 0.703975 0.145281
0.143038 0.712367 0.120867
0.148348 0.720027 0.0981003
0.153094 0.726787 0.0779431
0.15848 0.733989 0.0606088
0.164981 0.742168 0.0453956
0.176928 0.75285 0.0325628
0.199115 0.763287 0.0245212
0.233387 0.771832 0.0226596
0.279057 0.777234 0.0258183
0.334035 0.77937 0.0338598
0.394156 0.779889 0.0446784
0.45359 0.780179 0.0575265
0.507973 0.780865 0.0703593
0.559319 0.786664 0.0874952
0.607004 0.802884 0.11104
0.64625 0.829496 0.137621
0.680415 0.850202 0.157092
0.71426 0.861891 0.169375
0.745617 0.86836 0.177569
0.775692 0.872572 0.183856
0.805112 0.875288 0.190204
0.833661 0.876448 0.196918
0.859724 0.876829 0.203403
0.882872 0.876631 0.208774
0.903532 0.876005 0.212985
0.92221 0.874998 0.216464
0.939605 0.873426 0.217014
0.955459 0.870115 0.213489
0.96968 0.8636 0.206332
0.980926 0.852445 0.207034
0.985916 0.836286 0.227314
0.145403 0.702358 0.184192
0.148318 0.712306 0.161242
0.152514 0.721157 0.137713
0.157733 0.72929 0.11548
0.163043 0.736812 0.0952621
0.168292 0.744106 0.0776379
0.174701 0.752132 0.0623484
0.185351 0.761913 0.0483253
0.204242 0.772702 0.0386358
0.232425 0.782513 0.0335546
0.271733 0.78967 0.034165
0.321981 0.793988 0.0400854
0.380316 0.796262 0.0500801
0.439475 0.797543 0.0621958
0.494606 0.798459 0.0745251
0.544305 0.8009 0.0881819
0.594263 0.810666 0.107622
0.638712 0.832288 0.133501
0.67335 0.857404 0.157473
0.706737 0.874693 0.174334
0.738674 0.884382 0.185245
0.768292 0.890364 0.192554
0.796826 0.894682 0.198795
0.824964 0.897978 0.205493
0.851575 0.899886 0.2121
0.876539 0.900679 0.217807
0.90103 0.900572 0.223194
0.923506 0.899351 0.227848
0.943496 0.897673 0.23064
0.961578 0.894484 0.22974
0.976913 0.888533 0.22501
0.987884 0.876265 0.224155
0.991867 0.859358 0.242618
0.154223 0.709743 0.198489
0.157763 0.719615 0.177981
0.162615 0.72874 0.155596
0.167712 0.737118 0.133791
0.173373 0.745266 0.113695
0.179156 0.752804 0.096025
0.18616 0.760937 0.0803082
0.196139 0.770092 0.0663005
0.211856 0.780438 0.0551614
0.235691 0.79089 0.0481117
0.268696 0.799634 0.0456855
0.312459 0.806394 0.0488594
0.366201 0.81091 0.0567788
0.424536 0.813764 0.0675517
0.48069 0.815732 0.0801709
0.530205 0.817243 0.0919051
0.578576 0.822324 0.107057
0.625834 0.836164 0.128222
0.665599 0.860166 0.15378
0.69839 0.883223 0.175433
0.730449 0.897963 0.190433
0.760815 0.906645 0.200015
0.789258 0.912795 0.206973
0.81648 0.917311 0.213581
0.842618 0.921202 0.22031
0.868101 0.923232 0.226184
0.89485 0.923568 0.23183
0.921248 0.922744 0.237476
0.945312 0.921065 0.241672
0.966323 0.917906 0.243244
0.983612 0.912551 0.241718
0.994705 0.900236 0.242771
0.998032 0.882063 0.259953
0.163836 0.717083 0.212222
0.168322 0.726574 0.19411
0.173205 0.735607 0.173938
0.178759 0.744076 0.153201
0.18471 0.752422 0.133059
0.19118 0.760311 0.115389
0.198734 0.768231 0.0996109
0.208576 0.776989 0.0856031
0.222446 0.786847 0.0741741
0.241978 0.797375 0.0654765
0.269169 0.80734 0.0607309
0.307179 0.816403 0.0607919
0.355123 0.823514 0.0659342
0.4103 0.828473 0.0751354
0.46627 0.832151 0.0866407
0.517037 0.834913 0.098085
0.563149 0.837293 0.109865
0.609705 0.845212 0.125811
0.654673 0.862776 0.148241
0.690333 0.88716 0.172549
0.722011 0.908141 0.192218
0.752987 0.921202 0.205417
0.782223 0.929778 0.214557
0.809323 0.935821 0.221653
0.834623 0.940383 0.228397
0.859968 0.943603 0.234485
0.887358 0.94522 0.240406
0.916396 0.945312 0.245991
0.944823 0.943801 0.251377
0.96965 0.941543 0.255207
0.9897 0.936309 0.257038
1 0.924056 0.261387
1 0.903685 0.278172
0.173266 0.72369 0.226062
0.178958 0.733043 0.209689
0.184695 0.742061 0.192081
0.190539 0.750393 0.173373
0.197269 0.75848 0.154253
0.20441 0.766293 0.136782
0.212345 0.774029 0.121004
0.22179 0.782223 0.106996
0.234119 0.791882 0.0949264
0.250721 0.80264 0.0851759
0.273335 0.813336 0.0783246
0.304738 0.824247 0.0758831
0.346792 0.833768 0.0783093
0.397101 0.84155 0.0850996
0.451041 0.847227 0.0945449
0.50222 0.851331 0.104952
0.548684 0.854154 0.115465
0.592447 0.858244 0.12668
0.638178 0.868437 0.143252
0.6795 0.888045 0.165866
