creative/lut-kodak-5219-cool.cube
TITLE "Generated by Resolve"
LUT_3D_SIZE 9
0 0 0.00784314
0.00392157 0.0113069 0.00761425
0.199695 0.00428778 0.000366217
0.398505 0 0
0.493935 0.0156252 0
0.481987 0.094728 0.00386053
0.479194 0.19292 0.00015259
0.558572 0.240436 0
0.619608 0.294118 0
0.0419776 0.0386969 0.0574197
0.0818341 0.0809796 0.0887312
0.32668 0.069276 0.0610971
0.494987 0.0660105 0.054078
0.584924 0.102678 0.0377356
0.61033 0.197772 0.00697337
0.631785 0.294392 0
0.691478 0.338354 0.00047303
0.747677 0.387259 0
0.0184482 0.197101 0.219547
0.100221 0.236942 0.259724
0.295811 0.259342 0.123796
0.500771 0.247044 0.0604105
0.60264 0.289586 0.0578012
0.656504 0.350851 0.022797
0.719661 0.407279 0.0118563
0.777646 0.444358 0.0158999
0.811215 0.499931 0.0343786
0.000106813 0.38938 0.346777
0.0202182 0.441215 0.402548
0.278447 0.429892 0.261707
0.469337 0.447761 0.180529
0.594583 0.460197 0.168292
0.687968 0.485237 0.144427
0.77055 0.513649 0.0860609
0.829908 0.551827 0.0868696
0.861372 0.590082 0.123659
0.0122683 0.518441 0.465705
0.0565957 0.562783 0.519493
0.180133 0.590158 0.502052
0.491478 0.560876 0.34342
0.606073 0.578332 0.348821
0.705455 0.5944 0.347448
0.80557 0.611826 0.245594
0.862745 0.642634 0.214343
0.900801 0.679728 0.235431
0.0904555 0.604227 0.573846
0.140505 0.643275 0.619013
0.234195 0.674922 0.617853
0.458732 0.67924 0.524041
0.6309 0.676417 0.462257
0.723522 0.694987 0.472129
0.816892 0.704585 0.432731
0.892653 0.727352 0.364065
0.928405 0.758083 0.394614
0.172656 0.690684 0.666896
0.249363 0.722118 0.684459
0.357321 0.746166 0.69752
0.493217 0.765774 0.663539
0.65774 0.766369 0.554177
0.759121 0.780743 0.530739
0.862226 0.787945 0.477302
0.927291 0.804715 0.472419
0.940795 0.83299 0.527977
0.237217 0.767117 0.740047
0.316335 0.801923 0.765866
0.418479 0.827039 0.760067
0.521981 0.839841 0.776226
0.664561 0.846372 0.721218
0.823163 0.848569 0.568505
0.933913 0.856489 0.439765
0.960327 0.877928 0.524926
0.960357 0.902876 0.624445
0.373587 0.823957 0.805844
0.43003 0.855344 0.836057
0.501854 0.885435 0.825071
0.581064 0.903304 0.851011
0.700023 0.910948 0.817563
0.871229 0.905364 0.686854
0.965743 0.917357 0.530678
0.981262 0.933059 0.647425
0.975525 0.951522 0.746639
0.00170901 0.00306706 0.0100557
0.0133211 0.0190127 0.033753
0.225498 0.0135958 0.00344854
0.420157 0.00701915 0.00642405
0.513726 0.0242313 0
0.503456 0.116976 0
0.508812 0.207172 0.00375372
0.588098 0.254932 0.000762951
0.653498 0.302663 0.00392157
0.0465095 0.0510109 0.080354
0.0829023 0.106462 0.119203
0.334722 0.0840925 0.0640421
0.521492 0.0805066 0.0641184
0.597223 0.121904 0.0475166
0.62562 0.220127 0.018616
0.653529 0.303426 0.000167849
0.716472 0.351064 0.000717174
0.762371 0.394064 0.00982681
0.0291905 0.216388 0.269429
0.0854658 0.266957 0.301961
0.314565 0.2804 0.150286
0.511238 0.276356 0.0811627
0.61059 0.307927 0.0789044
0.668299 0.372793 0.0438544
0.728084 0.420691 0.0227207
0.783642 0.466346 0.0328527
0.815961 0.511116 0.0637064
0.000579843 0.406989 0.385443
0.0290532 0.463645 0.445487
0.290669 0.448615 0.311269
0.478614 0.460746 0.214557
0.603159 0.475837 0.192355
0.69572 0.500862 0.173083
0.780011 0.535378 0.116472
0.840009 0.562493 0.106493
0.874067 0.59881 0.149691
0.0269322 0.530892 0.482811
0.0567025 0.577188 0.547845
0.193759 0.599527 0.527489
0.496727 0.581491 0.387594
0.617975 0.592966 0.372641
0.708949 0.609384 0.373724
0.815869 0.624933 0.287922
0.877974 0.653956 0.250874
0.912551 0.688029 0.279805
0.098085 0.620218 0.592966
0.158968 0.657893 0.623911
0.252583 0.688853 0.638621
0.457877 0.693492 0.557717
0.639445 0.691447 0.484977
0.725795 0.70518 0.498741
0.829038 0.716274 0.468849
0.892302 0.745068 0.411124
0.922087 0.76875 0.433005
0.185031 0.699809 0.672633
0.260594 0.735454 0.701915
0.367025 0.762539 0.702632
0.497017 0.775662 0.687587
0.661646 0.782254 0.579843
0.771511 0.789105 0.560906
0.858808 0.805905 0.525322
0.92665 0.819242 0.518868
0.945144 0.84715 0.55787
0.258152 0.780072 0.758526
0.335958 0.811902 0.775433
0.437964 0.833631 0.771237
0.532113 0.851102 0.788785
0.668956 0.857847 0.73579
0.822339 0.859434 0.6
0.925566 0.871183 0.492454
0.961303 0.886412 0.566552
0.964706 0.906279 0.665629
0.39118 0.837446 0.827924
0.451057 0.863859 0.855116
0.520348 0.894957 0.835492
0.602365 0.91284 0.851987
0.706035 0.920928 0.830152
0.874205 0.914107 0.710842
0.965194 0.925429 0.573175
0.984039 0.941817 0.674632
0.981964 0.959045 0.761639
0.0053254 0.00251774 0.0481575
0.0102235 0.0335699 0.118669
0.116457 0.0456703 0.0688945
0.380774 0.0314336 0.0432593
0.492973 0.0538643 0.0343938
0.524269 0.123705 0.016846
0.5664 0.206073 0.000137331
0.641855 0.252415 0.00698863
0.684779 0.308598 0.0413062
0.0296635 0.0720836 0.177996
0.0588693 0.130297 0.244327
0.221881 0.150301 0.17734
0.485588 0.124254 0.121828
0.578744 0.164065 0.111879
0.615808 0.249729 0.0711223
0.673503 0.316411 0.0346532
0.718135 0.366949 0.0787671
0.752132 0.41738 0.113893
0.0187991 0.242969 0.347448
0.0563821 0.306874 0.408713
0.259678 0.305333 0.347997
0.508385 0.294194 0.189151
0.608347 0.335836 0.140978
0.666529 0.396597 0.109804
0.732692 0.437736 0.0861067
0.78439 0.476402 0.129061
0.821317 0.52047 0.16759
0.0121767 0.418906 0.476905
0.0376135 0.472084 0.524407
0.24477 0.471717 0.483085
0.463554 0.475227 0.361059
0.602228 0.490242 0.294667
0.692332 0.515831 0.280964
0.784558 0.542855 0.199557
0.839292 0.578744 0.207691
0.875944 0.615579 0.25005
0.0419318 0.534813 0.569833
0.0745861 0.58175 0.607523
0.226032 0.60444 0.585641
0.467277 0.599145 0.492561
0.6121 0.607507 0.456199
0.717067 0.620188 0.436515
0.804166 0.638804 0.394415
0.873808 0.667353 0.353567
0.900465 0.703746 0.390845
0.122377 0.624048 0.654948
0.178576 0.663371 0.681361
0.28571 0.696895 0.661494
0.431983 0.711055 0.654673
0.619196 0.71252 0.56437
0.731533 0.713619 0.554467
0.816251 0.733104 0.543938
0.874968 0.760159 0.537743
0.901106 0.791989 0.556359
0.20177 0.711696 0.7196
0.275242 0.742748 0.744625
0.381445 0.773327 0.72076
0.491142 0.790738 0.730999
0.633814 0.80209 0.660471
0.764996 0.801724 0.624842
0.842588 0.81854 0.629374
0.903548 0.839017 0.635523
0.934096 0.857389 0.65214
0.284352 0.78764 0.784024
0.358114 0.818723 0.808164
0.457984 0.847562 0.78436
0.545571 0.868528 0.791852
0.661494 0.873457 0.771649
0.8047 0.874205 0.674876
0.888914 0.883101 0.665095
0.936889 0.901381 0.696681
0.95285 0.920409 0.730495
0.413809 0.844511 0.840146
0.470741 0.872389 0.865354
0.530556 0.904921 0.856687
0.599619 0.924269 0.859068
0.697902 0.933822 0.85536
0.852384 0.928222 0.765942
0.936706 0.936736 0.716136
0.964065 0.956603 0.761364
0.981598 0.967819 0.811093
0 0.00982681 0.107927
0.00201419 0.041062 0.239185
0.0644083 0.0843519 0.185031
0.270497 0.0823224 0.16231
0.4177 0.0948348 0.183047
0.505806 0.144442 0.147005
0.57145 0.217014 0.0632639
0.626139 0.279103 0.0878462
0.662348 0.335897 0.144533
0.0143435 0.092134 0.311452
0.0521248 0.14931 0.359243
0.160098 0.195621 0.313756
0.369619 0.195941 0.282063
0.509117 0.212329 0.295796
0.581262 0.272877 0.254826
0.650553 0.337819 0.159304
0.69395 0.390936 0.202243
0.734661 0.439246 0.273716
0.0250706 0.248508 0.442191
0.0544289 0.315633 0.498207
0.231174 0.328145 0.488624
0.406821 0.351858 0.421668
0.570947 0.359915 0.36379
0.643412 0.409644 0.279362
0.724208 0.454749 0.237537
0.76907 0.496696 0.288014
0.794034 0.537408 0.346151
0.0328374 0.416678 0.541039
0.0682536 0.468772 0.582895
0.196475 0.495918 0.599985
0.438483 0.487678 0.533227
0.599863 0.497505 0.433631
0.688365 0.529229 0.383551
0.773297 0.561975 0.351278
0.821195 0.593835 0.364294
0.855467 0.62681 0.406561
0.0873579 0.52845 0.626749
0.130251 0.575357 0.673304
0.230579 0.614343 0.669978
0.445655 0.613214 0.6103
0.601129 0.622293 0.551553
0.713222 0.637995 0.508568
0.791821 0.65774 0.491753
0.857816 0.682368 0.485679
0.887098 0.71667 0.511742
0.186221 0.615991 0.703777
0.243046 0.653407 0.737484
0.322606 0.698161 0.717037
0.459495 0.714351 0.695796
0.601328 0.727565 0.645777
0.722866 0.734615 0.606226
0.813672 0.743893 0.597543
0.868437 0.772427 0.611566
0.897368 0.797024 0.637217
0.243366 0.709468 0.765393
0.312123 0.746105 0.791638
0.405158 0.778256 0.76112
0.501701 0.803433 0.757397
0.61088 0.821134 0.735256
0.751949 0.818509 0.676524
0.834623 0.829801 0.681392
0.892515 0.847166 0.70135
0.923278 0.870878 0.715587
0.320073 0.792096 0.817105
0.379828 0.823102 0.830091
0.474418 0.847318 0.813352
0.563928 0.872953 0.812039
0.661082 0.882216 0.797543
0.79588 0.886107 0.732311
0.873182 0.897627 0.736156
0.920043 0.916381 0.755962
0.946838 0.93135 0.774594
0.448035 0.84863 0.863645
0.500679 0.877043 0.890776
0.552926 0.910491 0.877653
0.609277 0.934691 0.876081
0.702022 0.947494 0.866377
0.835706 0.9449 0.80473
0.917067 0.952224 0.784817
0.952239 0.964157 0.81622
0.972107 0.982712 0.846601
0.00247196 0.0142367 0.243336
0.00784314 0.0445563 0.368612
0.0702678 0.0794842 0.379553
0.261906 0.0728618 0.384237
0.417624 0.0918898 0.390845
0.482933 0.158724 0.345754
0.549691 0.226383 0.290211
0.606165 0.300038 0.248936
0.652583 0.352941 0.267063
0.0206149 0.105653 0.402777
0.0603189 0.153246 0.459342
0.169039 0.195926 0.471199
0.365423 0.201236 0.474067
0.503822 0.209689 0.486534
0.568658 0.278019 0.448631
0.631876 0.344045 0.392157
0.679088 0.409857 0.356634
0.719722 0.460014 0.37113
0.030869 0.26154 0.554147
0.06804 0.324102 0.592905
0.234928 0.344442 0.557733
0.381582 0.373617 0.540246
0.517037 0.390127 0.524834
0.624292 0.418708 0.498604
0.69456 0.470298 0.451225
0.747967 0.515465 0.439551
0.784344 0.554421 0.472938
0.052842 0.416419 0.598733
0.09131 0.470588 0.657282
0.221347 0.498726 0.652461
0.42153 0.501381 0.628046
0.557321 0.523461 0.581094
0.681727 0.538872 0.538628
0.750622 0.572793 0.502358
0.801419 0.608026 0.511391
0.838453 0.638453 0.533578
0.113832 0.535653 0.671275
0.161151 0.582254 0.715587
0.248173 0.613703 0.727871
0.44332 0.622217 0.693812
0.588495 0.635004 0.653376
0.714656 0.642603 0.595987
0.788495 0.671214 0.57055
0.844282 0.698314 0.577691
0.870436 0.72961 0.608026
0.224872 0.620706 0.738109
0.291539 0.6542 0.771572
0.349828 0.695811 0.780835
0.469306 0.720256 0.746685
0.602411 0.734615 0.714794
0.720851 0.742641 0.677607
0.815427 0.75819 0.656245
0.867964 0.783307 0.672755
0.902602 0.806241 0.689479
0.310063 0.704494 0.795178
0.355291 0.74522 0.829496
0.427085 0.783169 0.812451
0.522225 0.807172 0.789288
0.623972 0.822187 0.795331
0.741772 0.831907 0.738308
0.837446 0.842252 0.73019
0.88574 0.861799 0.741787
0.924407 0.879896 0.761685
0.361288 0.793072 0.852842
0.41387 0.823438 0.879149
0.491402 0.856184 0.851865
0.578393 0.882856 0.840574
0.677836 0.887282 0.841505
0.782727 0.902281 0.788739
0.870588 0.906722 0.783352
0.921767 0.924636 0.806302
0.955779 0.941863 0.827253
0.491539 0.847807 0.899123
0.535271 0.879362 0.916533
0.578408 0.910307 0.911299
0.627497 0.937957 0.899855
0.725216 0.947005 0.886854
0.833173 0.951095 0.841688
0.907744 0.96083 0.834058
0.950134 0.974945 0.860685
0.974411 0.984833 0.890669
0.00300603 0.0166476 0.393927
0.0226749 0.0451057 0.459342
0.107332 0.0715038 0.477852
0.281544 0.0717174 0.529274
0.403983 0.0890669 0.560388
0.4934 0.143328 0.530953
0.55285 0.222141 0.474922
0.61091 0.293538 0.431693
0.652033 0.362585 0.423697
0.0261692 0.115084 0.485786
0.0810864 0.166644 0.538598
0.218647 0.190021 0.563546
0.367437 0.199496 0.606088
0.505165 0.209445 0.638895
0.580865 0.269749 0.619074
0.631266 0.346792 0.553414
0.683848 0.407645 0.531044
0.721736 0.461463 0.5122
0.0317388 0.277653 0.620737
0.0691234 0.344335 0.648829
0.252903 0.358312 0.615778
0.385779 0.381842 0.630732
0.526757 0.389761 0.656443
0.620798 0.427558 0.631662
0.686488 0.470085 0.600168
0.745174 0.517784 0.583276
0.780072 0.557458 0.586435
0.0614328 0.430777 0.669673
0.10573 0.481727 0.709606
0.248066 0.506859 0.703105
0.429526 0.516182 0.679622
0.547173 0.537911 0.667002
0.650248 0.560922 0.641138
0.73959 0.578546 0.640177
0.79617 0.615702 0.631098
0.827085 0.650187 0.636683
0.129198 0.546899 0.717464
0.184771 0.585672 0.753994
0.27718 0.620737 0.771664
0.455497 0.628946 0.745937
0.591897 0.639414 0.7234
0.68809 0.659663 0.691386
0.781918 0.671916 0.681041
0.835264 0.708827 0.66656
0.867231 0.73785 0.68983
0.250843 0.630304 0.761105
0.311925 0.667964 0.794934
0.373434 0.704845 0.820508
0.48278 0.727855 0.801648
0.604517 0.743374 0.783276
0.718517 0.751247 0.746273
0.811627 0.767498 0.724208
0.860426 0.79086 0.727092
0.90132 0.820218 0.757305
0.342779 0.709865 0.817395
0.394263 0.746075 0.851133
0.446616 0.785977 0.8636
0.535119 0.8121 0.848676
0.637903 0.824933 0.835615
0.744671 0.836744 0.803403
0.837186 0.850385 0.782361
0.894179 0.864881 0.793881
0.916365 0.883757 0.820813
0.421805 0.785428 0.88043
0.461143 0.821881 0.905791
0.5187 0.85774 0.904601
0.595712 0.882277 0.881071
0.683162 0.896284 0.877821
0.782971 0.903899 0.859434
0.871473 0.913771 0.842756
0.918654 0.934585 0.855497
0.949599 0.941817 0.868376
0.534524 0.84123 0.925017
0.57731 0.874983 0.941924
0.607736 0.909331 0.942855
0.647089 0.939208 0.931517
0.743328 0.952056 0.914458
0.840543 0.956573 0.899397
0.912444 0.96463 0.883543
0.954391 0.977386 0.904646
0.978821 0.989425 0.921004
0.0137179 0.0281376 0.43006
0.0166629 0.063798 0.488975
0.137682 0.0792706 0.513954
0.305959 0.0831617 0.568627
0.41799 0.102464 0.634226
0.490806 0.151766 0.643
0.565362 0.211505 0.612039
0.614618 0.2981 0.562036
0.650004 0.368246 0.569436
0.0205081 0.136446 0.526024
0.0699779 0.192645 0.588495
0.248981 0.200153 0.601892
0.401495 0.201205 0.646036
0.506477 0.225055 0.699626
0.579492 0.277073 0.722179
0.649409 0.337545 0.675486
0.677897 0.41117 0.648295
0.715221 0.471519 0.635447
0.0166476 0.309194 0.654383
0.0615396 0.372061 0.690257
0.259297 0.370657 0.665904
0.417227 0.380056 0.691707
0.555962 0.379568 0.734127
0.650904 0.403082 0.749035
0.700084 0.464897 0.709484
0.744854 0.523949 0.68072
0.767254 0.565209 0.689799
0.0663462 0.443763 0.713848
0.112871 0.496117 0.750607
0.275975 0.515785 0.730739
0.448554 0.521218 0.734173
0.558389 0.537072 0.757214
0.659556 0.556481 0.748409
0.742885 0.582513 0.73164
0.793347 0.621363 0.729152
0.83772 0.651392 0.747173
0.148028 0.551995 0.752728
0.211643 0.5953 0.790661
0.310155 0.624857 0.800031
0.476173 0.63473 0.7841
0.596521 0.65185 0.784146
0.687236 0.669474 0.756863
0.768322 0.690227 0.756741
0.833631 0.711391 0.770947
0.876814 0.740719 0.771252
0.267308 0.640345 0.798764
0.32665 0.674434 0.825391
0.391714 0.708247 0.851057
0.499046 0.736568 0.84152
0.618067 0.742214 0.833906
0.729168 0.758938 0.803967
0.801633 0.777661 0.791257
0.865263 0.799496 0.804517
0.89485 0.822965 0.824567
0.359976 0.71931 0.850156
0.413336 0.755856 0.885801
0.470161 0.785779 0.887175
0.556252 0.809964 0.887541
0.639963 0.833158 0.880232
0.751659 0.842939 0.862776
0.838285 0.85716 0.837186
0.890913 0.87686 0.849027
0.927108 0.901579 0.877775
0.461585 0.790326 0.902647
0.500999 0.82327 0.929152
0.549065 0.854917 0.925444
0.61178 0.887007 0.921736
0.701442 0.898375 0.918334
0.796963 0.908156 0.901152
0.876341 0.920241 0.88098
0.925521 0.932692 0.900786
0.959747 0.947707 0.921935
0.581872 0.844938 0.931273
0.614313 0.873472 0.945891
0.638163 0.911391 0.955901
0.676448 0.937545 0.952712
0.760937 0.95137 0.939422
0.860594 0.956817 0.93695
0.920073 0.968139 0.925765
0.963027 0.981048 0.938247
0.979156 0.991623 0.95819
0.000259403 0.0435035 0.43563
0.0204929 0.0901808 0.513985
0.167239 0.0944228 0.533578
0.321691 0.101946 0.575341
0.444892 0.114778 0.656107
0.507515 0.166903 0.674006
0.578958 0.230518 0.657252
0.625269 0.305913 0.624277
0.654994 0.384466 0.6392
0.0343175 0.162661 0.548516
0.0761883 0.219974 0.600595
0.267979 0.219821 0.626413
0.420371 0.227329 0.661494
0.532723 0.240269 0.715892
0.598291 0.282582 0.740444
0.650431 0.355459 0.723445
0.691646 0.420066 0.696529
0.725475 0.470588 0.690135
0.0358282 0.327306 0.660319
0.0869001 0.385122 0.703716
0.287633 0.384512 0.705989
0.4448 0.380972 0.743587
0.564141 0.395712 0.767117
0.663172 0.411429 0.785107
0.716823 0.46247 0.784985
0.758389 0.517021 0.773098
0.784131 0.575998 0.756497
0.0883192 0.460136 0.720806
0.131563 0.511528 0.752209
0.318151 0.518151 0.752041
0.468864 0.528389 0.776074
0.577569 0.539315 0.815991
0.691279 0.541314 0.82771
0.761379 0.570214 0.830213
0.802915 0.623392 0.798291
0.834867 0.662287 0.799619
0.162478 0.56965 0.784894
0.234913 0.604135 0.808026
0.349264 0.634211 0.808179
0.493431 0.646189 0.810513
0.610559 0.655665 0.82063
0.694163 0.674327 0.817029
0.777356 0.694041 0.815229
0.829999 0.724376 0.82536
0.873991 0.740475 0.834989
0.279469 0.653971 0.83003
0.341482 0.688487 0.862821
0.409415 0.722332 0.865888
0.515846 0.744366 0.865431
0.634058 0.754757 0.864042
0.739925 0.763928 0.848417
0.801663 0.790799 0.839277
0.863508 0.809506 0.855497
0.897459 0.830243 0.869825
0.37821 0.731395 0.872831
0.433341 0.763714 0.900481
0.495491 0.797559 0.910811
0.569955 0.821332 0.910964
0.664073 0.84062 0.912474
0.766537 0.844984 0.893645
0.84007 0.866575 0.871473
0.885771 0.885023 0.88513
0.921111 0.90428 0.900816
0.491005 0.797345 0.909682
0.539895 0.820905 0.933013
0.586267 0.860822 0.942199
0.635721 0.886534 0.94023
0.716228 0.902098 0.933074
0.811704 0.91397 0.93434
0.878737 0.924269 0.921752
0.925368 0.943755 0.925078
0.95584 0.959396 0.940948
0.610315 0.846784 0.941176
0.64773 0.878401 0.959869
0.670207 0.913909 0.972366
0.708309 0.93991 0.963714
0.78732 0.951553 0.961639
0.868254 0.961303 0.958373
0.926665 0.970779 0.957839
0.96289 0.981735 0.966247
0.987182 0.995102 0.975143
0.0108797 0.0547494 0.478264
0.0423133 0.0946975 0.530312
0.181613 0.118318 0.545464
0.3178 0.136172 0.595376
0.450095 0.145144 0.650339
0.52343 0.190753 0.683772
0.58555 0.26392 0.662394
0.6327 0.324926 0.673716
0.658549 0.392523 0.6822
0.0494698 0.179156 0.567346
0.129152 0.226001 0.621653
0.295308 0.23476 0.645396
0.4168 0.25864 0.674632
0.532845 0.277104 0.721065
0.605661 0.319722 0.742397
0.659022 0.380438 0.730602
0.700023 0.438514 0.741924
0.72433 0.489647 0.754101
0.0664836 0.344579 0.65391
0.128252 0.397421 0.684565
0.322438 0.389731 0.727031
0.469688 0.391516 0.783963
0.569253 0.413581 0.801236
0.664088 0.438361 0.815229
0.728206 0.474647 0.822202
0.76791 0.528862 0.81796
0.783658 0.590738 0.804181
0.111055 0.483207 0.713085
0.176242 0.530266 0.742092
0.342626 0.535897 0.762158
0.478721 0.546624 0.796857
0.587747 0.557092 0.832334
0.696406 0.560632 0.864256
0.780301 0.578958 0.869947
0.811765 0.630961 0.83975
0.838422 0.673533 0.829267
0.200748 0.580041 0.777142
0.274266 0.6206 0.80444
0.37763 0.647318 0.820417
0.520699 0.652552 0.831647
0.621683 0.66714 0.845914
0.70779 0.686091 0.841031
0.792416 0.697368 0.853773
0.84625 0.722972 0.860899
0.875563 0.758679 0.876005
0.316579 0.660853 0.821958
0.376043 0.699428 0.858381
0.44802 0.726833 0.874846
0.54435 0.751797 0.886748
0.651377 0.756832 0.88661
0.749859 0.774731 0.877089
0.813397 0.794049 0.870436
0.86923 0.817533 0.883238
0.903426 0.841337 0.893324
0.429587 0.733455 0.877577
0.471733 0.768566 0.901213
0.528038 0.800992 0.919356
0.594675 0.824948 0.9299
0.684764 0.844816 0.933837
0.780316 0.852445 0.91281
0.851514 0.876554 0.903502
0.887388 0.894453 0.912642
0.931365 0.912428 0.928374
0.544244 0.791852 0.916136
0.577752 0.832074 0.928206
0.614649 0.86598 0.950622
0.670085 0.888655 0.95375
0.745174 0.903914 0.959457
0.825162 0.916106 0.950881
0.889769 0.930159 0.936294
0.937362 0.949508 0.946227
0.956741 0.963836 0.945357
0.635813 0.854841 0.930282
0.669001 0.887388 0.960204
0.704158 0.914107 0.963775
0.747631 0.939467 0.976593
0.811353 0.95172 0.978378
0.876799 0.966094 0.97145
0.934478 0.977005 0.978836
0.97293 0.990112 0.986831
0.997803 0.999908 0.991135
