creative/lut-kodak-gold-200.cube
TITLE "Generated by Resolve"
LUT_3D_SIZE 9
0.0169833 0.0158846 0.016556
0.0884718 0.0375982 0.0355383
0.318303 0.0604105 0.0331884
0.43975 0.0858015 0.0349737
0.531441 0.120089 0.0459449
0.599588 0.153735 0.0624399
0.654078 0.184741 0.0766461
0.700404 0.221851 0.104662
0.754192 0.276631 0.168093
0.0340734 0.130724 0.0441901
0.0703441 0.13611 0.0430152
0.261631 0.17351 0.0472114
0.403647 0.196231 0.0532387
0.508644 0.220157 0.0580301
0.585214 0.2439 0.0659953
0.647028 0.26305 0.0745403
0.705501 0.263874 0.082826
0.76463 0.287388 0.134356
0.0383764 0.261738 0.0616464
0.0682078 0.255619 0.0567483
0.246571 0.286336 0.0656138
0.390677 0.312978 0.0734874
0.500496 0.341238 0.0805371
0.581537 0.36347 0.0855268
0.648356 0.38294 0.0945449
0.705348 0.378882 0.0961929
0.775143 0.368002 0.111421
0.0648508 0.376776 0.087602
0.0867018 0.367254 0.0790112
0.247211 0.389715 0.0876478
0.388678 0.408591 0.0928054
0.496239 0.429557 0.100099
0.575463 0.452247 0.105791
0.643198 0.467643 0.112215
0.704158 0.472541 0.118517
0.785199 0.466773 0.129885
0.0931411 0.471458 0.107866
0.110964 0.467338 0.100603
0.252995 0.485237 0.106859
0.388113 0.501427 0.113649
0.494179 0.514443 0.117449
0.575357 0.532265 0.124392
0.64126 0.548775 0.133333
0.703517 0.559182 0.142489
0.786938 0.555337 0.159335
0.12697 0.55436 0.126253
0.137209 0.555871 0.123033
0.255665 0.572198 0.128283
0.3879 0.585489 0.133318
0.493294 0.597848 0.13843
0.576761 0.612589 0.144335
0.649927 0.628443 0.153063
0.71519 0.644556 0.16492
0.797757 0.648386 0.200656
0.171344 0.628153 0.15787
0.172686 0.629892 0.157748
0.237293 0.644846 0.149218
0.367056 0.66154 0.154894
0.483833 0.673259 0.157488
0.574594 0.687282 0.165805
0.655467 0.700481 0.172869
0.734142 0.72134 0.191943
0.815839 0.731487 0.250782
0.206088 0.6822 0.213321
0.206668 0.683528 0.21593
0.230472 0.704082 0.193576
0.305425 0.724346 0.184451
0.4392 0.74052 0.18265
0.552148 0.757946 0.187213
0.651179 0.776425 0.19942
0.742245 0.793469 0.223865
0.841031 0.812116 0.296635
0.232029 0.72192 0.308537
0.234058 0.724575 0.316991
0.250309 0.743343 0.298024
0.280644 0.76997 0.272328
0.34168 0.792447 0.254948
0.452979 0.811231 0.235096
0.575387 0.829572 0.241947
0.697276 0.849867 0.271717
0.823651 0.877302 0.355291
0.0603189 0.0394446 0.127794
0.130755 0.0535134 0.128313
0.340307 0.0828717 0.132616
0.443366 0.107057 0.136294
0.52546 0.136202 0.147448
0.589563 0.169192 0.17023
0.642603 0.198657 0.190356
0.692363 0.23064 0.206012
0.750774 0.282032 0.242878
0.0329442 0.136767 0.113695
0.0706188 0.132876 0.103731
0.265354 0.155642 0.100877
0.407355 0.166918 0.100496
0.5075 0.184405 0.106279
0.586954 0.201831 0.109422
0.65832 0.215595 0.111681
0.713329 0.240864 0.132952
0.764218 0.288777 0.197498
0.0422217 0.280629 0.149645
0.0611429 0.255604 0.121843
0.238056 0.273945 0.113436
0.388724 0.286244 0.107988
0.495171 0.296422 0.111391
0.579248 0.308354 0.116747
0.653941 0.314641 0.113039
0.721675 0.308034 0.104311
0.78471 0.327443 0.14052
0.0673075 0.397635 0.191623
0.0766613 0.373053 0.146197
0.231418 0.380407 0.133547
0.381033 0.394858 0.128618
0.489586 0.407126 0.126772
0.574578 0.418265 0.130495
0.653361 0.427192 0.133425
0.725978 0.427817 0.126802
0.801541 0.422049 0.137377
0.0948043 0.485542 0.215885
0.101884 0.473487 0.170642
0.234638 0.479423 0.152865
0.378134 0.493309 0.151049
0.486397 0.503883 0.149035
0.57377 0.518257 0.152529
0.650492 0.532357 0.159792
0.725338 0.539528 0.162142
0.810788 0.534524 0.174121
0.128283 0.556329 0.226734
0.131991 0.556176 0.196185
0.244068 0.570169 0.173724
0.38114 0.582025 0.174502
0.489281 0.594293 0.175341
0.575494 0.606806 0.179126
0.657298 0.625574 0.18584
0.734035 0.645182 0.199176
0.820111 0.640787 0.22974
0.164202 0.620523 0.232517
0.165759 0.622766 0.233341
0.238407 0.647562 0.19234
0.36611 0.661479 0.193133
0.485222 0.675196 0.197269
0.576547 0.690593 0.203326
0.663462 0.708202 0.213291
0.751171 0.732387 0.23212
0.840757 0.738125 0.282872
0.197238 0.676768 0.255802
0.197955 0.678187 0.265339
0.226932 0.703899 0.230869
0.300267 0.729137 0.216175
0.426093 0.748302 0.21416
0.548165 0.767529 0.219242
0.658091 0.787717 0.237446
0.758511 0.808408 0.266438
0.863386 0.826886 0.332113
0.23125 0.723323 0.330144
0.233829 0.72752 0.348486
0.248661 0.743648 0.335454
0.273167 0.770794 0.314702
0.319249 0.79527 0.295659
0.412009 0.818433 0.262898
0.552148 0.838163 0.264866
0.690028 0.859648 0.295216
0.831815 0.887968 0.380774
0.100252 0.0534371 0.272099
0.179629 0.0737621 0.269581
0.356039 0.108614 0.263233
0.465782 0.133669 0.273762
0.537728 0.159182 0.281224
0.591043 0.185275 0.28806
0.64329 0.212573 0.293446
0.693049 0.245914 0.305669
0.754421 0.301686 0.351034
0.0324407 0.122286 0.226291
0.0849622 0.130556 0.22179
0.276951 0.162951 0.22208
0.418845 0.178882 0.222324
0.514855 0.196521 0.223453
0.586709 0.215457 0.227024
0.651164 0.230747 0.228717
0.707912 0.253208 0.248539
0.764309 0.307698 0.322454
0.048249 0.274403 0.261326
0.071519 0.25951 0.242557
0.246662 0.279927 0.240162
0.400595 0.291402 0.230625
0.50428 0.296071 0.227665
0.582116 0.304402 0.231296
0.651331 0.313451 0.230854
0.716396 0.316838 0.22678
0.790799 0.331777 0.264027
0.0766918 0.404669 0.302861
0.0805524 0.380056 0.260456
0.234592 0.387442 0.252857
0.388586 0.400778 0.241749
0.496834 0.404929 0.226871
0.578195 0.407904 0.223713
0.652293 0.411704 0.227405
0.720821 0.416175 0.230335
0.811002 0.390127 0.230884
0.104112 0.492897 0.337636
0.102083 0.480674 0.291951
0.22771 0.483955 0.263081
0.380392 0.497642 0.25687
0.49073 0.506294 0.246494
0.576028 0.516274 0.242985
0.652079 0.522591 0.245106
0.727367 0.526665 0.25156
0.827268 0.501945 0.242664
0.135515 0.564202 0.363729
0.133669 0.562478 0.325826
0.229358 0.570794 0.277317
0.375006 0.583444 0.274052
0.489723 0.59559 0.269886
0.577935 0.607462 0.270039
0.659876 0.623117 0.270253
0.739071 0.639887 0.283299
0.839033 0.629358 0.304036
0.170428 0.625132 0.36434
0.171725 0.627466 0.362066
0.219196 0.645274 0.28307
0.354742 0.662181 0.284566
0.484413 0.676402 0.286381
0.579721 0.69163 0.292165
0.667903 0.708858 0.302953
0.756512 0.732326 0.317082
0.856336 0.741482 0.372946
0.19968 0.676799 0.376333
0.20145 0.678996 0.386877
0.216205 0.702678 0.332906
0.283787 0.729366 0.302632
0.418723 0.751629 0.302754
0.548714 0.77026 0.310719
0.660533 0.790478 0.32903
0.763317 0.812406 0.355688
0.871183 0.83093 0.417945
0.235676 0.727031 0.435554
0.239292 0.730434 0.452979
0.254276 0.74847 0.442496
0.277485 0.774899 0.419333
0.306004 0.798764 0.396353
0.366064 0.822919 0.329381
0.513771 0.845029 0.308125
0.680385 0.865782 0.341115
0.833234 0.892546 0.427878
0.145724 0.0786603 0.38407
0.222736 0.0985428 0.381292
0.368917 0.130617 0.372061
0.464591 0.15198 0.376074
0.542947 0.177722 0.383459
0.593256 0.201648 0.38912
0.640848 0.226078 0.390372
0.692515 0.257496 0.389578
0.760113 0.320684 0.427527
0.0320592 0.113497 0.347738
0.103319 0.129198 0.34316
0.287343 0.167926 0.338384
0.421042 0.185306 0.336934
0.520958 0.200061 0.336172
0.587671 0.222934 0.339849
0.648814 0.248417 0.342962
0.706752 0.274632 0.357244
0.771252 0.331044 0.415381
0.0445411 0.254276 0.374762
0.0871443 0.254658 0.369024
0.254124 0.275776 0.362783
0.401434 0.295659 0.359487
0.508278 0.304707 0.355825
0.582849 0.316335 0.357305
0.649393 0.329366 0.356832
0.713375 0.333547 0.351125
0.793439 0.356054 0.390036
0.0757763 0.39202 0.409995
0.0947738 0.381506 0.390311
0.241611 0.391012 0.381445
0.392721 0.406546 0.378531
0.502358 0.41239 0.367849
0.581735 0.413642 0.360525
0.65301 0.414908 0.358343
0.719066 0.415702 0.356756
0.810483 0.41593 0.383169
0.114946 0.495354 0.441718
0.118547 0.486412 0.412726
0.237446 0.49276 0.392874
0.383108 0.506661 0.389578
0.495796 0.513558 0.380865
0.580285 0.519982 0.370153
0.65568 0.520394 0.363073
0.728084 0.519921 0.362295
0.825925 0.517311 0.393668
0.150042 0.568292 0.4636
0.148547 0.567437 0.442939
0.231479 0.577203 0.403754
0.369039 0.589303 0.395972
0.489982 0.601862 0.394842
0.578897 0.611826 0.390326
0.6607 0.625086 0.385122
0.738979 0.63473 0.390372
0.843091 0.635279 0.439124
0.183566 0.629938 0.471275
0.18436 0.632609 0.470161
0.215427 0.650416 0.407263
0.3402 0.665217 0.398749
0.477867 0.680735 0.401495
0.578119 0.694926 0.408789
0.668284 0.711406 0.416663
0.756695 0.733074 0.425681
0.861128 0.741268 0.48368
0.208515 0.680308 0.477897
0.21059 0.68278 0.485878
0.220035 0.705089 0.446769
0.275898 0.732509 0.417655
0.403067 0.753811 0.411994
0.540902 0.773785 0.422461
0.656428 0.792874 0.439368
0.760754 0.814054 0.460639
0.876646 0.832792 0.504646
0.237842 0.725734 0.51664
0.242496 0.730083 0.527733
0.260029 0.750637 0.525673
0.282628 0.778424 0.515541
0.313161 0.802487 0.500648
0.352239 0.825833 0.438102
0.482979 0.849653 0.393133
0.667628 0.869932 0.421607
0.829648 0.892958 0.495857
0.194949 0.111894 0.466987
0.265461 0.130022 0.465583
0.388739 0.156161 0.459937
0.46424 0.173281 0.456626
0.53286 0.198123 0.456367
0.590356 0.22005 0.466499
0.641627 0.244282 0.471153
0.68835 0.274113 0.468559
0.759884 0.337057 0.49163
0.0482795 0.109606 0.456291
0.12668 0.127871 0.451774
0.304509 0.17023 0.444678
0.42182 0.194965 0.440665
0.51545 0.211688 0.438117
0.589837 0.229618 0.441993
0.649836 0.256733 0.445869
0.703792 0.289586 0.453544
0.774365 0.352895 0.494728
0.0456397 0.244663 0.479744
0.112337 0.252522 0.475608
0.271107 0.274754 0.468849
0.401526 0.294606 0.463508
0.505852 0.308797 0.460487
0.58529 0.317098 0.457542
0.649424 0.334081 0.456504
0.710658 0.355383 0.46183
0.798901 0.395605 0.501335
0.0719158 0.368505 0.504097
0.116091 0.373526 0.502754
0.255848 0.385992 0.496544
0.391714 0.398993 0.488746
0.501091 0.412772 0.483223
0.581079 0.418402 0.477119
0.651133 0.426093 0.477546
0.716396 0.435386 0.478447
0.811246 0.448066 0.509117
0.108232 0.48394 0.535607
0.123445 0.48217 0.527611
0.2448 0.492912 0.518151
0.385611 0.50692 0.510826
0.498589 0.517403 0.504738
0.582345 0.523064 0.498497
0.657374 0.524361 0.492164
0.729107 0.524804 0.48777
0.824872 0.529671 0.517937
0.146914 0.56994 0.55375
0.148989 0.569802 0.546929
0.239506 0.580774 0.532036
0.374456 0.594583 0.522866
0.492378 0.606012 0.519066
0.580056 0.615595 0.514168
0.661585 0.625727 0.509209
0.74078 0.632883 0.51136
0.841825 0.638453 0.54609
0.183246 0.632654 0.56022
0.184939 0.635874 0.561334
0.225055 0.65507 0.534478
0.345251 0.670924 0.528618
0.476616 0.684901 0.526009
0.577951 0.698848 0.530343
0.666346 0.713588 0.533562
0.756527 0.734554 0.54258
0.859922 0.739345 0.577417
0.215915 0.684092 0.562158
0.216922 0.686671 0.56846
0.23061 0.709133 0.555459
0.279667 0.737697 0.544198
0.404074 0.75874 0.54255
0.539544 0.777111 0.542489
0.65594 0.795544 0.55346
0.761028 0.816495 0.568627
0.875532 0.829084 0.593988
0.245914 0.729595 0.583398
0.249134 0.733318 0.592721
0.264683 0.753399 0.593561
0.292836 0.782406 0.595132
0.319432 0.807568 0.593103
0.362676 0.829633 0.563622
0.478492 0.852018 0.521019
0.655482 0.872816 0.528923
0.826596 0.89482 0.569741
0.239216 0.145556 0.524086
0.300038 0.157534 0.520455
0.408774 0.183734 0.51519
0.471351 0.200397 0.51812
0.530297 0.21976 0.51783
0.582238 0.244114 0.521614
0.63389 0.267506 0.529381
0.685206 0.292683 0.535439
0.754757 0.352377 0.547921
0.0939498 0.128328 0.531975
0.162158 0.142657 0.528252
0.326253 0.176364 0.520165
0.429572 0.20412 0.517388
0.511086 0.229129 0.518349
0.579522 0.251987 0.519966
0.644358 0.275746 0.528084
0.699596 0.304784 0.533303
0.768704 0.367636 0.553887
0.0641794 0.233005 0.553079
0.145602 0.24921 0.548547
0.295995 0.275929 0.544656
0.411566 0.297948 0.539864
0.503532 0.315847 0.537865
0.578943 0.326116 0.536736
0.65005 0.336049 0.534539
0.713252 0.358175 0.537453
0.796139 0.413504 0.570123
0.0885786 0.365866 0.579629
0.152132 0.371893 0.575982
0.280995 0.385092 0.57171
0.400717 0.396201 0.565942
0.497002 0.410712 0.561852
0.576715 0.419165 0.558618
0.651194 0.426032 0.557061
0.717449 0.439643 0.558724
0.810651 0.478309 0.590249
0.116991 0.472999 0.599573
0.153841 0.477241 0.599161
0.269123 0.489723 0.595865
0.392355 0.499107 0.591043
0.497398 0.509834 0.586496
0.581628 0.520699 0.584741
0.657588 0.528405 0.581216
0.728161 0.535241 0.583566
0.82356 0.557748 0.609445
0.150103 0.567147 0.624186
0.160204 0.569894 0.623529
0.251438 0.580179 0.618448
0.37615 0.59263 0.611933
0.490486 0.603067 0.606744
0.583169 0.6159 0.606287
0.6645 0.625635 0.603922
0.742916 0.634318 0.607385
0.839612 0.640131 0.623987
0.186969 0.639826 0.629084
0.188876 0.642832 0.631281
0.233478 0.658473 0.629908
0.348714 0.672084 0.625376
0.47808 0.686976 0.620356
0.580667 0.700832 0.621912
0.671809 0.716503 0.625284
0.75877 0.733715 0.630808
0.855863 0.735592 0.642771
0.215473 0.688838 0.63061
0.217166 0.69102 0.635096
0.233829 0.714229 0.641718
0.281605 0.740749 0.643015
0.408453 0.763058 0.641459
0.544686 0.781231 0.64007
0.662165 0.7991 0.644297
0.764431 0.81886 0.652903
0.871046 0.822705 0.66099
0.249744 0.734249 0.643885
0.253361 0.737942 0.649256
0.268116 0.757488 0.652842
0.293523 0.785595 0.660655
0.324575 0.810773 0.668025
0.377783 0.835966 0.656275
0.494087 0.854398 0.634256
0.659037 0.87393 0.633646
0.825147 0.895354 0.64799
0.280278 0.178073 0.563821
0.323705 0.186709 0.563058
0.424018 0.212726 0.560967
0.4813 0.229068 0.562219
0.53344 0.247059 0.565148
0.579675 0.268009 0.569986
0.627283 0.292897 0.572869
0.677516 0.320256 0.581888
0.747311 0.368841 0.593149
0.158602 0.170062 0.580118
0.208606 0.17847 0.57789
0.351934 0.204562 0.575235
0.442725 0.228748 0.574395
0.515633 0.252262 0.576013
0.576623 0.277684 0.579553
0.635721 0.305989 0.582635
0.689967 0.333013 0.588769
0.759701 0.383871 0.60177
0.0892195 0.219165 0.602457
0.158526 0.235492 0.600046
0.307042 0.263996 0.596963
0.418708 0.291081 0.595315
0.50576 0.320073 0.595483
0.575509 0.34107 0.597208
0.643381 0.355093 0.597391
0.70811 0.372915 0.600381
0.786374 0.424994 0.619837
0.116899 0.365408 0.635035
0.191745 0.377539 0.630106
0.312123 0.391501 0.62533
0.415152 0.403586 0.6224
0.501671 0.415976 0.618631
0.575204 0.426688 0.617517
0.646311 0.434318 0.617594
0.717113 0.4448 0.619242
0.807309 0.485359 0.638178
0.141436 0.476616 0.657511
0.190738 0.479088 0.654307
0.301274 0.488975 0.649729
0.406516 0.498054 0.645808
0.501198 0.507851 0.642741
0.578973 0.518074 0.641413
0.654383 0.528344 0.640864
0.727428 0.537209 0.640497
0.821881 0.567025 0.658549
0.169497 0.567498 0.680995
0.191577 0.570779 0.679698
0.286885 0.578225 0.673442
0.39324 0.587442 0.670451
0.49604 0.59855 0.667277
0.583932 0.612009 0.667704
0.665507 0.625208 0.668177
0.742443 0.638758 0.669978
0.838758 0.658351 0.682673
0.197116 0.646067 0.688609
0.200443 0.649363 0.690806
0.258686 0.661128 0.693141
0.366751 0.672328 0.690532
0.48307 0.686244 0.687831
0.581857 0.700175 0.688167
0.676341 0.718029 0.691768
0.762997 0.733822 0.695048
0.852506 0.738293 0.698512
0.223987 0.694301 0.685878
0.225742 0.697063 0.689143
0.243519 0.71899 0.703914
0.297826 0.745342 0.713176
0.422354 0.765057 0.712551
0.553094 0.783291 0.711192
0.66865 0.801648 0.713115
0.770474 0.820325 0.717815
0.865568 0.81471 0.714412
0.256458 0.73817 0.686519
0.260243 0.741695 0.689906
0.275975 0.76112 0.699733
0.300877 0.78761 0.713619
0.339178 0.815183 0.725856
0.404364 0.840208 0.726009
0.520745 0.857801 0.712795
0.673732 0.875364 0.707424
0.827436 0.894224 0.71841
0.319066 0.218265 0.604089
0.34844 0.224659 0.60267
0.434806 0.247715 0.605615
0.489342 0.262318 0.604212
0.53669 0.279377 0.604379
0.579583 0.297597 0.610574
0.624796 0.324163 0.617288
0.675273 0.351415 0.623789
0.741299 0.399481 0.634958
0.22887 0.224247 0.624887
0.259831 0.229007 0.624063
0.381949 0.251362 0.621698
0.457969 0.271794 0.622568
0.522713 0.2907 0.620859
0.576608 0.310018 0.62504
0.629633 0.337102 0.630915
0.685054 0.365621 0.63415
0.750988 0.412711 0.643824
0.141238 0.245991 0.650477
0.172885 0.249851 0.649058
0.309972 0.269535 0.646113
0.418784 0.291112 0.643946
0.505837 0.316716 0.644312
0.575448 0.34345 0.64712
0.641535 0.375357 0.652369
0.704875 0.405234 0.655482
0.772824 0.449119 0.66276
0.127871 0.346624 0.68275
0.185641 0.357229 0.679667
0.31487 0.375708 0.675868
0.418418 0.390463 0.673961
0.508583 0.411154 0.673304
0.5832 0.433494 0.675044
0.652079 0.453407 0.677226
0.718318 0.468513 0.67715
0.797299 0.50338 0.684947
0.179889 0.483604 0.714275
0.24097 0.492515 0.710338
0.355001 0.506386 0.705226
0.439139 0.515404 0.703441
0.519158 0.522164 0.70106
0.590738 0.530632 0.69987
0.661799 0.540734 0.699901
0.729183 0.551034 0.699138
0.814908 0.578286 0.706065
0.202884 0.573907 0.737224
0.235523 0.577844 0.735378
0.339162 0.585931 0.729549
0.42562 0.595728 0.728023
0.51487 0.608225 0.727245
0.595514 0.620005 0.728161
0.673716 0.630991 0.728222
0.746456 0.64651 0.729015
0.830747 0.664134 0.728603
0.22652 0.651392 0.750317
0.230991 0.654536 0.75256
0.314031 0.66334 0.749035
0.404532 0.671962 0.747341
0.500572 0.6851 0.747875
0.591897 0.701534 0.750576
0.682872 0.71986 0.754711
0.765011 0.735119 0.757076
0.844022 0.743572 0.747478
0.240238 0.708659 0.745678
0.242771 0.711818 0.749249
0.268345 0.730816 0.763928
0.336828 0.750637 0.773312
0.453071 0.766155 0.773968
0.568093 0.783276 0.775753
0.675761 0.801648 0.779187
0.774212 0.819455 0.78175
0.861479 0.813138 0.765743
0.265782 0.744808 0.731838
0.269917 0.749279 0.734768
0.286076 0.767651 0.746273
0.314199 0.791608 0.761822
0.361578 0.818738 0.775876
0.440299 0.842908 0.783368
0.561776 0.860807 0.779126
0.696132 0.876204 0.774105
0.840528 0.89868 0.773342
0.366384 0.291539 0.659403
0.380118 0.293294 0.658671
0.442191 0.308904 0.659205
0.494652 0.325277 0.660822
0.539055 0.339773 0.663142
0.579919 0.355245 0.665614
0.624033 0.374105 0.670024
0.670878 0.397757 0.677546
0.736171 0.446983 0.689723
0.328923 0.304921 0.676265
0.342245 0.307317 0.67541
0.416205 0.322225 0.673854
0.479118 0.338003 0.673091
0.534157 0.35378 0.674586
0.580713 0.370184 0.677684
0.628534 0.3897 0.683833
0.677852 0.41117 0.687205
0.743938 0.460288 0.699016
0.272419 0.34078 0.703929
0.288365 0.34136 0.702815
0.37821 0.350454 0.699687
0.459098 0.366079 0.697887
0.528618 0.381964 0.698192
0.585168 0.398291 0.69929
0.640162 0.418677 0.703639
0.694148 0.443717 0.708446
0.764187 0.497368 0.720714
0.245533 0.40119 0.736812
0.258732 0.401923 0.73579
0.346853 0.404456 0.731182
0.443778 0.414008 0.727337
0.523613 0.430854 0.726299
0.58996 0.446601 0.726131
0.651957 0.465339 0.728099
0.70988 0.488182 0.731136
0.78085 0.536507 0.739986
0.290837 0.507103 0.76997
0.302785 0.508522 0.76997
0.371572 0.509697 0.766583
0.452277 0.512901 0.762722
0.533715 0.518639 0.759365
0.601465 0.530709 0.759213
0.665721 0.543694 0.758831
0.728923 0.561471 0.761379
0.794171 0.595254 0.762936
0.340948 0.602731 0.793179
0.354208 0.60592 0.793271
0.414649 0.613123 0.791531
0.479576 0.621317 0.7906
0.550591 0.625635 0.787442
0.616373 0.629648 0.78587
0.680812 0.633951 0.785443
0.737469 0.645869 0.785168
0.803281 0.669779 0.783444
0.321386 0.658763 0.807019
0.327672 0.66099 0.807538
0.388037 0.665721 0.805798
0.459663 0.675425 0.803479
0.535683 0.688685 0.802777
0.609003 0.700786 0.802396
0.679927 0.709606 0.802716
0.748211 0.713817 0.801862
0.819318 0.733059 0.801053
0.302876 0.720226 0.820218
0.312215 0.722408 0.821637
0.357321 0.728008 0.823972
0.428428 0.733364 0.823041
0.512306 0.741863 0.819577
0.58999 0.752819 0.817685
0.665721 0.768811 0.819883
0.743282 0.783154 0.8215
0.836149 0.792691 0.819715
0.300359 0.765515 0.796735
0.309392 0.770123 0.799863
0.34052 0.786954 0.81326
0.388632 0.803342 0.827695
0.453574 0.819837 0.833631
0.535561 0.833768 0.836835
0.613367 0.850294 0.839506
0.710704 0.865721 0.842451
0.840406 0.889189 0.846525
