creative/lut-fuji-c200-cool.cube
TITLE "Generated by Resolve"
LUT_3D_SIZE 33
0.0679179 0.0738079 0.0713054
0.0795911 0.0803235 0.0795605
0.0946212 0.090074 0.0865949
0.121736 0.098558 0.0910048
0.160037 0.104646 0.0925612
0.206821 0.108888 0.0929274
0.253346 0.112428 0.09308
0.299672 0.115663 0.0920577
0.35111 0.118898 0.0908217
0.403311 0.123033 0.0897078
0.454719 0.126864 0.0889296
0.503044 0.130816 0.0887617
0.54699 0.135363 0.0896468
0.58648 0.140185 0.0904707
0.621286 0.144945 0.0915084
0.651789 0.149004 0.0922408
0.677317 0.152636 0.0928664
0.698924 0.155871 0.0935683
0.717754 0.15848 0.0943923
0.734722 0.160433 0.09514
0.749966 0.16231 0.0960861
0.763195 0.163806 0.0967422
0.77557 0.165469 0.0975204
0.786374 0.1673 0.0982986
0.797055 0.169314 0.0997787
0.806455 0.171374 0.101259
0.815671 0.173953 0.103166
0.823758 0.176486 0.105013
0.832029 0.179736 0.107912
0.839979 0.183581 0.111849
0.848905 0.188663 0.117571
0.858274 0.195377 0.126024
0.867918 0.204028 0.137377
0.0713207 0.0893721 0.0767071
0.0808576 0.0946975 0.0825055
0.0960403 0.102846 0.0895247
0.118441 0.113405 0.0940108
0.151797 0.122972 0.0956893
0.196078 0.130739 0.0962539
0.241962 0.136233 0.0960861
0.288151 0.141283 0.0955978
0.339254 0.145525 0.0947585
0.3906 0.149264 0.093904
0.441459 0.152911 0.0927443
0.490562 0.156939 0.0923323
0.536507 0.161471 0.0922866
0.578607 0.166323 0.0930648
0.614466 0.170718 0.0932937
0.645243 0.174411 0.0932784
0.670848 0.17763 0.0934005
0.692546 0.180026 0.0937362
0.711391 0.182239 0.0943923
0.728527 0.184192 0.0949721
0.744198 0.186282 0.0956283
0.75816 0.187869 0.0963455
0.770855 0.189227 0.0967117
0.782712 0.190921 0.0974136
0.794125 0.192737 0.0985275
0.804425 0.194202 0.0995193
0.814267 0.195987 0.101122
0.823331 0.197574 0.102434
0.832639 0.199695 0.104265
0.841703 0.201801 0.106905
0.851179 0.205249 0.110842
0.860716 0.210193 0.117144
0.87068 0.21735 0.126864
0.0741436 0.109926 0.0813611
0.0818189 0.114092 0.0852216
0.0956283 0.121477 0.0906233
0.11577 0.13135 0.0955215
0.142901 0.142931 0.0979171
0.185183 0.152773 0.0991836
0.231571 0.160845 0.0992142
0.27686 0.16701 0.0993362
0.327718 0.17261 0.0993057
0.37911 0.177539 0.0987564
0.430411 0.182177 0.0982834
0.480476 0.187045 0.0979324
0.527718 0.192386 0.0978561
0.571084 0.197391 0.0977646
0.608835 0.202472 0.0978561
0.639918 0.205982 0.097322
0.665522 0.208621 0.0969253
0.687007 0.210712 0.0966354
0.706096 0.213245 0.09691
0.723247 0.215717 0.0973373
0.73933 0.21799 0.0981155
0.753536 0.219944 0.0986496
0.767025 0.222141 0.0993515
0.778943 0.223407 0.0999924
0.790509 0.224552 0.100725
0.800916 0.225513 0.101411
0.811337 0.226612 0.102434
0.820966 0.227253 0.103487
0.830564 0.227588 0.104295
0.840406 0.228626 0.105974
0.850462 0.230518 0.1084
0.8607 0.233524 0.113008
0.871092 0.2383 0.120607
0.0762341 0.136416 0.0849012
0.0816815 0.136553 0.0865339
0.0937972 0.143786 0.0909285
0.112688 0.153506 0.0957961
0.138308 0.163729 0.0993362
0.171572 0.176089 0.100862
0.220386 0.183688 0.101747
0.265522 0.192126 0.102556
0.315877 0.200534 0.103609
0.367391 0.207279 0.104356
0.418906 0.213336 0.104784
0.469947 0.21944 0.104921
0.518639 0.225879 0.104585
0.562921 0.231678 0.104219
0.60209 0.236973 0.104051
0.633753 0.241016 0.102983
0.660471 0.243793 0.102388
0.682521 0.246326 0.102113
0.70161 0.249134 0.102098
0.719356 0.252155 0.102419
0.73579 0.254948 0.10312
0.750683 0.257633 0.103914
0.764172 0.259831 0.104524
0.776242 0.261311 0.105257
0.787396 0.261799 0.105653
0.798291 0.262516 0.106325
0.808392 0.262242 0.106767
0.818204 0.261463 0.107118
0.827848 0.260441 0.107378
0.838254 0.260319 0.108385
0.848737 0.260914 0.110216
0.859525 0.262272 0.113329
0.870619 0.265217 0.119158
0.0771954 0.167742 0.08748
0.0812085 0.162509 0.0873426
0.0920577 0.16846 0.0909285
0.109606 0.178317 0.0955673
0.133501 0.187488 0.0992294
0.16614 0.196231 0.1019
0.207889 0.209613 0.104143
0.255512 0.217731 0.105852
0.30428 0.227665 0.107469
0.355444 0.236835 0.109239
0.40734 0.244984 0.110857
0.458747 0.252247 0.111727
0.508263 0.259083 0.111727
0.553826 0.265782 0.111254
0.594125 0.272023 0.110826
0.627375 0.276661 0.10985
0.654887 0.279805 0.108965
0.677806 0.282963 0.108644
0.698054 0.286671 0.108919
0.716335 0.290578 0.109407
0.73312 0.294011 0.110109
0.748135 0.296895 0.110765
0.762051 0.299657 0.111727
0.774319 0.301381 0.112581
0.785733 0.301808 0.11313
0.796002 0.301411 0.113207
0.806088 0.300237 0.113222
0.815839 0.298863 0.113313
0.826062 0.296574 0.113329
0.836286 0.295155 0.113771
0.847303 0.294636 0.115038
0.85864 0.29514 0.117418
0.870405 0.296742 0.122286
0.0782177 0.202716 0.0898756
0.0805219 0.190753 0.087602
0.0897993 0.19382 0.0901503
0.105913 0.202945 0.0941482
0.129107 0.21323 0.098436
0.159869 0.221561 0.101472
0.199054 0.23241 0.105119
0.242954 0.247257 0.108492
0.295323 0.255467 0.111513
0.34464 0.265263 0.113146
0.396429 0.275135 0.116228
0.447669 0.283467 0.117906
0.497536 0.29102 0.118441
0.544213 0.298482 0.118166
0.585763 0.305211 0.117876
0.620127 0.310628 0.116793
0.649485 0.314778 0.116045
0.673274 0.319219 0.115724
0.694286 0.323232 0.115953
0.712886 0.327398 0.11635
0.729931 0.331487 0.117205
0.745312 0.335653 0.118288
0.75906 0.338964 0.119249
0.771939 0.340688 0.120317
0.783291 0.341421 0.120821
0.794049 0.341466 0.121172
0.804227 0.339925 0.120806
0.814084 0.337896 0.120424
0.824567 0.335164 0.120348
0.835065 0.332952 0.120562
0.84654 0.331518 0.121675
0.858427 0.331182 0.124269
0.87068 0.33193 0.128603
0.0801862 0.241184 0.093492
0.0805524 0.222507 0.0878614
0.0878157 0.22121 0.0888685
0.102541 0.229725 0.0923018
0.124086 0.239887 0.0961624
0.154208 0.248737 0.0998398
0.194308 0.256931 0.103136
0.232731 0.272663 0.109316
0.283574 0.286427 0.114412
0.337713 0.293431 0.11841
0.386191 0.301778 0.11957
0.438117 0.312627 0.122805
0.488838 0.321965 0.124758
0.535576 0.33022 0.124956
0.577127 0.337789 0.124666
0.612848 0.344671 0.123903
0.643397 0.349874 0.123232
0.668513 0.354376 0.122866
0.689891 0.359121 0.122866
0.709102 0.36405 0.12343
0.726162 0.368505 0.123964
0.741451 0.372625 0.124834
0.755428 0.376318 0.126085
0.768078 0.378698 0.126986
0.77998 0.380056 0.127825
0.791043 0.37998 0.127871
0.801663 0.378958 0.127703
0.812177 0.377554 0.127352
0.823133 0.375692 0.127565
0.83447 0.373632 0.128237
0.846265 0.371603 0.129793
0.858213 0.37026 0.132433
0.871061 0.370718 0.137072
0.0832532 0.283284 0.0977798
0.0821088 0.261219 0.0885023
0.0869917 0.255146 0.0871443
0.0996567 0.26038 0.0895094
0.119921 0.269688 0.09337
0.148486 0.278828 0.0973831
0.187106 0.285801 0.101656
0.23125 0.294011 0.106386
0.270802 0.313787 0.114992
0.328283 0.327306 0.122667
0.382498 0.333913 0.126833
0.430686 0.341939 0.127077
0.481376 0.352544 0.129519
0.529427 0.363485 0.131365
0.571328 0.37229 0.131838
0.606928 0.379599 0.13138
0.637827 0.385458 0.130785
0.663691 0.39028 0.13022
0.685985 0.39501 0.130159
0.705165 0.399481 0.130129
0.72253 0.403922 0.13051
0.737575 0.408026 0.130922
0.751659 0.411917 0.131807
0.764675 0.414603 0.132677
0.776532 0.416007 0.133196
0.788098 0.416861 0.133684
0.79939 0.417166 0.133913
0.810086 0.416312 0.133776
0.82153 0.415473 0.134676
0.833661 0.414511 0.136339
0.845991 0.413733 0.138827
0.858289 0.412543 0.142245
0.871214 0.411856 0.147616
0.0867781 0.326223 0.103471
0.0848707 0.301503 0.090486
0.0878767 0.291096 0.0865492
0.0981613 0.293858 0.0872663
0.116457 0.302022 0.0901808
0.142779 0.310689 0.0939651
0.180011 0.318883 0.0987259
0.224155 0.326741 0.103731
0.27068 0.337469 0.110887
0.312947 0.360784 0.12282
0.372793 0.375235 0.132174
0.431296 0.38201 0.137789
0.477348 0.38764 0.135515
0.523949 0.396445 0.136431
0.566537 0.405966 0.138125
0.602411 0.414542 0.138705
0.63328 0.421607 0.138613
0.659236 0.426551 0.138231
0.681453 0.430869 0.137621
0.701198 0.435218 0.13753
0.718669 0.43975 0.137469
0.734234 0.443519 0.137667
0.748211 0.44712 0.137835
0.761334 0.449882 0.138369
0.773526 0.452216 0.138811
0.78558 0.453651 0.139391
0.796811 0.45452 0.13991
0.808087 0.455436 0.140978
0.819898 0.456016 0.142702
0.832349 0.456535 0.145449
0.845243 0.456886 0.148989
0.858091 0.456687 0.153719
0.871458 0.456413 0.160021
0.0912184 0.369955 0.11133
0.0888533 0.345098 0.0942702
0.0899367 0.331334 0.0864271
0.0977646 0.331563 0.0851911
0.113863 0.339147 0.0871595
0.138277 0.347936 0.0901503
0.174594 0.356649 0.0948959
0.21857 0.364782 0.100404
0.263752 0.372625 0.106065
0.312139 0.38703 0.117494
0.358343 0.413596 0.132967
0.421118 0.427787 0.143496
0.48191 0.432105 0.149935
0.523491 0.433982 0.145586
0.56321 0.44007 0.144686
0.598566 0.447623 0.145205
0.629023 0.454948 0.145632
0.654795 0.460838 0.145464
0.67747 0.466346 0.145312
0.696986 0.471168 0.145022
0.714931 0.475792 0.145098
0.730587 0.480049 0.145373
0.745068 0.484001 0.145586
0.758312 0.487022 0.145708
0.77116 0.489601 0.146334
0.783123 0.491524 0.146853
0.794934 0.493568 0.148043
0.806409 0.495491 0.149645
0.818402 0.497261 0.152422
0.830869 0.498894 0.155779
0.843702 0.500237 0.16025
0.857328 0.501793 0.166155
0.871061 0.50161 0.172976
0.0964065 0.411994 0.120974
0.0936751 0.389487 0.0994888
0.0932326 0.374517 0.0872663
0.0986954 0.372625 0.0833906
0.112413 0.380056 0.0841382
0.135256 0.389395 0.0869001
0.170108 0.397681 0.0911116
0.213764 0.405478 0.09691
0.259236 0.413306 0.103288
0.305837 0.420737 0.11078
0.356207 0.439719 0.127031
0.406256 0.466743 0.144625
0.471717 0.479179 0.156085
0.532097 0.481346 0.162493
0.567742 0.481086 0.157641
0.599145 0.484489 0.155016
0.627405 0.489815 0.15407
0.651926 0.495171 0.153445
0.673548 0.500771 0.153002
0.693217 0.506325 0.152972
0.711086 0.51165 0.153216
0.727001 0.516625 0.15349
0.741817 0.521004 0.15404
0.755749 0.524788 0.154726
0.768811 0.527993 0.155505
0.781186 0.530846 0.15639
0.793225 0.533303 0.15787
0.80499 0.535622 0.159808
0.817121 0.538277 0.163149
0.82948 0.541054 0.167224
0.842481 0.543008 0.171984
0.85626 0.544701 0.178241
0.870405 0.545144 0.185443
0.103212 0.450172 0.133394
0.100252 0.432212 0.107393
0.0987564 0.418662 0.0905623
0.101579 0.415 0.0832532
0.112184 0.421653 0.0820172
0.132479 0.431098 0.0841993
0.16611 0.439551 0.0879835
0.208392 0.446738 0.0932174
0.253925 0.453544 0.0997787
0.300038 0.459815 0.107591
0.349813 0.468421 0.117708
0.401556 0.49308 0.138918
0.456077 0.518593 0.15729
0.522286 0.528817 0.168933
0.577127 0.530465 0.175448
0.609506 0.531106 0.172976
0.633814 0.532036 0.168887
0.655192 0.5346 0.166339
0.674891 0.538598 0.164889
0.693019 0.543679 0.164141
0.709926 0.548241 0.163638
0.725093 0.552682 0.163592
0.739452 0.557214 0.163973
0.753368 0.561502 0.164721
0.766445 0.565026 0.165591
0.779355 0.5682 0.166796
0.791516 0.571023 0.168338
0.803662 0.574243 0.17116
0.815793 0.577249 0.174594
0.828214 0.580056 0.178454
0.841321 0.582223 0.183429
0.855116 0.58436 0.189532
0.869383 0.584665 0.196094
0.11107 0.484779 0.146914
0.108309 0.472084 0.118257
0.106004 0.460456 0.0971084
0.106752 0.455863 0.085481
0.114382 0.461891 0.0818952
0.130953 0.471626 0.0824445
0.161944 0.480049 0.0856947
0.202976 0.486931 0.0903487
0.248127 0.493248 0.0969253
0.294545 0.499321 0.104723
0.341894 0.504677 0.113191
0.395636 0.51548 0.127001
0.448722 0.546349 0.152926
0.50695 0.569375 0.170703
0.56643 0.577905 0.181094
0.616526 0.579767 0.188602
0.646845 0.580453 0.188998
0.667918 0.581506 0.18645
0.684947 0.582544 0.183322
0.70045 0.584527 0.180926
0.715145 0.587091 0.179248
0.728954 0.590326 0.178256
0.74255 0.593988 0.178103
0.755413 0.59736 0.177981
0.767926 0.600549 0.17847
0.780255 0.60383 0.179568
0.792004 0.606668 0.181109
0.803433 0.609339 0.183078
0.815366 0.612024 0.185977
0.827741 0.614847 0.18967
0.840635 0.61706 0.193759
0.854047 0.618219 0.198871
0.868254 0.618418 0.204776
0.119814 0.517678 0.161807
0.117418 0.509087 0.132143
0.115114 0.500023 0.107332
0.114519 0.495506 0.0909743
0.118471 0.499428 0.0836652
0.131472 0.509712 0.0825208
0.158373 0.518791 0.0843519
0.196796 0.526268 0.0882734
0.241032 0.532677 0.0940871
0.287343 0.538003 0.101503
0.335119 0.542885 0.110323
0.385748 0.54815 0.120165
0.44332 0.564233 0.139666
0.497017 0.59791 0.167849
0.551629 0.61619 0.182986
0.603815 0.62388 0.19266
0.648386 0.62591 0.200519
0.678248 0.627268 0.2038
0.698756 0.628 0.203754
0.714336 0.62858 0.202014
0.727611 0.629053 0.199817
0.739406 0.630014 0.197787
0.751095 0.631403 0.196201
0.762615 0.633173 0.195117
0.773877 0.635615 0.194842
0.784878 0.637552 0.194919
0.795789 0.639918 0.195773
0.806668 0.642451 0.197177
0.818143 0.645167 0.199542
0.829984 0.647135 0.20174
0.841962 0.648219 0.204501
0.854673 0.648478 0.207843
0.867903 0.647761 0.212146
0.128405 0.547967 0.176043
0.126925 0.543023 0.147082
0.125216 0.537469 0.120378
0.12401 0.533104 0.10016
0.125704 0.534661 0.0885328
0.134646 0.544778 0.0844739
0.156786 0.555474 0.0849317
0.19086 0.563272 0.0875257
0.232975 0.569345 0.0921492
0.27892 0.574731 0.0990158
0.32755 0.579049 0.107271
0.377752 0.58262 0.116747
0.431128 0.588174 0.129519
0.490196 0.61207 0.156222
0.541115 0.642817 0.18175
0.590402 0.656977 0.194659
0.634928 0.663066 0.203326
0.673961 0.665492 0.210971
0.702998 0.66656 0.215839
0.723796 0.667613 0.218311
0.739864 0.667933 0.218418
0.752285 0.668147 0.217609
0.763592 0.668605 0.216144
0.773953 0.669169 0.214572
0.783886 0.669673 0.213397
0.793774 0.670832 0.212757
0.803525 0.67216 0.21265
0.813291 0.673579 0.21265
0.823484 0.675074 0.213596
0.834226 0.676326 0.214557
0.846036 0.67715 0.216434
0.857786 0.676753 0.218051
0.869978 0.675181 0.220493
0.138384 0.574411 0.189502
0.136965 0.572656 0.162554
0.13608 0.57055 0.13547
0.135225 0.568338 0.111971
0.13576 0.569055 0.0966812
0.14139 0.576486 0.0891585
0.158633 0.587869 0.0875105
0.187747 0.596887 0.088777
0.226581 0.603235 0.0924086
0.27039 0.607355 0.0979019
0.318944 0.610559 0.105318
0.36965 0.613214 0.114214
0.421607 0.615747 0.124971
0.479744 0.626078 0.144167
0.532525 0.655818 0.173693
0.580819 0.680034 0.195056
0.623819 0.691127 0.206134
0.662333 0.696406 0.214176
0.696284 0.698329 0.221118
0.723674 0.699886 0.226963
0.745434 0.701274 0.231128
0.761685 0.702449 0.23328
0.77499 0.702876 0.233814
0.786282 0.703243 0.233585
0.796506 0.703822 0.233036
0.805417 0.704021 0.231952
0.814343 0.704463 0.231373
0.82295 0.704677 0.230182
0.832044 0.705104 0.229892
0.841627 0.705089 0.229511
0.852064 0.704662 0.229526
0.862928 0.703639 0.229862
0.874327 0.701778 0.230671
0.148653 0.595041 0.202319
0.148104 0.596429 0.177478
0.148241 0.597742 0.151766
0.148196 0.598138 0.126787
0.14873 0.599451 0.108263
0.152636 0.605066 0.0975204
0.164981 0.615152 0.0924544
0.187976 0.624475 0.0917067
0.221027 0.630991 0.0937514
0.262608 0.635126 0.098436
0.310292 0.638285 0.104906
0.361349 0.640269 0.113329
0.41323 0.641657 0.123354
0.467552 0.645197 0.137499
0.525231 0.663996 0.162921
0.572457 0.694682 0.191745
0.61532 0.712032 0.208103
0.652903 0.720516 0.217823
0.685908 0.725078 0.225132
0.716304 0.727565 0.232074
0.743023 0.72929 0.238407
0.763928 0.731029 0.243503
0.781048 0.732982 0.246876
0.79501 0.734295 0.249241
0.806714 0.735027 0.250248
0.816785 0.735607 0.250614
0.825879 0.73579 0.250217
0.834363 0.735805 0.249287
0.842405 0.73489 0.247837
0.85095 0.733623 0.246204
0.860212 0.732204 0.244617
0.87039 0.730419 0.243732
0.880735 0.728008 0.243259
0.160967 0.611521 0.215274
0.160052 0.615137 0.191165
0.160754 0.618967 0.167605
0.161746 0.621866 0.143084
0.1635 0.624521 0.12224
0.166674 0.629114 0.108812
0.175402 0.636988 0.100725
0.19237 0.646036 0.0970016
0.219638 0.654017 0.0968795
0.256382 0.65919 0.100237
0.301915 0.662181 0.106004
0.352483 0.664103 0.113802
0.405112 0.665553 0.123644
0.458274 0.666423 0.135805
0.514321 0.675334 0.15494
0.565942 0.701473 0.184573
0.607858 0.726986 0.208362
0.645792 0.740093 0.221866
0.678248 0.74699 0.230152
0.7075 0.751095 0.237079
0.735332 0.754025 0.244007
0.759915 0.75639 0.250233
0.780758 0.758755 0.255879
0.797848 0.760433 0.260426
0.812161 0.761807 0.263539
0.824155 0.762707 0.265827
0.834333 0.76321 0.266758
0.843656 0.763226 0.267063
0.852369 0.762539 0.266133
0.861219 0.761059 0.264393
0.870008 0.758938 0.261875
0.878935 0.755947 0.25922
0.888212 0.752514 0.257649
0.172854 0.62472 0.228504
0.172473 0.629801 0.205264
0.173419 0.635554 0.183032
0.175433 0.640391 0.159976
0.178302 0.643931 0.138537
0.181216 0.647913 0.122072
0.187564 0.655024 0.111589
0.200381 0.663645 0.105348
0.221759 0.672236 0.102617
0.253285 0.679133 0.104128
0.29456 0.683421 0.108705
0.34374 0.685588 0.115984
0.396597 0.68687 0.125658
0.450202 0.687419 0.137423
0.503105 0.690806 0.151995
0.558694 0.708064 0.177646
0.601984 0.735821 0.205615
0.639353 0.755276 0.224475
0.672557 0.765545 0.236057
0.70164 0.771756 0.243885
0.728756 0.77586 0.250675
0.75314 0.778943 0.256748
0.775692 0.781552 0.263264
0.795987 0.783368 0.269184
0.812924 0.784665 0.273915
0.827222 0.785489 0.277928
0.839414 0.786068 0.280644
0.849897 0.786328 0.282475
0.859953 0.786358 0.283085
0.869978 0.785412 0.282567
0.879408 0.783658 0.280507
0.888136 0.78024 0.277043
0.896819 0.776303 0.274327
0.184039 0.635691 0.242008
0.183902 0.641703 0.219165
0.18526 0.648707 0.19791
0.187945 0.655009 0.176654
0.191714 0.660029 0.155642
0.195544 0.6645 0.137896
0.200519 0.670649 0.125048
0.209888 0.678462 0.116091
0.226505 0.687465 0.11107
0.252705 0.695827 0.11017
0.289204 0.701701 0.113344
0.334691 0.705165 0.119768
0.386969 0.706355 0.128969
0.441291 0.707332 0.140459
0.493462 0.708644 0.153368
0.547829 0.717708 0.172992
0.595773 0.740246 0.20058
0.633326 0.76524 0.225055
0.666636 0.780316 0.240436
0.696559 0.788998 0.250706
0.72314 0.794446 0.258061
0.747036 0.798703 0.264607
0.769421 0.802075 0.270832
0.790768 0.804211 0.277089
0.810117 0.805447 0.282933
0.826841 0.806348 0.288304
0.841199 0.806668 0.292454
0.853391 0.807065 0.295872
0.865354 0.807691 0.298802
0.876509 0.807782 0.300252
0.887327 0.806973 0.299657
0.897231 0.804456 0.296742
0.906096 0.800076 0.293034
0.193957 0.645457 0.255543
0.194324 0.652003 0.233387
0.195941 0.659724 0.21239
0.199237 0.667231 0.192447
0.2038 0.673198 0.172534
0.20824 0.678492 0.154757
0.213077 0.684245 0.14049
0.220661 0.691615 0.129671
0.233478 0.700389 0.122347
0.254505 0.709575 0.118837
0.285832 0.717235 0.119783
0.327352 0.722271 0.125032
0.377218 0.72459 0.133715
0.430945 0.72575 0.145098
0.483833 0.726772 0.157443
0.535607 0.730755 0.172732
0.586831 0.745571 0.196048
0.627817 0.769955 0.222751
0.660822 0.790494 0.243229
0.691432 0.802853 0.256596
0.718563 0.810437 0.265888
0.742077 0.815198 0.272908
0.763958 0.819226 0.278935
0.784817 0.822141 0.285145
0.805158 0.82417 0.291554
0.823392 0.825467 0.297475
0.840253 0.826398 0.303151
0.854429 0.827039 0.307774
0.868086 0.827832 0.312551
0.881071 0.828717 0.316075
0.893248 0.828672 0.31783
0.904631 0.827359 0.316503
0.915129 0.82356 0.312825
0.203082 0.65449 0.268803
0.203967 0.661387 0.248066
0.206012 0.669764 0.228077
0.209613 0.677699 0.208591
0.214389 0.684352 0.189654
0.22002 0.690471 0.172503
0.225055 0.696284 0.158099
0.231678 0.703151 0.146136
0.241566 0.711406 0.136767
0.258259 0.720821 0.130602
0.284947 0.730053 0.12929
0.320851 0.736629 0.132509
0.36701 0.74023 0.140032
0.419684 0.742061 0.150759
0.473228 0.743755 0.163287
0.523384 0.745403 0.175906
0.573892 0.753323 0.194003
0.619715 0.771969 0.218936
0.655406 0.795697 0.243641
0.686137 0.813016 0.261524
0.714168 0.823209 0.273503
0.738033 0.829511 0.281926
0.759625 0.834287 0.288579
0.780148 0.838071 0.294682
0.799786 0.841352 0.300893
0.818616 0.843687 0.307286
0.83653 0.845533 0.313436
0.852461 0.846983 0.318853
0.868025 0.84799 0.324559
0.882811 0.848981 0.329564
0.897398 0.849805 0.333715
0.91075 0.849424 0.335042
0.922637 0.846632 0.332235
0.211322 0.662745 0.281895
0.21323 0.669688 0.263066
0.215885 0.677882 0.244419
0.220142 0.686305 0.226337
0.225559 0.693751 0.208087
0.231098 0.700313 0.191211
0.236683 0.706554 0.176593
0.242756 0.713069 0.164218
0.251728 0.720989 0.153796
0.265568 0.730037 0.146227
0.286931 0.739574 0.141848
0.316655 0.747784 0.142229
0.358068 0.75346 0.14818
0.40763 0.75668 0.157748
0.460777 0.758907 0.169558
0.511681 0.76083 0.181933
0.559838 0.764523 0.195987
0.607172 0.775921 0.215854
0.647654 0.796567 0.24065
0.679759 0.81825 0.263203
0.708141 0.833127 0.279179
0.732845 0.841825 0.289708
0.755077 0.847837 0.297826
0.775494 0.852735 0.304494
0.795026 0.857053 0.310948
0.813535 0.860761 0.317372
0.831464 0.863828 0.323735
0.848402 0.866224 0.329381
0.865492 0.867811 0.335027
0.882521 0.869017 0.341054
0.898939 0.869383 0.346334
0.914412 0.869154 0.349996
0.928069 0.867918 0.349905
0.219074 0.670222 0.294438
0.22237 0.677256 0.277531
0.226169 0.685389 0.26096
0.231006 0.693812 0.244709
0.236637 0.701366 0.227558
0.242451 0.70837 0.210636
0.248371 0.715175 0.196124
0.255009 0.721965 0.183703
0.263539 0.729274 0.172854
0.275517 0.737758 0.164034
0.29305 0.747082 0.158053
0.317403 0.756115 0.155825
0.352087 0.763592 0.158709
0.396796 0.769162 0.166293
0.448066 0.772946 0.177234
0.499397 0.775586 0.189075
0.546624 0.777966 0.20116
0.592279 0.784085 0.216129
0.636011 0.79826 0.237369
0.67219 0.819394 0.261158
0.701396 0.838972 0.281361
0.726879 0.851804 0.295567
0.750042 0.860243 0.305791
0.771252 0.866575 0.313939
0.791089 0.871717 0.320851
0.809293 0.876249 0.327184
0.826719 0.880308 0.333852
0.843534 0.883589 0.339544
0.861418 0.886046 0.345174
0.879881 0.887541 0.351141
0.898375 0.88835 0.356924
0.916136 0.888441 0.362417
0.932006 0.887678 0.365362
0.226825 0.677272 0.307057
0.23151 0.68423 0.291814
0.236622 0.69221 0.277195
0.242161 0.700221 0.262974
0.248295 0.708202 0.247776
0.254231 0.71545 0.231312
0.2607 0.72221 0.216495
0.267872 0.729107 0.203998
0.276585 0.736263 0.19321
0.287526 0.744106 0.184039
0.301915 0.752819 0.176913
0.321386 0.762188 0.172534
0.350103 0.771176 0.172641
0.389136 0.779049 0.177951
0.436027 0.784939 0.186679
0.485725 0.789273 0.197391
0.533867 0.792462 0.20882
0.577432 0.795941 0.220508
0.620035 0.803861 0.236011
0.659968 0.819211 0.256565
0.692866 0.839643 0.278889
0.719356 0.857481 0.297154
0.743252 0.86981 0.310704
0.765545 0.878416 0.32108
0.786221 0.884901 0.329351
0.80528 0.890608 0.336629
0.822797 0.895155 0.343297
0.839155 0.898909 0.349508
0.856992 0.902098 0.3552
0.876173 0.904906 0.360983
0.896208 0.906584 0.367025
0.916442 0.907042 0.372976
0.93434 0.906737 0.378027
0.235096 0.683909 0.320836
0.241108 0.690654 0.306661
0.247318 0.698665 0.292821
0.253452 0.706676 0.280385
0.260166 0.714351 0.26743
0.266743 0.721477 0.252918
0.273548 0.728099 0.238697
0.28101 0.734661 0.225864
0.289677 0.741634 0.214862
0.299977 0.749096 0.205203
0.31284 0.757626 0.197681
0.329168 0.766873 0.19202
0.352453 0.777005 0.189944
0.384497 0.786435 0.192157
0.426001 0.794629 0.198337
0.472938 0.801022 0.207492
0.520653 0.805798 0.217807
0.563821 0.809369 0.227817
0.603464 0.813504 0.238499
0.643992 0.822934 0.254124
0.680552 0.838575 0.273594
0.71014 0.857603 0.29366
0.734997 0.87451 0.311208
0.758877 0.887282 0.325567
0.780392 0.895979 0.335912
0.800031 0.902495 0.344228
0.818173 0.907713 0.351705
0.834943 0.912169 0.358511
0.852628 0.916289 0.364828
0.87158 0.920043 0.370489
0.892531 0.923217 0.376593
0.914626 0.925368 0.38265
0.935103 0.926101 0.388602
0.244114 0.690425 0.336187
0.251102 0.69691 0.322866
0.257984 0.704616 0.308766
0.265049 0.712474 0.297246
0.272541 0.720012 0.286473
0.280034 0.726879 0.274922
0.287175 0.733166 0.26247
0.294774 0.73933 0.250263
0.303197 0.745922 0.239216
0.313375 0.753277 0.229328
0.325322 0.76141 0.220691
0.339223 0.770474 0.213519
0.358206 0.780865 0.209766
0.384283 0.791592 0.209216
0.419242 0.80174 0.212619
0.461723 0.810132 0.219303
0.50721 0.816602 0.227955
0.549813 0.821393 0.236652
0.588464 0.824674 0.244831
0.626001 0.829984 0.255222
0.6636 0.839841 0.269703
0.696376 0.854795 0.287449
0.724514 0.872984 0.307179
0.749157 0.889998 0.324956
0.772107 0.902953 0.339162
0.793286 0.912077 0.350103
0.812818 0.918883 0.35906
0.830091 0.924285 0.366629
0.847974 0.929213 0.373632
0.866926 0.934188 0.380301
0.888395 0.93901 0.387045
0.911284 0.943175 0.393179
