creative/lut-kodak-5219-warm.cube
TITLE "Generated by Resolve"
LUT_3D_SIZE 9
0 0 0.00784314
0.00585946 0.0119783 0.00827039
0.22118 0.00317388 0.000747692
0.413016 0.00260929 0.00129702
0.495979 0.0269017 0.0018616
0.467826 0.118318 0.00149538
0.493446 0.207172 0.00300603
0.581735 0.256992 0
0.619608 0.294118 0
0.0406806 0.0394598 0.0563058
0.0901961 0.0814984 0.0830854
0.360861 0.0623484 0.0552529
0.518944 0.0667735 0.052491
0.595819 0.116594 0.0233005
0.601251 0.225696 0.000503548
0.643244 0.303838 0.000396735
0.705119 0.350011 0.00328069
0.73959 0.381369 0
0.0281529 0.191897 0.211109
0.13167 0.232136 0.219409
0.358877 0.246067 0.0983597
0.543008 0.232639 0.0684367
0.620554 0.294713 0.0486915
0.669062 0.367544 0.0171664
0.738323 0.409552 0.0110323
0.790555 0.454795 0.0212406
0.80795 0.487968 0.0289311
0.00247196 0.382315 0.354299
0.060029 0.431617 0.407141
0.369085 0.411582 0.198367
0.515465 0.432181 0.143984
0.633173 0.451759 0.13695
0.720256 0.484825 0.0995651
0.796719 0.518593 0.0721904
0.84506 0.563638 0.0898451
0.852628 0.576989 0.112016
0.0247044 0.515084 0.466926
0.0629282 0.560678 0.51371
0.326101 0.558465 0.391531
0.553826 0.551751 0.31368
0.648554 0.573388 0.329
0.757839 0.588525 0.272496
0.847272 0.614633 0.188083
0.888075 0.653208 0.197894
0.893568 0.663462 0.211933
0.0909895 0.608469 0.576715
0.15198 0.649302 0.608286
0.310155 0.667018 0.575265
0.568048 0.662028 0.446845
0.679881 0.667201 0.453162
0.774685 0.68072 0.441016
0.870192 0.703716 0.342199
0.914611 0.733654 0.350042
0.921874 0.740688 0.359808
0.187457 0.690288 0.656764
0.283177 0.720745 0.67013
0.400366 0.740475 0.681361
0.599207 0.748257 0.565881
0.714672 0.759533 0.53164
0.817212 0.772442 0.502083
0.906203 0.783246 0.450309
0.934432 0.814633 0.486854
0.938231 0.817655 0.492149
0.255039 0.768261 0.726879
0.364004 0.797742 0.735317
0.47631 0.819608 0.754864
0.601099 0.829343 0.720851
0.769406 0.833204 0.583688
0.892668 0.84097 0.455238
0.940505 0.858137 0.486336
0.957641 0.882338 0.603235
0.957427 0.882399 0.603967
0.383825 0.833555 0.80943
0.456916 0.858701 0.79263
0.540047 0.88394 0.817243
0.643061 0.897017 0.835203
0.823178 0.888747 0.705531
0.949035 0.899611 0.493568
0.976501 0.915404 0.58909
0.969024 0.941772 0.730404
0.968933 0.941634 0.730175
0.00202945 0.00291447 0.00975052
0.0149538 0.0199283 0.0337682
0.247395 0.012314 0.00424201
0.434699 0.0108034 0.00502022
0.519051 0.0320592 0
0.491966 0.138781 0
0.526925 0.219028 0.000854505
0.610162 0.271275 0.002533
0.653101 0.302861 0.00392157
0.0450599 0.0530251 0.0801556
0.0990158 0.10425 0.115404
0.377401 0.0739605 0.0602426
0.537148 0.0801862 0.0543984
0.606149 0.134508 0.0346838
0.617212 0.245563 0.00534066
0.66186 0.317418 0.00170901
0.726299 0.366842 0.000823987
0.755261 0.38912 0.00955215
0.0380102 0.21207 0.261769
0.128664 0.257313 0.268223
0.369787 0.264698 0.107118
0.559625 0.257206 0.0840162
0.628611 0.313298 0.0613107
0.679637 0.383444 0.0328527
0.745892 0.429648 0.021561
0.800793 0.473625 0.0415656
0.813474 0.500999 0.0553445
0.00332647 0.405875 0.387198
0.0678874 0.446647 0.431083
0.379034 0.429145 0.237537
0.531121 0.451575 0.177722
0.645441 0.469215 0.177615
0.73164 0.500237 0.124437
0.805356 0.534707 0.0923171
0.851789 0.574655 0.115145
0.866285 0.589975 0.134234
0.0313268 0.533684 0.494591
0.0725872 0.578286 0.538491
0.337438 0.577432 0.428901
0.560098 0.565835 0.351125
0.657816 0.587747 0.354726
0.76527 0.603387 0.312474
0.852491 0.628519 0.216175
0.892302 0.663584 0.234684
0.907881 0.672663 0.257191
0.111238 0.623194 0.591424
0.169421 0.662593 0.622293
0.321874 0.684092 0.605432
0.575677 0.673869 0.476799
0.686122 0.682475 0.482429
0.784146 0.693355 0.464851
0.87332 0.715206 0.387457
0.917845 0.749294 0.396948
0.921859 0.753185 0.404074
0.205112 0.702541 0.675502
0.297215 0.735378 0.685863
0.420157 0.753658 0.691096
0.604105 0.763851 0.589364
0.726452 0.768078 0.55938
0.818463 0.784512 0.539193
0.900969 0.79855 0.492897
0.938109 0.825391 0.537102
0.937881 0.827176 0.542855
0.279911 0.780987 0.75996
0.382315 0.808499 0.75877
0.490471 0.831052 0.764706
0.614847 0.840955 0.738262
0.776181 0.843076 0.615473
0.894148 0.85388 0.509392
0.946059 0.865675 0.530373
0.964569 0.889097 0.641443
0.964706 0.888869 0.641535
0.399664 0.837583 0.8177
0.478828 0.8701 0.823346
0.55404 0.893919 0.828626
0.652689 0.906813 0.837812
0.826001 0.901946 0.714565
0.951125 0.914092 0.540612
0.968612 0.929702 0.626902
0.973068 0.942931 0.746838
0.972992 0.942794 0.746639
0.00561532 0.00222782 0.0475776
0.0113832 0.0347753 0.112734
0.145678 0.0429084 0.0644999
0.40647 0.0303807 0.0369726
0.49778 0.0624094 0.0264897
0.528756 0.144671 0.00541695
0.581155 0.219287 0.002533
0.654032 0.267933 0.00914015
0.685573 0.308202 0.038117
0.0296025 0.0745403 0.179339
0.0697642 0.131762 0.230213
0.272831 0.138079 0.161105
0.513405 0.119295 0.113588
0.581903 0.177218 0.103731
0.623377 0.264347 0.0454414
0.68481 0.324926 0.0345922
0.727413 0.374319 0.0869764
0.749813 0.408789 0.102205
0.0269017 0.238117 0.348943
0.0824292 0.295064 0.399054
0.322774 0.293095 0.285878
0.55787 0.276005 0.158816
0.630198 0.340993 0.122988
0.683909 0.399115 0.0941787
0.750347 0.442847 0.0877241
0.797208 0.487053 0.138308
0.816602 0.511772 0.158038
0.0140383 0.417365 0.473976
0.0477455 0.473106 0.514565
0.346792 0.448157 0.417014
0.525154 0.466087 0.297551
0.638239 0.484306 0.275776
0.733745 0.515663 0.216114
0.807599 0.54818 0.178439
0.854475 0.58497 0.212314
0.869917 0.601312 0.231159
0.0456092 0.536431 0.572854
0.0909133 0.588113 0.599161
0.334051 0.583413 0.540352
0.545098 0.587167 0.445914
0.662654 0.599573 0.421836
0.759319 0.617319 0.393912
0.844556 0.640497 0.322148
0.890059 0.673533 0.345022
0.898054 0.686488 0.357427
0.129793 0.626261 0.653284
0.193088 0.670695 0.663951
0.337179 0.691844 0.653498
0.542794 0.691691 0.57319
0.685176 0.694759 0.54229
0.78436 0.709651 0.529335
0.856168 0.731029 0.50721
0.897734 0.76492 0.52192
0.903288 0.772488 0.526772
0.222721 0.707225 0.721279
0.318013 0.744381 0.719448
0.424964 0.770413 0.711391
0.561608 0.784405 0.679286
0.712459 0.785962 0.615061
0.814572 0.793027 0.610697
0.883986 0.815137 0.610559
0.91725 0.842512 0.632273
0.918654 0.846113 0.633768
0.295338 0.784878 0.781872
0.397177 0.82089 0.777569
0.500999 0.842908 0.771786
0.613092 0.857404 0.764675
0.766461 0.855711 0.670802
0.859586 0.866087 0.655558
0.917098 0.884245 0.669062
0.95137 0.898695 0.709239
0.951461 0.898451 0.708766
0.42565 0.849287 0.832944
0.486015 0.883131 0.837522
0.559853 0.907835 0.838285
0.656077 0.92253 0.843412
0.810269 0.919875 0.765774
0.917067 0.922698 0.68658
0.952224 0.939513 0.729305
0.969406 0.960922 0.785275
0.969238 0.960739 0.784756
0 0.00958267 0.106844
0.00267033 0.0446632 0.235981
0.082475 0.0832532 0.168826
0.299001 0.0801556 0.160281
0.434546 0.101274 0.170657
0.510323 0.162417 0.124422
0.589593 0.231098 0.0526741
0.635569 0.292073 0.0979171
0.663417 0.334279 0.14078
0.0162509 0.0929885 0.307408
0.0599832 0.151278 0.358633
0.192248 0.193133 0.289433
0.40444 0.18999 0.277928
0.527764 0.21471 0.279271
0.598474 0.28896 0.213062
0.665476 0.349157 0.143877
0.709361 0.40209 0.216876
0.7299 0.433356 0.25977
0.0315251 0.250706 0.44271
0.0790112 0.3093 0.495155
0.27187 0.322332 0.454139
0.463279 0.337987 0.392432
0.601617 0.358465 0.328618
0.66981 0.416464 0.245411
0.743694 0.458854 0.23061
0.77966 0.507362 0.303487
0.790372 0.527291 0.331685
0.0403754 0.414267 0.536202
0.0717174 0.475914 0.588098
0.298939 0.467689 0.567285
0.502861 0.477424 0.469169
0.639521 0.493782 0.393606
0.723384 0.529427 0.345037
0.794797 0.56289 0.328328
0.837797 0.600214 0.373861
0.851087 0.61474 0.389731
0.0875868 0.533013 0.629191
0.141176 0.580697 0.672892
0.316579 0.599176 0.631235
0.522057 0.599786 0.563729
0.659754 0.612192 0.504829
0.755047 0.632029 0.47921
0.835233 0.656626 0.447929
0.870832 0.689738 0.471748
0.88188 0.701671 0.487999
0.186709 0.619104 0.706661
0.247196 0.661875 0.724529
0.386694 0.690745 0.695277
0.528832 0.706432 0.655665
0.67689 0.712627 0.599283
0.779339 0.722652 0.577356
0.84625 0.745052 0.581155
0.892699 0.774487 0.609033
0.898436 0.779324 0.612543
0.268956 0.706279 0.765301
0.339895 0.749157 0.770657
0.449058 0.777493 0.747509
0.550851 0.797192 0.741146
0.699794 0.80174 0.676631
0.808606 0.808118 0.662562
0.874174 0.825513 0.676493
0.919722 0.851362 0.696056
0.925277 0.853437 0.698711
0.326574 0.794079 0.814008
0.414694 0.826337 0.813016
0.515175 0.853971 0.784726
0.613458 0.867582 0.793622
0.754986 0.870985 0.729259
0.852872 0.87808 0.713558
0.9084 0.894896 0.741619
0.942092 0.914916 0.761685
0.942031 0.914534 0.761181
0.451957 0.851102 0.865385
0.512261 0.887556 0.862669
0.576181 0.91519 0.854414
0.664576 0.933288 0.854688
0.799054 0.932387 0.795163
0.898192 0.93669 0.762112
0.938994 0.95317 0.792905
0.968841 0.963561 0.824552
0.968795 0.963226 0.824201
0.00292973 0.0152438 0.234714
0.0102388 0.0458076 0.362875
0.0855879 0.0811627 0.368048
0.289006 0.0706645 0.378332
0.431495 0.103319 0.371191
0.499641 0.172686 0.326543
0.561791 0.246067 0.265141
0.626078 0.315251 0.239353
0.651896 0.352941 0.260166
0.0241398 0.105455 0.399741
0.0688334 0.156435 0.458854
0.194537 0.195056 0.46009
0.399374 0.190204 0.468406
0.517113 0.223468 0.457984
0.580957 0.291096 0.419867
0.649577 0.3617 0.360067
0.696254 0.422919 0.34934
0.716411 0.45243 0.359365
0.0319677 0.261646 0.550195
0.0831311 0.321401 0.581125
0.26334 0.340841 0.550393
0.429664 0.362203 0.521584
0.555993 0.387411 0.508385
0.650217 0.42385 0.470512
0.713802 0.477653 0.426093
0.76083 0.523095 0.437446
0.778347 0.544686 0.459174
0.0534676 0.417746 0.602838
0.0989395 0.47042 0.658869
0.309163 0.475853 0.624094
0.468376 0.494865 0.599557
0.609308 0.511955 0.55288
0.713039 0.53843 0.503426
0.775769 0.578866 0.487587
0.820081 0.614252 0.509041
0.829969 0.629969 0.52076
0.116182 0.535744 0.678462
0.170428 0.583505 0.723934
0.3234 0.603159 0.703304
0.514061 0.609857 0.668742
0.653025 0.620188 0.604013
0.759152 0.637446 0.560449
0.817243 0.667826 0.551873
0.864713 0.70309 0.579797
0.869535 0.713008 0.593713
0.231662 0.623728 0.740459
0.295277 0.661692 0.771847
0.39237 0.695689 0.754757
0.534524 0.711879 0.722347
0.671321 0.721752 0.678477
0.78146 0.735302 0.637568
0.846296 0.757565 0.643565
0.889952 0.784665 0.665614
0.896086 0.791241 0.671046
0.325017 0.705669 0.802686
0.372702 0.745769 0.818265
0.463218 0.78352 0.789883
0.572076 0.799863 0.777218
0.689357 0.813977 0.742626
0.808026 0.82118 0.711223
0.873457 0.835325 0.718532
0.915663 0.860838 0.741695
0.917174 0.861631 0.740108
0.371221 0.792004 0.855161
0.431083 0.831464 0.848981
0.531701 0.856107 0.824735
0.634882 0.871595 0.830488
0.737209 0.883986 0.792065
0.847364 0.891081 0.765408
0.899657 0.906966 0.785275
0.945724 0.9308 0.814435
0.94551 0.930648 0.81416
0.487327 0.854307 0.890837
0.542611 0.886915 0.895171
0.591562 0.91603 0.884993
0.685145 0.93196 0.872633
0.793072 0.942672 0.831952
0.888624 0.943969 0.81471
0.937804 0.960983 0.840818
0.972702 0.97583 0.863737
0.972671 0.975753 0.863111
0.00395209 0.0163577 0.390906
0.024155 0.0456855 0.454582
0.121538 0.0706951 0.4813
0.301427 0.0725109 0.534874
0.426261 0.0957961 0.548745
0.502983 0.163531 0.512032
0.565927 0.239994 0.45185
0.624033 0.317754 0.407828
0.651209 0.364248 0.411292
0.0280461 0.114519 0.483619
0.0946975 0.161273 0.536126
0.238712 0.188113 0.558968
0.393393 0.193164 0.608255
0.520912 0.217441 0.62092
0.595193 0.287373 0.587594
0.648707 0.3608 0.535256
0.700084 0.424063 0.496925
0.713649 0.456809 0.494224
0.0359503 0.279179 0.615946
0.0847181 0.344274 0.634516
0.290745 0.345159 0.618692
0.426398 0.368444 0.634058
0.562295 0.382818 0.650233
0.643671 0.430747 0.599145
0.707729 0.478965 0.583108
0.757412 0.529274 0.564126
0.775479 0.549767 0.574823
0.0629282 0.426993 0.670466
0.116167 0.480369 0.722118
0.330282 0.488151 0.672908
0.46804 0.507362 0.669505
0.589258 0.533745 0.644785
0.689982 0.553109 0.630488
0.766262 0.584329 0.619501
0.811933 0.626413 0.614481
0.821164 0.638209 0.620371
0.129122 0.546181 0.719646
0.187549 0.593561 0.767163
0.347753 0.608621 0.750301
0.519219 0.617304 0.721279
0.63769 0.636362 0.693034
0.74139 0.649622 0.669505
0.806439 0.679026 0.657954
0.853849 0.713649 0.669123
0.860548 0.724743 0.680171
0.257618 0.629343 0.770413
0.314748 0.670573 0.803983
0.410437 0.706294 0.803418
0.53785 0.723308 0.783688
0.670008 0.727672 0.747799
0.776532 0.741711 0.713146
0.842466 0.765988 0.704448
0.889006 0.794659 0.732555
0.894606 0.800641 0.735744
0.355932 0.713664 0.824445
0.405371 0.750195 0.851591
0.481056 0.782406 0.843534
0.583261 0.804028 0.823377
0.698512 0.816342 0.802426
0.808804 0.827649 0.76788
0.872236 0.845838 0.773571
0.916533 0.870207 0.804913
0.917082 0.871778 0.808392
0.424689 0.79144 0.886992
0.466087 0.829267 0.896803
0.552605 0.856794 0.877409
0.644114 0.877226 0.864378
0.741451 0.885924 0.862013
0.845365 0.89752 0.822782
0.903578 0.914031 0.833204
0.945006 0.92343 0.858732
0.945037 0.922988 0.858381
0.539712 0.847898 0.928985
0.570718 0.887633 0.928908
0.615473 0.91754 0.920394
0.696239 0.935439 0.898344
0.811597 0.939132 0.88365
0.884367 0.950698 0.866697
0.937179 0.964904 0.885206
0.966049 0.977783 0.904356
0.965835 0.977584 0.904082
0.0131685 0.0274357 0.432288
0.0204623 0.0635233 0.487556
0.154269 0.0781262 0.514595
0.324315 0.0802319 0.580316
0.427039 0.108797 0.638727
0.50956 0.166186 0.643763
0.572473 0.232609 0.589349
0.627253 0.321767 0.552773
0.651438 0.367712 0.559655
0.0269169 0.135927 0.527214
0.0859083 0.183444 0.586923
0.27451 0.194903 0.601007
0.424994 0.193851 0.657633
0.524575 0.225803 0.710826
0.591394 0.284291 0.704662
0.656184 0.357824 0.646494
0.689235 0.428656 0.625254
0.711162 0.463951 0.624186
0.0208133 0.312856 0.650767
0.0852827 0.364263 0.670146
0.306264 0.353994 0.659159
0.458167 0.36878 0.701106
0.58912 0.36582 0.74168
0.666697 0.414969 0.727275
0.709239 0.481346 0.686259
0.762341 0.531655 0.672221
0.76669 0.553475 0.681117
0.071397 0.444221 0.719951
0.126314 0.497154 0.749081
0.349096 0.502541 0.713222
0.487831 0.510124 0.742123
0.600092 0.530144 0.744656
0.696635 0.553155 0.730999
0.758877 0.589578 0.714076
0.814771 0.6271 0.719005
0.83154 0.639536 0.730999
0.155688 0.556298 0.757366
0.212604 0.599573 0.795987
0.376181 0.614633 0.782025
0.534401 0.625925 0.76762
0.634745 0.646708 0.761532
0.729686 0.666087 0.740902
0.80354 0.685969 0.753613
0.854917 0.714778 0.764721
0.870359 0.727016 0.76318
0.274556 0.642603 0.803983
0.331014 0.68011 0.833967
0.425803 0.712886 0.836088
0.556985 0.724849 0.819242
0.679515 0.737087 0.80264
0.765621 0.754803 0.78024
0.841825 0.774151 0.784878
0.884825 0.805234 0.80679
0.888747 0.809018 0.810849
0.372396 0.722362 0.852903
0.428885 0.75758 0.87364
0.501411 0.791684 0.877607
0.59617 0.811948 0.867475
0.701122 0.81886 0.859403
0.80647 0.836759 0.824079
0.873716 0.852323 0.833707
0.915206 0.880705 0.860471
0.918105 0.883665 0.862486
0.450263 0.797131 0.90428
0.503365 0.828107 0.924987
0.576883 0.859495 0.917876
0.651453 0.88159 0.906752
0.753109 0.889906 0.90341
0.855787 0.901549 0.868376
0.907408 0.913314 0.879774
0.944503 0.94229 0.904387
0.944366 0.942153 0.903914
0.57377 0.850492 0.935714
0.610636 0.885405 0.952346
0.641932 0.924254 0.942519
0.727367 0.937881 0.930953
0.828779 0.943008 0.925643
0.900954 0.950484 0.913512
0.947768 0.968139 0.921813
0.969497 0.974044 0.941558
0.96939 0.973877 0.941283
0.00164797 0.0445563 0.434714
0.0247959 0.0885786 0.514168
0.179385 0.0946975 0.536034
0.345098 0.0990463 0.592523
0.453971 0.120104 0.661875
0.516869 0.178729 0.667552
0.591989 0.247593 0.639887
0.633768 0.329412 0.622065
0.654902 0.381979 0.631067
0.0301366 0.167666 0.547036
0.097734 0.216968 0.601648
0.291676 0.215503 0.618814
0.441627 0.220127 0.672114
0.549065 0.240604 0.726452
0.607721 0.29865 0.732403
0.667033 0.365286 0.705882
0.699413 0.437568 0.68629
0.720272 0.464775 0.684398
0.0383307 0.329183 0.667292
0.104829 0.381018 0.690364
0.341695 0.362661 0.714778
0.474281 0.37615 0.735775
0.597971 0.386221 0.772732
0.677668 0.421469 0.782116
0.732616 0.474678 0.764446
0.765499 0.539925 0.750896
0.77882 0.564095 0.7458
0.090013 0.460426 0.728756
0.157336 0.508309 0.755093
0.370581 0.511238 0.747143
0.510903 0.515343 0.789334
0.621469 0.523735 0.82092
0.727443 0.534005 0.834943
0.777646 0.588815 0.79852
0.815137 0.637613 0.783764
0.826093 0.652613 0.789059
0.175509 0.56846 0.780713
0.247776 0.608759 0.806317
0.411292 0.624521 0.800122
0.55021 0.631373 0.807141
0.641718 0.651041 0.81709
0.742916 0.665827 0.810513
0.807706 0.690837 0.810727
0.855299 0.72192 0.82443
0.865324 0.730297 0.828351
0.281041 0.655741 0.823178
0.35169 0.691539 0.855421
0.454719 0.718303 0.855299
0.577264 0.731899 0.863569
0.690578 0.742535 0.848173
0.770489 0.762982 0.828183
0.837369 0.784146 0.839017
0.885756 0.812055 0.853727
0.890333 0.815702 0.857633
0.3832 0.730388 0.870344
0.445319 0.766384 0.899168
0.520989 0.795926 0.899825
0.610513 0.819028 0.89752
0.717418 0.82678 0.895888
0.813703 0.845029 0.860883
0.872129 0.867124 0.868833
0.913329 0.884459 0.886931
0.913664 0.886229 0.888167
0.49279 0.79855 0.917708
0.5393 0.833402 0.932708
0.595682 0.865751 0.932555
0.671077 0.886397 0.930526
0.773648 0.892897 0.929717
0.85539 0.909072 0.907134
0.912123 0.924651 0.913924
0.94548 0.942565 0.930968
0.945373 0.942412 0.930892
0.608423 0.852766 0.948608
0.63975 0.888228 0.957092
0.670497 0.920501 0.957702
0.746105 0.934646 0.956054
0.833173 0.943816 0.948348
0.909224 0.957259 0.944549
0.953277 0.972519 0.955169
0.97821 0.985763 0.962448
0.978164 0.985718 0.962386
0.00918593 0.0547341 0.478065
0.0443122 0.0975052 0.526406
0.19173 0.120012 0.547906
0.339452 0.132662 0.598672
0.466697 0.150088 0.663691
0.533913 0.20647 0.67303
0.595315 0.275319 0.655818
0.640436 0.349081 0.665751
0.657008 0.392157 0.671687
0.0536355 0.176501 0.573251
0.138003 0.219181 0.617792
0.309224 0.231983 0.639185
0.439704 0.256413 0.68249
0.549661 0.273762 0.73431
0.616373 0.326909 0.740276
0.675151 0.388678 0.728756
0.709972 0.451423 0.734447
0.726589 0.482139 0.745418
0.0698558 0.341314 0.658808
0.146792 0.390967 0.690272
0.372976 0.365057 0.743465
0.497612 0.386282 0.781247
0.601556 0.412177 0.802014
0.685679 0.442466 0.808469
0.741726 0.486381 0.80975
0.772473 0.548577 0.796139
0.778973 0.578363 0.791318
0.115694 0.479576 0.718944
0.202823 0.52311 0.750149
0.390433 0.522225 0.764675
0.518471 0.530343 0.810147
0.630182 0.540917 0.842603
0.736187 0.544961 0.874022
0.786557 0.592538 0.849378
0.824491 0.646342 0.820447
0.831083 0.661585 0.817853
0.203906 0.584558 0.781399
0.288136 0.618341 0.8038
0.43238 0.633036 0.815244
0.564462 0.642802 0.830137
0.653971 0.660899 0.841062
0.753201 0.669474 0.842023
0.82327 0.695766 0.85095
0.863081 0.734142 0.856626
0.873365 0.742077 0.863783
0.323262 0.662516 0.834272
0.386755 0.698405 0.860105
0.481437 0.724773 0.868467
0.59733 0.738735 0.88069
0.702235 0.749554 0.875013
0.784527 0.769543 0.860426
0.851591 0.791211 0.87097
0.889097 0.820096 0.886213
0.895201 0.824323 0.88983
0.424781 0.737652 0.887556
0.479316 0.774853 0.903639
0.545083 0.803937 0.916152
0.633188 0.822232 0.91928
0.739452 0.831571 0.915724
0.821103 0.853956 0.889097
0.871214 0.87509 0.897765
0.909926 0.900343 0.919402
0.911864 0.902052 0.921904
0.53753 0.80264 0.918395
0.579995 0.837201 0.939178
0.628214 0.867689 0.945022
0.701518 0.886458 0.949538
0.790997 0.89868 0.94641
0.870802 0.912902 0.927565
0.913207 0.93373 0.937453
0.950607 0.951995 0.948318
0.950515 0.951888 0.948348
0.636072 0.859846 0.942367
0.671901 0.889967 0.956374
0.712337 0.918929 0.963623
0.775097 0.937636 0.967742
0.851896 0.950317 0.968719
0.915434 0.959274 0.962661
0.956832 0.976394 0.972793
0.986313 0.995087 0.983063
0.986221 0.995041 0.983001
