creative/lut-summer-dream.cube
TITLE "Generated by Resolve"
LUT_3D_SIZE 5
0.00273136 0 0.00273136
0.252903 0 0.00273136
0.606928 0.00546273 0.00273136
0.884428 0.00819409 0.00546273
0.978821 0.163989 0.00819409
0.00546273 0.239231 0.0601358
0.209171 0.255634 0.0245975
0.617868 0.222843 0
0.900832 0.24744 0
0.995224 0.33489 0
0.0109255 0.524941 0.13666
0.0752422 0.530404 0.109331
0.560464 0.555001 0.0382696
0.889906 0.563195 0.00273136
0.992477 0.576867 0
0.0191348 0.783307 0.256916
0.0807202 0.788769 0.221378
0.494881 0.788769 0.221378
0.835233 0.802441 0.169451
0.995224 0.810636 0.131197
0.426368 0.96788 0.461906
0.504356 0.96788 0.453696
0.647929 0.96788 0.442771
0.82977 0.970626 0.448234
0.992477 0.981552 0.437308
0.0191348 0.0164034 0.217365
0.239231 0.041001 0.211902
0.585061 0.00546273 0.200977
0.876234 0.0819867 0.190036
0.981552 0.215915 0.146304
0.0191348 0.24744 0.228305
0.258366 0.258366 0.241962
0.601465 0.261097 0.225574
0.889906 0.282963 0.198245
0.995224 0.362219 0.146304
0.0218662 0.524941 0.277501
0.241962 0.530404 0.280232
0.579599 0.55227 0.250172
0.881697 0.557733 0.222843
0.995224 0.585061 0.181842
0.0245975 0.783307 0.373159
0.291157 0.783307 0.384085
0.519478 0.786038 0.356756
0.835233 0.796979 0.337621
0.995224 0.810636 0.310292
0.412711 0.96788 0.545342
0.534417 0.96788 0.553552
0.656123 0.970626 0.539879
0.827039 0.970626 0.545342
0.989746 0.978821 0.537148
0 0.0792554 0.478477
0.282963 0.0983902 0.475746
0.612406 0.133928 0.464805
0.8981 0.183124 0.462074
0.978821 0.248722 0.440208
0.00273136 0.288426 0.481209
0.299367 0.282963 0.489403
0.606928 0.31577 0.481209
0.878965 0.329427 0.462074
0.978821 0.381353 0.442939
0 0.533135 0.494881
0.280232 0.533135 0.503075
0.604196 0.549538 0.516732
0.86804 0.555001 0.492134
0.973358 0.593271 0.470268
0.0519265 0.783307 0.55227
0.307561 0.783307 0.557733
0.606928 0.783307 0.576867
0.837964 0.79971 0.557733
0.978821 0.810636 0.55227
0.26511 0.973358 0.642466
0.455146 0.970626 0.656123
0.68072 0.965148 0.677989
0.827039 0.970626 0.675258
0.973358 0.978821 0.669795
0.12845 0.153063 0.739574
0.370428 0.169451 0.750515
0.677989 0.226856 0.747784
0.892638 0.297917 0.739574
0.989746 0.434562 0.739574
0.131197 0.31577 0.745052
0.367697 0.329427 0.750515
0.667063 0.367697 0.750515
0.881697 0.436027 0.742306
0.995224 0.531685 0.742306
0.0218662 0.560464 0.745052
0.274769 0.563195 0.739574
0.626062 0.571405 0.758709
0.859831 0.6206 0.753246
1 0.65066 0.750515
0.0245975 0.786038 0.755978
0.293904 0.788769 0.753246
0.590539 0.786038 0.755978
0.837964 0.794247 0.76965
0.995224 0.796979 0.747784
0.125719 0.978821 0.786038
0.326696 0.978821 0.794247
0.590539 0.973358 0.791516
0.835233 0.973358 0.818845
0.992477 0.981552 0.813367
0.404501 0.30338 0.959686
0.545342 0.317037 0.954223
0.74905 0.368978 0.951492
0.917235 0.472831 0.943282
0.992477 0.511101 0.932357
0.388098 0.425086 0.954223
0.531685 0.438758 0.954223
0.738125 0.485222 0.94876
0.909026 0.572671 0.943282
0.992477 0.605478 0.935088
0.30338 0.6206 0.959686
0.477012 0.626062 0.956954
0.697124 0.634256 0.946014
0.892638 0.683467 0.946014
0.995224 0.721721 0.940551
0 0.821576 0.951492
0.24744 0.816114 0.956954
0.560464 0.810636 0.956954
0.846174 0.807904 0.954223
0.992477 0.846174 0.951492
0.0245975 0.981552 0.965148
0.263828 0.981552 0.965148
0.563195 0.984283 0.96788
0.79971 0.981552 0.965148
0.992477 0.987015 0.976089
