creative/lut-sunset-glow.cube
TITLE "Generated by Resolve"
LUT_3D_SIZE 33
0 0 0
0.0332799 0 0
0.0680247 0 0
0.101244 0 0
0.133715 0 0
0.166186 0 0
0.198657 0 0
0.231128 0 0
0.2636 0 0
0.296056 0 0
0.328527 0 0
0.360998 0 0
0.393469 0 0
0.42594 0 0
0.458412 0 0
0.490867 0 0
0.523339 0 0
0.55581 0 0
0.588281 0 0
0.620752 0 0
0.653223 0 0
0.685679 0 0
0.718151 0 0
0.750622 0 0
0.783093 0 0
0.815564 0 0
0.848035 0 0
0.880507 0 0
0.912963 0 0
0.945434 0 0
0.977905 0 0
1 0 0
1 0 0
0.00575265 0.0298009 0
0.0399634 0.0290074 0
0.0741588 0.0282139 0
0.106691 0.0274357 0
0.138369 0.0265049 0
0.170184 0.0254215 0
0.202152 0.024155 0
0.234211 0.0227207 0
0.266361 0.021088 0
0.298558 0.0192874 0
0.330785 0.0172885 0
0.363073 0.0150912 0
0.395377 0.0127108 0
0.427695 0.0101167 0
0.460044 0.00732433 0
0.492409 0.00433356 0
0.524834 0.00105287 0
0.557153 0 0
0.589593 0 0
0.621958 0 0
0.654353 0 0
0.686763 0 0
0.719188 0 0
0.751614 0 0
0.784039 0 0
0.816495 0 0
0.848875 0 0
0.881315 0 0
0.913802 0 0
0.946197 0 0
0.978653 0 0
1 0 0
1 0 0
0.0115206 0.0596017 0
0.0457465 0.0588083 0
0.0799573 0.0580148 0
0.111574 0.0572213 0
0.142519 0.0562905 0
0.173877 0.0551919 0
0.205493 0.0538949 0
0.237217 0.0524453 0
0.269032 0.0508431 0
0.300984 0.049012 0
0.333013 0.0470283 0
0.365133 0.0448005 0
0.397253 0.0424353 0
0.42945 0.0398413 0
0.461677 0.0370336 0
0.493935 0.0340429 0
0.526207 0.0308385 0
0.558526 0.0273747 0
0.590829 0.0237583 0
0.623148 0.0199435 0
0.655528 0.0158083 0
0.687831 0.0116274 0
0.720211 0.00709544 0
0.752605 0.00231937 0
0.784955 0 0
0.817349 0 0
0.84976 0 0
0.88217 0 0
0.91458 0 0
0.94699 0 0
0.97937 0 0
1 0 0
1 0 0
0.0173342 0.0896925 0
0.0515602 0.0889296 0
0.0859541 0.0881666 0
0.11635 0.0874037 0
0.146593 0.0865034 0
0.177386 0.08542 0
0.20856 0.0841688 0
0.24004 0.0827192 0
0.271687 0.0808423 0
0.303426 0.0790112 0
0.335225 0.0770123 0
0.367147 0.0747997 0
0.39913 0.0724193 0
0.431189 0.06981 0
0.46331 0.0670024 0
0.495445 0.0640116 0
0.527611 0.0608377 0
0.559808 0.057435 0
0.592096 0.0537423 0
0.624353 0.049897 0
0.656626 0.0458381 0
0.688914 0.0415808 0
0.721309 0.0369116 0
0.753597 0.0322576 0
0.785916 0.0273289 0
0.818265 0.0221561 0
0.850614 0.0167544 0
0.882963 0.0111238 0
0.915358 0.00520333 0
0.947738 0 0
0.980102 0 0
1 0 0
1 0 0
0.0242008 0.120287 0
0.0584421 0.119646 0
0.0925002 0.11902 0
0.121798 0.118379 0
0.151278 0.117632 0
0.18146 0.116732 0
0.212161 0.115694 0
0.243229 0.114504 0
0.274571 0.113161 0
0.306096 0.11165 0
0.337804 0.109941 0
0.369512 0.108095 0
0.401312 0.106065 0
0.433219 0.103822 0
0.465202 0.101366 0
0.497215 0.0987106 0
0.52932 0.0957809 0
0.561425 0.0926528 0
0.593576 0.0892195 0
0.625711 0.0856031 0
0.657984 0.0814984 0
0.690181 0.0770275 0
0.722469 0.0724498 0
0.754772 0.0676432 0
0.78703 0.0627604 0
0.819303 0.0576333 0
0.851621 0.0521859 0
0.883986 0.0464485 0
0.916274 0.0406653 0
0.948653 0.0344701 0
0.981018 0.0280919 0
1 0.0216526 0
1 0.0146334 0
0.0323491 0.150881 0
0.0666056 0.150332 0
0.0998856 0.149798 0
0.128084 0.149248 0
0.156649 0.148623 0
0.186191 0.147845 0
0.216342 0.146975 0
0.246937 0.145968 0
0.277943 0.144808 0
0.309178 0.143526 0
0.340597 0.142107 0
0.372198 0.140536 0
0.403922 0.138811 0
0.435615 0.13695 0
0.46743 0.13492 0
0.499321 0.132708 0
0.531273 0.130312 0
0.563317 0.127703 0
0.595315 0.124987 0
0.627405 0.121996 0
0.659556 0.118776 0
0.691691 0.115358 0
0.723918 0.111589 0
0.756115 0.107622 0
0.788342 0.10338 0
0.820554 0.0988937 0
0.852872 0.0938582 0
0.8851 0.0886549 0
0.917388 0.0829328 0
0.94966 0.0766613 0
0.98204 0.0701457 0
1 0.0635843 0
1 0.0566567 0
0.0418097 0.18146 0
0.0760815 0.180987 0
0.108125 0.180529 0
0.135134 0.180056 0
0.162799 0.179492 0
0.191531 0.178851 0
0.221103 0.178073 0
0.251209 0.177203 0
0.281773 0.176211 0
0.312673 0.175097 0
0.343816 0.173877 0
0.375158 0.172519 0
0.406638 0.171054 0
0.438331 0.169406 0
0.470039 0.167651 0
0.501762 0.165774 0
0.533547 0.16376 0
0.565438 0.161578 0
0.597314 0.159289 0
0.629358 0.156725 0
0.661372 0.154055 0
0.693446 0.151202 0
0.725536 0.148165 0
0.757626 0.144961 0
0.789853 0.14139 0
0.822019 0.137743 0
0.854215 0.133822 0
0.886442 0.129641 0
0.918669 0.125185 0
0.950957 0.120378 0
0.983169 0.115419 0
1 0.109926 0
1 0.104173 0
0.0526284 0.212055 0
0.087068 0.211643 0
0.117021 0.211231 0
0.142855 0.210819 0
0.169558 0.21033 0
0.197528 0.209751 0
0.226398 0.209079 0
0.256031 0.208301 0
0.286091 0.207446 0
0.316609 0.206455 0
0.347433 0.205386 0
0.378485 0.204196 0
0.409766 0.202899 0
0.441199 0.201465 0
0.472724 0.199954 0
0.504417 0.198291 0
0.536156 0.19649 0
0.567864 0.194629 0
0.599649 0.192615 0
0.63151 0.190463 0
0.663462 0.188128 0
0.695445 0.185672 0
0.727474 0.183047 0
0.759457 0.180362 0
0.791592 0.177356 0
0.823667 0.174304 0
0.855741 0.171084 0
0.887984 0.167514 0
0.92015 0.163851 0
0.952316 0.159991 0
0.984558 0.15584 0
1 0.151492 0
1 0.146792 0
0.0648356 0.242649 0
0.0983902 0.242283 0
0.126528 0.241932 0
0.151186 0.24155 0
0.176944 0.241108 0
0.204105 0.240589 0
0.232258 0.240009 0
0.261326 0.239307 0
0.290944 0.238529 0
0.321004 0.237659 0
0.351492 0.236698 0
0.382223 0.235645 0
0.413199 0.234501 0
0.444419 0.233234 0
0.475746 0.231876 0
0.50724 0.230411 0
0.538796 0.22887 0
0.57055 0.227131 0
0.602243 0.22536 0
0.633967 0.223484 0
0.665751 0.221469 0
0.697581 0.219364 0
0.729549 0.217029 0
0.76144 0.214694 0
0.79353 0.212055 0
0.825528 0.2094 0
0.857588 0.206577 0
0.889662 0.203601 0
0.921736 0.200504 0
0.953979 0.19707 0
0.986114 0.193606 0
1 0.190021 0
1 0.185977 0
0.0784466 0.273243 0
0.11014 0.272908 0
0.136629 0.272587 0
0.160128 0.272251 0
0.184878 0.27187 0
0.211231 0.271397 0
0.238773 0.270832 0
0.267124 0.270222 0
0.296208 0.269535 0
0.325841 0.268757 0
0.355901 0.267903 0
0.386358 0.266926 0
0.417044 0.265904 0
0.447944 0.26479 0
0.479103 0.263554 0
0.510353 0.262257 0
0.541741 0.260868 0
0.573266 0.259358 0
0.604929 0.25774 0
0.636561 0.256077 0
0.668345 0.254231 0
0.700084 0.252323 0
0.731868 0.250309 0
0.763729 0.248173 0
0.795621 0.245945 0
0.827573 0.243565 0
0.859586 0.241047 0
0.891539 0.238483 0
0.923613 0.235706 0
0.955734 0.232761 0
0.987808 0.229755 0
1 0.226612 0
1 0.223224 0
0.0932631 0.303838 0
0.122255 0.303548 0
0.147326 0.303227 0
0.169619 0.302937 0
0.193408 0.302586 0
0.218891 0.302144 0
0.245655 0.301656 0
0.273396 0.301106 0
0.30193 0.300481 0
0.331136 0.299748 0
0.360754 0.29897 0
0.390799 0.298116 0
0.42118 0.297185 0
0.45185 0.296162 0
0.482704 0.295064 0
0.513787 0.293858 0
0.544976 0.292607 0
0.576303 0.291264 0
0.607828 0.289784 0
0.639368 0.288258 0
0.671 0.286641 0
0.702724 0.284916 0
0.734447 0.283085 0
0.76614 0.281209 0
0.797971 0.279179 0
0.829831 0.277058 0
0.861662 0.274876 0
0.893629 0.272511 0
0.925643 0.270024 0
0.95761 0.267491 0
0.989624 0.26482 0
1 0.262013 0
1 0.259022 0
0.107866 0.334432 0
0.134768 0.334157 0
0.158206 0.333883 0
0.179553 0.333608 0
0.202365 0.333288 0
0.227024 0.332891 0
0.253056 0.332448 0
0.280186 0.331914 0
0.30811 0.33135 0
0.336767 0.330709 0
0.365988 0.329992 0
0.395682 0.329198 0
0.425727 0.328344 0
0.456077 0.327413 0
0.486656 0.326421 0
0.517464 0.325338 0
0.548486 0.324178 0
0.579629 0.322942 0
0.61091 0.32163 0
0.642298 0.320256 0
0.673838 0.318746 0
0.70544 0.317174 0
0.737102 0.315526 0
0.768856 0.313771 0
0.800626 0.311879 0
0.832273 0.310048 0
0.864057 0.308049 0
0.895918 0.305928 0
0.927749 0.303761 0
0.959777 0.30135 0
0.991669 0.299016 0
1 0.296422 0
1 0.293828 0
0.122469 0.365026 0
0.147463 0.364767 0
0.16965 0.364508 0
0.189944 0.364263 0
0.211856 0.363958 0
0.235584 0.363622 0
0.260884 0.363195 0
0.287312 0.362722 0
0.314763 0.362188 0
0.34287 0.361593 0
0.371664 0.360922 0
0.4009 0.36022 0
0.43061 0.359411 0
0.460578 0.358587 0
0.490929 0.357656 0
0.521523 0.356649 0
0.552285 0.355596 0
0.58323 0.354467 0
0.614343 0.353246 0
0.645579 0.351965 0
0.676982 0.350576 0
0.70837 0.349172 0
0.73994 0.347646 0
0.771542 0.346059 0
0.803235 0.344381 0
0.834928 0.342657 0
0.866667 0.340795 0
0.898375 0.338903 0
0.930159 0.336904 0
0.962036 0.334768 0
0.993927 0.33257 0
1 0.330297 0
1 0.327871 0
0.137072 0.395621 0
0.160403 0.395377 0
0.181384 0.395132 0
0.200671 0.394903 0
0.221668 0.394644 0
0.244709 0.394293 0
0.269245 0.393912 0
0.294987 0.393484 0
0.321752 0.392996 0
0.349355 0.392447 0
0.377615 0.391852 0
0.406531 0.391165 0
0.435859 0.390433 0
0.465537 0.389639 0
0.495521 0.3888 0
0.525826 0.387884 0
0.556359 0.386908 0
0.587137 0.385824 0
0.617945 0.384756 0
0.649027 0.383566 0
0.680217 0.382315 0
0.711528 0.380987 0
0.742916 0.379583 0
0.774456 0.378088 0
0.805966 0.376593 0
0.837629 0.37496 0
0.869368 0.373236 0
0.901091 0.371466 0
0.932784 0.369619 0
0.964538 0.367697 0
0.996307 0.365713 0
1 0.363622 0
1 0.361395 0
0.151675 0.426215 0
0.173465 0.426001 0
0.193393 0.425757 0
0.211734 0.425559 0
0.231968 0.425299 0
0.254124 0.424994 0
0.277882 0.424628 0
0.302998 0.424231 0
0.329198 0.423758 0
0.356237 0.423255 0
0.384009 0.422705 0
0.412451 0.42208 0
0.441352 0.421408 0
0.470771 0.420645 0
0.50042 0.419867 0
0.530434 0.419028 0
0.560708 0.418112 0
0.591226 0.417136 0
0.621927 0.416098 0
0.65272 0.41503 0
0.683803 0.41384 0
0.714931 0.412619 0
0.746197 0.411307 0
0.777493 0.409979 0
0.808957 0.408545 0
0.840543 0.407004 0
0.872099 0.405463 0
0.903746 0.40383 0
0.935439 0.402136 0
0.967117 0.400381 0
0.99884 0.39852 0
1 0.396567 0
1 0.394598 0
0.166278 0.456809 0
0.186801 0.456596 0
0.205447 0.456413 0
0.223041 0.456199 0
0.242557 0.45594 0
0.263905 0.455665 0
0.286915 0.455344 0
0.31136 0.454963 0
0.33698 0.45452 0
0.363485 0.454047 0
0.390799 0.453513 0
0.418753 0.452949 0
0.447242 0.452323 0
0.47628 0.451621 0
0.505608 0.450904 0
0.535348 0.450095 0
0.565316 0.449271 0
0.595605 0.448341 0
0.626093 0.447364 0
0.656748 0.446357 0
0.687572 0.445274 0
0.718532 0.444129 0
0.749615 0.442939 0
0.780819 0.441672 0
0.812131 0.440345 0
0.843503 0.438956 0
0.875029 0.437476 0
0.906569 0.435966 0
0.93817 0.434379 0
0.969863 0.4327 0
1 0.430976 0
1 0.429206 0
1 0.427359 0
0.180865 0.487404 0
0.200183 0.487205 0
0.218036 0.487007 0
0.234806 0.486824 0
0.253376 0.486595 0
0.274037 0.486336 0
0.296315 0.48603 0
0.320058 0.485679 0
0.345144 0.485252 0
0.371054 0.484825 0
0.397879 0.484321 0
0.425406 0.483772 0
0.453498 0.483177 0
0.482109 0.482536 0
0.511131 0.481865 0
0.54049 0.481132 0
0.57026 0.480323 0
0.600214 0.4795 0
0.630518 0.478569 0
0.660929 0.477623 0
0.691539 0.476616 0
0.722347 0.475547 0
0.753216 0.474449 0
0.784298 0.473243 0
0.815503 0.471992 0
0.846784 0.47068 0
0.878111 0.469322 0
0.909468 0.467964 0
0.94107 0.466423 0
0.972641 0.464866 0
1 0.463264 0
1 0.461555 0
1 0.459846 0
0.195468 0.517998 0
0.213779 0.5178 0
0.230686 0.517617 0
0.246647 0.517449 0
0.264576 0.517235 0
0.284535 0.516976 0
0.306096 0.516701 0
0.329198 0.516365 0
0.353552 0.515984 0
0.378897 0.515587 0
0.40528 0.515099 0
0.432349 0.51458 0
0.460029 0.514031 0
0.488197 0.513451 0
0.516899 0.512795 0
0.545953 0.512108 0
0.575448 0.511345 0
0.605203 0.510536 0
0.635142 0.509712 0
0.66537 0.508812 0
0.695811 0.507851 0
0.726452 0.506828 0
0.757122 0.505821 0
0.788052 0.504692 0
0.819089 0.503517 0
0.850202 0.502297 0
0.881392 0.501045 0
0.912718 0.499702 0
0.944137 0.498299 0
0.975555 0.49688 0
1 0.495338 0
1 0.493782 0
1 0.492149 0
0.210071 0.548592 0
0.227344 0.548409 0
0.243336 0.548257 0
0.258808 0.548074 0
0.275975 0.547875 0
0.295186 0.547631 0
0.316167 0.547356 0
0.338567 0.547051 0
0.362432 0.546685 0
0.387243 0.546288 0
0.413062 0.545846 0
0.439612 0.545373 0
0.466789 0.544869 0
0.494697 0.544289 0
0.523003 0.543679 0
0.551781 0.543023 0
0.580957 0.542306 0
0.61033 0.541573 0
0.640085 0.540764 0
0.6701 0.539925 0
0.700282 0.539025 0
0.730632 0.538109 0
0.761288 0.537072 0
0.791959 0.536049 0
0.822766 0.534981 0
0.85388 0.533776 0
0.884916 0.532601 0
0.91603 0.53138 0
0.947372 0.530037 0
0.978729 0.528679 0
1 0.527214 0
1 0.525811 0
1 0.524315 0
0.224674 0.579187 0
0.241108 0.579004 0
0.256397 0.578851 0
0.271138 0.578698 0
0.287739 0.578485 0
0.306096 0.578302 0
0.326513 0.578012 0
0.348363 0.577722 0
0.371405 0.577401 0
0.39588 0.576989 0
0.421027 0.576608 0
0.447211 0.576135 0
0.473976 0.575662 0
0.501411 0.575113 0
0.529397 0.574533 0
0.557763 0.573922 0
0.586603 0.573251 0
0.615778 0.572549 0
0.645258 0.571801 0
0.675013 0.570993 0
0.704967 0.570153 0
0.735195 0.569253 0
0.765499 0.568353 0
0.796033 0.567361 0
0.826795 0.566308 0
0.857603 0.565225 0
0.888579 0.56408 0
0.919615 0.562905 0
0.950729 0.5617 0
0.982025 0.560388 0
1 0.559075 0
1 0.557687 0
1 0.556207 0
0.239277 0.609781 0
0.254856 0.609613 0
0.269596 0.609445 0
0.283635 0.609308 0
0.299489 0.60914 0
0.317327 0.608927 0
0.337118 0.608667 0
0.358282 0.608392 0
0.38085 0.608087 0
0.404578 0.607736 0
0.42948 0.607309 0
0.454994 0.606912 0
0.481407 0.606424 0
0.5084 0.605936 0
0.53608 0.605356 0
0.564065 0.604791 0
0.592599 0.60415 0
0.621469 0.603494 0
0.650614 0.602792 0
0.680171 0.602014 0
0.709957 0.601205 0
0.739895 0.600381 0
0.770016 0.599512 0
0.800473 0.59855 0
0.830991 0.597559 0
0.861601 0.596567 0
0.892393 0.595499 0
0.9234 0.594324 0
0.95436 0.593194 0
0.985489 0.591974 0
1 0.590753 0
1 0.589426 0
1 0.588037 0
0.25388 0.640375 0
0.268711 0.640223 0
0.282628 0.640085 0
0.296254 0.639933 0
0.311696 0.639735 0
0.328847 0.639551 0
0.347921 0.639323 0
0.368566 0.639048 0
0.390524 0.638758 0
0.413703 0.638422 0
0.437949 0.638056 0
0.463111 0.637644 0
0.489097 0.637186 0
0.515724 0.636698 0
0.542885 0.636194 0
0.570611 0.635645 0
0.598901 0.635019 0
0.627482 0.634379 0
0.656275 0.633738 0
0.685542 0.633021 0
0.715084 0.632242 0
0.744869 0.631434 0
0.774792 0.63061 0
0.80499 0.629709 0
0.835294 0.628809 0
0.865797 0.627832 0
0.896437 0.62681 0
0.927184 0.625757 0
0.958129 0.624628 0
0.989136 0.623468 0
1 0.622309 0
1 0.621073 0
1 0.61976 0
0.268482 0.67097 0
0.282612 0.670817 0
0.296056 0.67068 0
0.30898 0.670558 0
0.32372 0.67039 0
0.340642 0.670161 0
0.358999 0.669963 0
0.379126 0.669688 0
0.400519 0.669413 0
0.423133 0.669108 0
0.446845 0.668757 0
0.471687 0.66833 0
0.496941 0.667964 0
0.523278 0.667475 0
0.550057 0.666987 0
0.577493 0.666453 0
0.605386 0.665858 0
0.6336 0.665278 0
0.662303 0.664607 0
0.691203 0.663951 0
0.720424 0.663249 0
0.750011 0.662455 0
0.779751 0.661662 0
0.809735 0.660822 0
0.839887 0.659937 0
0.870192 0.659022 0
0.900694 0.658045 0
0.93135 0.657023 0
0.962005 0.656016 0
0.992844 0.654932 0
1 0.653773 0
1 0.652598 0
1 0.651377 0
0.283085 0.701564 0
0.296696 0.701411 0
0.309514 0.701274 0
0.321935 0.701152 0
0.336065 0.701015 0
0.352316 0.700816 0
0.370169 0.700618 0
0.389807 0.700343 0
0.41059 0.700099 0
0.432761 0.699779 0
0.456001 0.699443 0
0.480262 0.699062 0
0.505287 0.698665 0
0.531014 0.698253 0
0.557534 0.697749 0
0.584558 0.697246 0
0.612039 0.696712 0
0.639979 0.696147 0
0.66836 0.695521 0
0.697093 0.694865 0
0.726055 0.694194 0
0.755474 0.693431 0
0.784863 0.692714 0
0.814679 0.69189 0
0.844602 0.691066 0
0.874769 0.690181 0
0.905089 0.68925 0
0.935546 0.688304 0
0.966217 0.687266 0
0.996826 0.686259 0
1 0.685176 0
1 0.684047 0
1 0.682887 0
0.297688 0.732158 0
0.310552 0.732021 0
0.323049 0.731884 0
0.334997 0.731762 0
0.348775 0.731609 0
0.364324 0.731441 0
0.381704 0.731243 0
0.400702 0.730999 0
0.421027 0.730739 0
0.442695 0.730449 0
0.465431 0.730129 0
0.489219 0.729763 0
0.513756 0.729397 0
0.539132 0.728969 0
0.565225 0.728511 0
0.591836 0.728038 0
0.619043 0.72752 0
0.646647 0.72697 0
0.674601 0.726421 0
0.703182 0.72575 0
0.731884 0.725109 0
0.760967 0.724407 0
0.790204 0.723705 0
0.819821 0.722927 0
0.849622 0.722103 0
0.879545 0.721279 0
0.909758 0.720378 0
0.939986 0.719478 0
0.970443 0.718517 0
1 0.717556 0
1 0.716487 0
1 0.715434 0
1 0.714305 0
0.312291 0.762753 0
0.324742 0.762615 0
0.3364 0.762524 0
0.348241 0.762371 0
0.36141 0.762234 0
0.376471 0.762066 0
0.393393 0.761868 0
0.41178 0.761654 0
0.431617 0.761395 0
0.452811 0.761105 0
0.475013 0.760815 0
0.498207 0.760494 0
0.522362 0.760128 0
0.547433 0.759701 0
0.573083 0.759274 0
0.599344 0.758816 0
0.62623 0.758312 0
0.653529 0.757794 0
0.681376 0.757198 0
0.709438 0.756634 0
0.737972 0.755993 0
0.766766 0.755337 0
0.795911 0.75462 0
0.825223 0.753902 0
0.854734 0.75314 0
0.884504 0.752346 0
0.914488 0.751492 0
0.944518 0.750652 0
0.974868 0.749722 0
1 0.748791 0
1 0.747768 0
1 0.746777 0
1 0.745678 0
0.326879 0.793347 0
0.338888 0.79321 0
0.350103 0.793118 0
0.361379 0.792981 0
0.374121 0.792859 0
0.3888 0.792691 0
0.405203 0.792493 0
0.423056 0.792294 0
0.442451 0.79205 0
0.462867 0.791821 0
0.484672 0.791516 0
0.507698 0.79115 0
0.531395 0.790814 0
0.555947 0.790417 0
0.581353 0.78999 0
0.607172 0.789563 0
0.633707 0.789075 0
0.660533 0.788602 0
0.688075 0.788052 0
0.715953 0.787472 0
0.744198 0.786877 0
0.772763 0.786236 0
0.801587 0.78558 0
0.830732 0.784863 0
0.860121 0.784131 0
0.889616 0.783383 0
0.919417 0.782559 0
0.94934 0.781735 0
0.979477 0.780865 0
1 0.77998 0
1 0.778988 0
1 0.778012 0
1 0.777035 0
0.341482 0.823941 0
0.352911 0.823819 0
0.364126 0.823682 0
0.37464 0.823606 0
0.387167 0.823453 0
0.401205 0.823316 0
0.41709 0.823133 0
0.43447 0.822934 0
0.453391 0.822705 0
