creative/lut-kodak-5219-cool.cube
TITLE "Generated by Resolve"
LUT_3D_SIZE 33
0 0 0.00784314
0 0 0.00248722
0.00169375 0.00169375 0.00169375
0.00392157 0.00538643 0.004654
0.00392157 0.0113069 0.00761425
0.0283207 0.0144808 0.0132601
0.0723888 0.0139467 0.012192
0.131334 0.0102388 0.00631724
0.199695 0.00428778 0.000366217
0.267689 0.00114443 0.00277714
0.317617 0 0.002121
0.356893 0 0
0.398505 0 0
0.428489 0.00569161 0.00285344
0.454414 0.00784314 0.00202945
0.476188 0.00970474 0
0.493935 0.0156252 0
0.497047 0.0332341 0.00292973
0.492164 0.0529488 0.00392157
0.485283 0.07364 0.00392157
0.481987 0.094728 0.00386053
0.464149 0.124453 0.000885023
0.465034 0.151949 0
0.472831 0.175341 0
0.479194 0.19292 0.00015259
0.49398 0.207706 0.00311284
0.513268 0.220462 0.00173953
0.535164 0.231083 0
0.558572 0.240436 0
0.579278 0.255222 0
0.593256 0.270008 0
0.606439 0.283574 0
0.619608 0.294118 0
0 0.00274662 0.0160678
0.00611887 0.00686656 0.00643931
0.0116274 0.0116274 0.00868238
0.016434 0.016907 0.0178988
0.0206607 0.022797 0.0271916
0.0421454 0.0278782 0.0230869
0.0906996 0.0252995 0.0176394
0.159533 0.0185397 0.0124056
0.236133 0.0126192 0.00865187
0.291508 0.00959792 0.00933852
0.341421 0.0113069 0.00495918
0.385168 0.0141756 0.00135805
0.422599 0.0142519 0.00567636
0.454505 0.0158694 0.0129549
0.480797 0.020737 0.00753796
0.500893 0.0262455 0
0.514305 0.0302586 0.000106813
0.525856 0.0458534 0.00520333
0.526177 0.0665904 0.00526436
0.52076 0.0928969 0.00474556
0.513161 0.124178 0.0065156
0.499748 0.151583 0.00140383
0.496071 0.178408 0
0.502098 0.202304 0
0.517235 0.221347 0.000244144
0.538811 0.229831 0.00321965
0.557992 0.240818 0.00331121
0.575936 0.252308 0.0037995
0.593072 0.263615 0.00546273
0.611719 0.278477 0.00331121
0.626657 0.291569 0.00115969
0.640269 0.305013 0
0.65095 0.316915 0
0.00900282 0.0111543 0.0229953
0.0151827 0.0170443 0.0193637
0.0201877 0.0246738 0.0252689
0.0264286 0.0314794 0.0360571
0.0363317 0.034638 0.0477607
0.0637064 0.0446174 0.0406806
0.115312 0.0423438 0.033463
0.185412 0.0344854 0.025803
0.268925 0.0285801 0.017319
0.322118 0.0242313 0.0186618
0.372122 0.0248722 0.0178378
0.415549 0.0274205 0.0166629
0.448539 0.0289006 0.0171817
0.47982 0.0303044 0.0218814
0.504784 0.0359197 0.0169375
0.525261 0.0437781 0.0111238
0.542519 0.0525368 0.0109102
0.555901 0.065919 0.00563058
0.559762 0.0868849 0.00299077
0.556191 0.114092 0.00265507
0.547021 0.146532 0.00389105
0.533623 0.175845 0.000808728
0.532143 0.202136 0.00207523
0.540337 0.224689 0.002533
0.555871 0.241917 0.000167849
0.576699 0.253468 0.00170901
0.595224 0.265293 0.00205997
0.611444 0.276982 0.00277714
0.626612 0.289006 0.00393683
0.64477 0.302708 0.00233463
0.660029 0.317052 0.0019379
0.673381 0.330404 0.0011902
0.683131 0.340322 0
0.0243534 0.0237736 0.0338903
0.0273594 0.0302586 0.039826
0.0314946 0.0403143 0.047303
0.0397803 0.0487831 0.0567788
0.0547036 0.0513924 0.0683604
0.0879225 0.0652171 0.0626688
0.141482 0.0634623 0.0534829
0.212787 0.0554513 0.0426947
0.298665 0.0489357 0.0319829
0.356115 0.0430304 0.0336614
0.404761 0.0408484 0.0366217
0.443549 0.0417487 0.0372778
0.473793 0.0453498 0.0334783
0.504646 0.0489509 0.0341192
0.527382 0.0546578 0.031754
0.547906 0.0641184 0.0287938
0.569909 0.0785077 0.0259098
0.582391 0.0923018 0.00949111
0.588312 0.112917 0.00376898
0.587564 0.138628 0.00234989
0.580118 0.168246 0.0016022
0.568566 0.200122 0.00030518
0.571527 0.226642 0.00350958
0.580743 0.246983 0.00404364
0.593866 0.262623 0
0.610941 0.279057 0
0.628031 0.291279 0.00105287
0.643854 0.302632 0.00109865
0.659403 0.314763 0.000106813
0.676402 0.326528 0.000762951
0.691035 0.342168 0.00277714
0.704662 0.355459 0.00244144
0.715312 0.363729 0
0.0419776 0.0386969 0.0574197
0.0448768 0.0473182 0.0632792
0.0539406 0.0582437 0.0693675
0.0667582 0.0699931 0.0779278
0.0818341 0.0809796 0.0887312
0.105913 0.0901961 0.0830701
0.168521 0.0865492 0.0690318
0.247501 0.0777447 0.0589609
0.32668 0.069276 0.0610971
0.388693 0.0634623 0.0585031
0.429786 0.0597543 0.0538186
0.462577 0.0602274 0.0514382
0.494987 0.0660105 0.054078
0.530251 0.071809 0.0569314
0.550805 0.0797589 0.0535134
0.567269 0.0900435 0.0466011
0.584924 0.102678 0.0377356
0.599603 0.123095 0.0257115
0.607584 0.143786 0.0162966
0.610788 0.168353 0.0101625
0.61033 0.197772 0.00697337
0.610239 0.227878 0.00125124
0.610346 0.255085 0.000122072
0.617182 0.277562 0.000137331
0.631785 0.294392 0
0.646662 0.306401 0
0.66186 0.316167 0.00471504
0.676692 0.326528 0.00479133
0.691478 0.338354 0.00047303
0.70634 0.350179 0.00335698
0.718578 0.362036 0.00387579
0.733394 0.375387 0.00241093
0.747677 0.387259 0
0.041474 0.0644999 0.0834516
0.0524605 0.0753033 0.0873426
0.0641642 0.0872358 0.0961776
0.0787671 0.09897 0.107668
0.0981155 0.110262 0.11957
0.12781 0.117159 0.109834
0.187579 0.116945 0.0912795
0.261662 0.11194 0.0743877
0.338155 0.103166 0.0657816
0.397864 0.0931258 0.0690471
0.441993 0.0884565 0.0687114
0.478065 0.0899367 0.0680552
0.510491 0.0979629 0.0687419
0.54197 0.106203 0.0675364
0.565454 0.114809 0.0627909
0.583352 0.125841 0.0547189
0.597284 0.140322 0.0438087
0.614176 0.158907 0.0341039
0.619181 0.178851 0.0250401
0.620172 0.204944 0.0168917
0.621042 0.235996 0.00961318
0.62742 0.261311 0.00158694
0.631983 0.285801 0
0.640238 0.305058 0
0.653223 0.318318 0
0.668177 0.330327 0
0.68481 0.341527 0.00315862
0.700725 0.353002 0.00416571
0.715099 0.364431 0.00297551
0.727657 0.374014 0.0037995
0.743236 0.385534 0.00392157
0.758129 0.399145 0.00462348
0.768643 0.410666 0.00560006
0.0391089 0.101671 0.120714
0.052491 0.11339 0.12755
0.0665446 0.125124 0.139147
0.0829633 0.136904 0.149508
0.103777 0.148409 0.154589
0.139895 0.15552 0.140291
0.195407 0.15877 0.117235
0.259327 0.157397 0.0943313
0.327901 0.151781 0.0773632
0.392905 0.140368 0.0779278
0.442969 0.134295 0.0780499
0.483955 0.134463 0.0763409
0.518608 0.141054 0.072694
0.548165 0.148821 0.0724498
0.572992 0.158129 0.0709392
0.591379 0.170993 0.0640421
0.603586 0.187472 0.0513771
0.618616 0.206561 0.0425116
0.623896 0.226246 0.0314641
0.627939 0.250019 0.0217594
0.633661 0.277409 0.0144961
0.641169 0.299702 0.00834669
0.650706 0.319753 0.00389105
0.662287 0.334844 0.00114443
0.676493 0.345556 0
0.694026 0.356008 0
0.710658 0.367697 0.00135805
0.725322 0.378668 0.00283818
0.738415 0.389349 0.00419623
0.750423 0.40116 0.0055848
0.763836 0.414176 0.00573739
0.777279 0.427558 0.00816358
0.78732 0.43769 0.0114595
0.0332036 0.147189 0.167407
0.0445563 0.158709 0.177905
0.0624552 0.17026 0.191928
0.0814527 0.181537 0.200015
0.102342 0.192432 0.197787
0.142962 0.201648 0.177462
0.194903 0.204517 0.147311
0.250263 0.206714 0.118807
0.307469 0.208194 0.0968032
0.378058 0.199863 0.0874037
0.433341 0.192966 0.0818036
0.479103 0.190646 0.0753643
0.516869 0.192233 0.0686656
0.547478 0.196918 0.0721904
0.57351 0.207294 0.0747997
0.592432 0.22182 0.0699931
0.604852 0.240055 0.0576638
0.617441 0.259739 0.0493324
0.625483 0.277272 0.0361944
0.635203 0.29662 0.025864
0.646754 0.318242 0.0199283
0.653895 0.338933 0.016968
0.667521 0.354238 0.0100404
0.683024 0.366125 0.00486763
0.699718 0.375387 0.00259403
0.719158 0.383627 0.00321965
0.734569 0.39498 0.00331121
0.748089 0.405097 0.00451667
0.760311 0.415198 0.00701915
0.771664 0.429587 0.0100404
0.781888 0.443183 0.0125734
0.793256 0.45716 0.0163119
0.802441 0.46775 0.0197452
0.0184482 0.197101 0.219547
0.0276799 0.208713 0.225803
0.052491 0.218189 0.238865
0.0769665 0.227893 0.25359
0.100221 0.236942 0.259724
0.138582 0.245457 0.225772
0.197574 0.243137 0.182528
0.251225 0.247028 0.147265
0.295811 0.259342 0.123796
0.355627 0.264515 0.101183
0.412039 0.25864 0.0789654
0.460609 0.251575 0.0646677
0.500771 0.247044 0.0604105
0.535607 0.247578 0.0660258
0.565942 0.257313 0.0671702
0.588006 0.272053 0.0641031
0.60264 0.289586 0.0578012
0.617288 0.304631 0.0517739
0.629358 0.319646 0.0406958
0.642435 0.33463 0.0304417
0.656504 0.350851 0.022797
0.668116 0.371664 0.0198215
0.682536 0.385 0.0166934
0.700374 0.39678 0.0135805
0.719661 0.407279 0.0118563
0.734615 0.413153 0.0146334
0.749432 0.424323 0.0149538
0.764462 0.434897 0.0151369
0.777646 0.444358 0.0158999
0.786648 0.456321 0.0188602
0.800717 0.465675 0.0294804
0.808637 0.482948 0.034165
0.811215 0.499931 0.0343786
0.0144961 0.242084 0.266911
0.0233768 0.255589 0.272618
0.0412146 0.265629 0.287999
0.0580453 0.277836 0.301961
0.0779126 0.290532 0.306035
0.12195 0.293278 0.278859
0.188449 0.293843 0.221668
0.248066 0.295537 0.176852
0.296849 0.299672 0.148806
0.341451 0.309911 0.119341
0.390539 0.315969 0.0945449
0.435935 0.315572 0.0778973
0.477882 0.310353 0.0689708
0.523293 0.308309 0.0646982
0.557092 0.315221 0.0605631
0.579843 0.324819 0.0608225
0.594949 0.336461 0.0639963
0.611826 0.349172 0.0622263
0.631403 0.360098 0.0571145
0.649851 0.374136 0.0508278
0.666117 0.390707 0.0436866
0.680049 0.405173 0.0344854
0.694713 0.417273 0.0289311
0.711589 0.427787 0.0238499
0.730282 0.437125 0.020676
0.749203 0.445106 0.0236362
0.764523 0.456809 0.0239872
0.776883 0.466896 0.0276493
0.788113 0.47599 0.0319219
0.801205 0.485786 0.0307164
0.811933 0.49456 0.0377966
0.822934 0.508675 0.0483558
0.831067 0.521263 0.0573587
0.00814832 0.292638 0.29482
0.0157626 0.306584 0.30605
0.028397 0.316182 0.322805
0.0402991 0.330953 0.337774
0.0569314 0.347189 0.345388
0.0987411 0.347234 0.331899
0.17293 0.342504 0.273182
0.241047 0.341024 0.221439
0.296056 0.344228 0.183474
0.344579 0.352392 0.146242
0.386236 0.360281 0.119402
0.42533 0.363668 0.1019
0.464393 0.362768 0.0917525
0.510933 0.361349 0.0830701
0.546136 0.365087 0.0767834
0.573053 0.371435 0.0775006
0.594507 0.379599 0.0827039
0.616053 0.390021 0.0839704
0.637156 0.3991 0.0826886
0.656489 0.410925 0.0773785
0.67364 0.424292 0.0679942
0.688426 0.436118 0.0561685
0.70428 0.44654 0.0472267
0.722835 0.456107 0.0394446
0.742962 0.464988 0.0344091
0.76257 0.474174 0.0362249
0.776394 0.483177 0.0374914
0.787884 0.492973 0.0441444
0.798978 0.502434 0.05037
0.812497 0.510018 0.046067
0.824308 0.522896 0.0542306
0.833646 0.534432 0.0678111
0.839216 0.541741 0.078996
0.000991836 0.345769 0.313237
0.00584421 0.357061 0.332006
0.0158694 0.367605 0.349416
0.0251621 0.383841 0.365347
0.0384985 0.401266 0.378103
0.0722515 0.402838 0.381643
0.151476 0.389609 0.328481
0.225834 0.385977 0.273381
0.292042 0.390555 0.223743
0.356085 0.391867 0.180941
0.395102 0.394705 0.154162
0.428565 0.400381 0.13814
0.461997 0.406622 0.128908
0.500969 0.407126 0.119509
0.537133 0.408804 0.11223
0.569055 0.413184 0.111971
0.597375 0.419944 0.115877
0.623453 0.428138 0.115969
0.642954 0.436301 0.115877
0.661845 0.444892 0.110033
0.680156 0.454215 0.0992294
0.69659 0.464744 0.0860304
0.715282 0.473243 0.0741131
0.736263 0.48217 0.0633707
0.757336 0.490883 0.0553292
0.776165 0.499107 0.0541543
0.788296 0.506142 0.0572824
0.800122 0.515785 0.0641489
0.811948 0.525994 0.0694438
0.823926 0.533852 0.0659648
0.837552 0.549645 0.0767987
0.843107 0.559518 0.0904097
0.843809 0.56376 0.100252
0.000106813 0.38938 0.346777
0.000595102 0.398474 0.369757
0.00630198 0.414588 0.385595
0.0111696 0.428992 0.394446
0.0202182 0.441215 0.402548
0.0473335 0.449256 0.421607
0.114748 0.443961 0.372625
0.194797 0.436835 0.315267
0.278447 0.429892 0.261707
0.353704 0.424811 0.223178
0.405341 0.427161 0.205478
0.441505 0.436439 0.192157
0.469337 0.447761 0.180529
0.499611 0.450523 0.168978
0.536919 0.448737 0.157855
0.568399 0.452644 0.161044
0.594583 0.460197 0.168292
0.618402 0.463523 0.154757
0.641596 0.469368 0.153735
0.664744 0.477073 0.151675
0.687968 0.485237 0.144427
0.711177 0.491554 0.12697
0.734676 0.497826 0.114977
0.753002 0.505638 0.0998093
0.77055 0.513649 0.0860609
0.793851 0.519738 0.0804913
0.806104 0.531029 0.0858167
0.817929 0.540948 0.0865644
0.829908 0.551827 0.0868696
0.841733 0.566125 0.092134
0.85095 0.575525 0.101122
0.85771 0.58436 0.113924
0.861372 0.590082 0.123659
0.00047303 0.426932 0.370718
0.00241093 0.441398 0.390204
0.0115206 0.453758 0.407309
0.0162509 0.465873 0.420844
0.0207828 0.476951 0.432227
0.0355077 0.48571 0.444968
0.090898 0.486412 0.418006
0.165866 0.482368 0.370901
0.251621 0.475761 0.315328
0.336187 0.470314 0.269657
0.405158 0.465293 0.24155
0.450813 0.466087 0.226093
0.480018 0.471397 0.218799
0.505608 0.478309 0.212879
0.539193 0.479774 0.205203
0.570275 0.484733 0.206729
0.596872 0.491569 0.212436
0.61854 0.498527 0.215778
0.645747 0.500618 0.213977
0.669566 0.505531 0.207691
0.691325 0.512871 0.195789
0.712993 0.52079 0.176028
0.738613 0.526802 0.155901
0.763821 0.533318 0.134768
0.786343 0.539834 0.11928
0.803891 0.545739 0.117433
0.813886 0.557671 0.111315
0.822324 0.567544 0.105852
0.832807 0.57702 0.105913
0.848722 0.587671 0.115908
0.863722 0.594507 0.124773
0.869642 0.604028 0.13756
0.870832 0.611032 0.147066
0.00196841 0.458061 0.397513
0.00973526 0.475807 0.417716
0.0134585 0.48452 0.433768
0.0205844 0.496956 0.449516
0.0290379 0.510246 0.462196
0.0343786 0.517678 0.466133
0.0732433 0.525414 0.458793
0.140368 0.525231 0.426657
0.225055 0.518639 0.376913
0.314061 0.510323 0.322271
0.393256 0.501762 0.291341
0.450431 0.498375 0.2701
0.489097 0.500496 0.257923
0.515496 0.508278 0.255207
0.547616 0.511482 0.254231
0.575723 0.515511 0.256458
0.600656 0.521035 0.261387
0.623911 0.528572 0.26807
0.647059 0.532586 0.265644
0.669581 0.536309 0.262119
0.693187 0.540597 0.252338
0.720134 0.546838 0.230488
0.747982 0.552773 0.203082
0.773602 0.558663 0.177203
0.794842 0.564584 0.157565
0.80972 0.570703 0.148669
0.825055 0.581231 0.13814
0.834836 0.591516 0.132525
0.843946 0.601678 0.134157
0.856489 0.611673 0.144488
0.870329 0.617441 0.149355
0.877302 0.626047 0.161639
0.879652 0.631617 0.170596
0.00553903 0.486381 0.429969
0.0206607 0.501701 0.451621
0.0140688 0.509926 0.462226
0.0252689 0.524773 0.47776
0.0420233 0.539895 0.49131
0.0440681 0.545281 0.491661
0.0659037 0.559503 0.496498
0.121004 0.562448 0.480034
0.199496 0.556771 0.442145
0.288411 0.546029 0.382406
0.373114 0.537133 0.350927
0.442252 0.532998 0.321141
0.494377 0.533654 0.299733
0.527535 0.537987 0.294804
0.558373 0.54197 0.299855
0.582681 0.545647 0.306142
0.604654 0.549737 0.310811
0.629725 0.555062 0.31078
0.647837 0.563668 0.309941
0.669581 0.566796 0.312245
0.696315 0.568139 0.307713
0.729549 0.571099 0.285664
0.7579 0.576989 0.253849
0.780331 0.582574 0.224979
0.798962 0.588281 0.200046
0.816068 0.594278 0.179171
0.838636 0.603143 0.17084
0.850401 0.613718 0.168383
0.858106 0.62443 0.170657
0.866865 0.634638 0.177356
0.876936 0.642283 0.179278
0.884886 0.649454 0.189578
0.889097 0.653407 0.197391
0.0122683 0.518441 0.465705
0.0296483 0.522789 0.478599
0.0269322 0.538888 0.480186
0.03888 0.553002 0.49688
0.0565957 0.562783 0.519493
0.0674296 0.566262 0.535576
0.0830701 0.578103 0.533852
0.121233 0.587167 0.525933
0.180133 0.590158 0.502052
0.258061 0.58381 0.451102
0.353979 0.575158 0.403204
0.430823 0.566995 0.36762
0.491478 0.560876 0.34342
0.539834 0.558694 0.329732
0.564218 0.566964 0.332906
0.586145 0.573495 0.341405
0.606073 0.578332 0.348821
0.62472 0.581765 0.349157
0.655711 0.587854 0.35433
0.68159 0.591592 0.354345
0.705455 0.5944 0.347448
0.730037 0.597421 0.331609
0.754131 0.603464 0.302083
0.779675 0.607645 0.27277
0.80557 0.611826 0.245594
0.830854 0.617746 0.222766
0.849042 0.626612 0.216632
0.854505 0.635584 0.214954
0.862745 0.642634 0.214343
0.882063 0.647074 0.213214
0.89633 0.661173 0.221256
0.900496 0.673243 0.230243
0.900801 0.679728 0.235431
0.0280308 0.538796 0.498421
0.0438392 0.553323 0.510246
0.0487984 0.561517 0.518013
0.0565347 0.57348 0.532006
0.0665599 0.585626 0.546654
0.0782788 0.594385 0.556588
0.0950332 0.602319 0.557595
0.123125 0.612146 0.555886
0.168566 0.619211 0.544152
0.237827 0.619226 0.515358
0.329046 0.608545 0.463478
0.411093 0.600534 0.417609
0.479622 0.59501 0.384436
0.53135 0.592096 0.370016
0.56466 0.593133 0.372961
0.593469 0.59762 0.375402
0.616999 0.603204 0.379477
0.634806 0.608057 0.387091
0.659403 0.611978 0.38909
0.684596 0.615198 0.387564
0.709361 0.618158 0.383917
0.733272 0.621561 0.378714
0.758923 0.627405 0.357107
0.785275 0.631205 0.326909
0.809384 0.635264 0.295003
0.829786 0.641276 0.266407
0.845518 0.648142 0.25449
0.860059 0.658152 0.244099
0.874388 0.666545 0.242084
0.888457 0.671641 0.250767
0.897215 0.678294 0.255436
0.902358 0.69044 0.26183
0.904601 0.698161 0.265568
0.0475471 0.560052 0.52343
0.058732 0.579461 0.536355
0.068925 0.582666 0.548363
0.078233 0.593591 0.560983
0.0869306 0.607691 0.571511
0.0952926 0.620539 0.577386
0.116594 0.625269 0.580362
0.140719 0.633219 0.583764
0.177783 0.640864 0.579873
0.234821 0.644617 0.561334
0.314672 0.63653 0.514397
0.395392 0.630793 0.468605
0.468284 0.626688 0.432624
0.525429 0.623926 0.41384
0.566323 0.623621 0.407355
0.600015 0.624201 0.405829
0.626154 0.626612 0.409339
0.645121 0.631235 0.417044
0.664607 0.635401 0.418296
0.688228 0.639567 0.42002
0.713573 0.64358 0.420096
0.738293 0.646555 0.415671
0.762402 0.649927 0.401633
0.787305 0.652995 0.37467
0.810544 0.657649 0.342565
0.830747 0.664698 0.311421
0.850782 0.670802 0.29546
0.867338 0.679271 0.282368
0.88188 0.687648 0.278584
0.894179 0.694499 0.285496
0.900069 0.698589 0.289525
0.90692 0.709056 0.297948
0.910887 0.715908 0.303471
0.0688792 0.582712 0.54406
0.0755322 0.599084 0.559045
0.0872969 0.603357 0.570809
0.102876 0.614282 0.584344
0.11574 0.627939 0.595102
0.121553 0.641108 0.59968
0.147295 0.645396 0.602655
0.171725 0.651255 0.608331
0.203372 0.656947 0.60734
0.249165 0.661219 0.59263
0.312795 0.660121 0.557092
0.38674 0.657694 0.519173
0.459937 0.654887 0.484245
0.523629 0.652903 0.456672
0.567361 0.654856 0.436713
0.603082 0.65182 0.43418
0.63154 0.65005 0.437964
0.653025 0.653162 0.441276
0.672206 0.658579 0.444221
0.694057 0.6645 0.450645
0.718151 0.669566 0.451789
0.743709 0.673091 0.444404
0.764874 0.672587 0.436454
0.787457 0.674723 0.415549
0.811429 0.68014 0.388464
0.836133 0.6878 0.359045
0.861204 0.694194 0.338659
0.874388 0.699702 0.327108
0.886488 0.706691 0.321843
0.900191 0.715251 0.321828
0.906676 0.721813 0.328542
0.915114 0.730327 0.341161
0.919676 0.734798 0.348043
0.0904555 0.604227 0.573846
0.0990768 0.614008 0.588449
0.110903 0.624903 0.600275
0.124971 0.63476 0.612253
0.140505 0.643275 0.619013
0.156954 0.650339 0.617304
0.178531 0.661326 0.620447
0.201541 0.670542 0.618097
0.234195 0.674922 0.617853
0.280873 0.673548 0.621973
0.325048 0.681147 0.599496
0.389731 0.681086 0.563531
0.458732 0.67924 0.524041
0.521523 0.678752 0.488533
0.562966 0.676524 0.470832
0.599542 0.675502 0.46273
0.6309 0.676417 0.462257
0.657008 0.679545 0.467765
0.682918 0.682765 0.470726
0.702785 0.688014 0.472007
0.723522 0.694987 0.472129
0.747265 0.702068 0.471077
0.77055 0.699397 0.467521
0.792248 0.701259 0.452491
0.816892 0.704585 0.432731
0.844572 0.708705 0.409812
0.862928 0.71725 0.378622
0.878126 0.721447 0.364965
0.892653 0.727352 0.364065
0.906584 0.736339 0.372351
0.91516 0.74493 0.380926
0.923995 0.75375 0.390158
0.928405 0.758083 0.394614
0.107546 0.62594 0.593576
0.120363 0.631769 0.602914
0.135973 0.651164 0.616632
0.14818 0.656062 0.623468
0.163607 0.660456 0.630228
0.184939 0.671824 0.639628
0.203708 0.679789 0.636942
0.234546 0.685618 0.638926
0.269703 0.691279 0.642313
0.306172 0.697581 0.643656
0.347951 0.700832 0.626886
0.40148 0.702235 0.5944
0.460319 0.702739 0.559945
0.519783 0.702449 0.530358
0.566888 0.699535 0.51075
0.598978 0.701747 0.495842
0.627298 0.705501 0.487816
0.656336 0.70779 0.486046
0.690608 0.704982 0.485176
0.711879 0.708995 0.489494
0.73135 0.714427 0.494362
0.752819 0.718883 0.497063
0.772717 0.719936 0.492256
0.794736 0.724056 0.480247
0.820645 0.728939 0.461265
0.849439 0.733547 0.43566
0.874983 0.736553 0.403082
0.891844 0.739651 0.393317
0.902785 0.745571 0.398169
0.909697 0.754101 0.412238
0.916579 0.760967 0.423011
0.930114 0.771191 0.430533
0.937179 0.776318 0.433661
0.127474 0.646906 0.616587
0.138491 0.654078 0.620813
0.160815 0.672007 0.63331
0.174243 0.675746 0.640986
0.190951 0.679759 0.648859
0.216251 0.690654 0.658015
0.236347 0.697719 0.650965
0.268055 0.702525 0.655131
0.30106 0.708476 0.661051
0.331777 0.716258 0.662974
0.369726 0.718593 0.651743
0.416403 0.722332 0.624323
0.468711 0.72459 0.592828
0.524376 0.724361 0.56289
0.574899 0.722759 0.542275
0.606744 0.725292 0.526055
0.634531 0.728527 0.51397
0.663478 0.73077 0.506767
0.69691 0.728481 0.506233
0.718761 0.732692 0.5084
0.740383 0.736629 0.51107
0.763897 0.738918 0.512154
0.782834 0.743084 0.506203
0.804578 0.747662 0.496437
0.829938 0.752346 0.479637
0.857939 0.756252 0.456199
0.885252 0.75639 0.42974
0.901946 0.759899 0.421088
0.91252 0.765225 0.428214
0.918044 0.772259 0.444877
0.919112 0.781811 0.45185
0.932509 0.791241 0.458961
0.939574 0.795575 0.462242
0.150164 0.667659 0.643336
0.158541 0.67808 0.645365
0.185077 0.687282 0.652476
0.201999 0.694606 0.66453
0.221668 0.700603 0.672724
0.249012 0.706142 0.672969
0.274693 0.715419 0.664912
0.30106 0.72221 0.667918
0.328542 0.726604 0.674968
0.357961 0.729564 0.681682
0.389715 0.735485 0.6766
0.433158 0.741711 0.655711
0.481727 0.745037 0.624826
0.533394 0.745098 0.589166
0.583352 0.744717 0.566842
0.619852 0.744671 0.551247
0.649577 0.746517 0.538567
0.675807 0.750179 0.529259
0.701869 0.753063 0.531304
0.724285 0.757794 0.526543
0.750042 0.760861 0.521965
0.77818 0.762524 0.51809
0.799634 0.767544 0.509972
0.821225 0.770413 0.500389
0.844587 0.773129 0.487037
0.86949 0.775723 0.47042
0.891737 0.776196 0.454948
0.907912 0.781369 0.446815
0.921263 0.785901 0.454063
0.929702 0.791379 0.470024
0.925155 0.804852 0.471412
0.933577 0.812573 0.482216
0.937865 0.815442 0.487007
0.172656 0.690684 0.666896
0.195331 0.693034 0.673823
0.206485 0.704494 0.672099
0.228336 0.715694 0.67715
0.249363 0.722118 0.684459
0.268284 0.724102 0.690929
0.305333 0.735744 0.687373
0.33196 0.742855 0.691463
0.357321 0.746166 0.69752
0.384024 0.747173 0.702663
0.411292 0.753094 0.702007
0.450492 0.76112 0.688869
0.493217 0.765774 0.663539
0.537118 0.765362 0.628458
0.587076 0.762753 0.597299
0.626993 0.762325 0.571221
0.65774 0.766369 0.554177
0.681727 0.773709 0.546197
0.705715 0.776776 0.543954
0.731426 0.777737 0.536385
0.759121 0.780743 0.530739
0.787991 0.785168 0.524666
0.813977 0.785763 0.50544
0.839979 0.78613 0.490639
0.862226 0.787945 0.477302
0.88014 0.790829 0.466621
0.895796 0.793469 0.462119
0.912932 0.798962 0.463172
0.927291 0.804715 0.472419
0.93695 0.81059 0.486137
0.939147 0.817502 0.494347
0.940337 0.828351 0.517723
0.940795 0.83299 0.527977
0.186374 0.711482 0.685466
0.201862 0.717372 0.693416
0.218219 0.72546 0.694194
0.241245 0.733501 0.698924
0.267506 0.739651 0.703731
0.296117 0.743862 0.705623
0.326863 0.750011 0.69894
0.351781 0.757427 0.703975
0.37583 0.764126 0.711711
0.400275 0.769787 0.718578
0.423224 0.77583 0.720531
0.456962 0.781231 0.714961
0.495537 0.785534 0.696162
0.537285 0.788083 0.667323
0.581888 0.785153 0.642298
0.628992 0.78471 0.608133
0.664332 0.787503 0.582513
0.688899 0.792248 0.567636
0.716228 0.795209 0.558968
0.744472 0.797238 0.545281
0.773541 0.798199 0.532799
0.80235 0.798367 0.520241
0.829099 0.798383 0.499428
0.855894 0.801846 0.482139
0.878492 0.807279 0.467185
0.89662 0.812299 0.45713
0.909422 0.811429 0.459907
0.923217 0.820066 0.471443
0.934981 0.826795 0.491035
0.943145 0.83125 0.513085
0.946044 0.837018 0.52752
0.946288 0.846647 0.544381
0.946258 0.850553 0.551141
0.19678 0.730098 0.702647
0.210117 0.737896 0.709621
0.230808 0.746044 0.711467
0.254002 0.753338 0.719326
0.282506 0.759441 0.723125
0.314839 0.764294 0.720165
0.342382 0.769345 0.713497
0.364874 0.776654 0.71693
0.390784 0.783841 0.725246
0.419806 0.790631 0.734615
0.441764 0.797787 0.735363
0.468788 0.801373 0.736858
0.498955 0.805173 0.729519
0.533074 0.808652 0.712963
0.574258 0.806851 0.691234
0.626062 0.806851 0.654826
0.667567 0.808454 0.62388
0.699168 0.811124 0.600519
0.731044 0.812924 0.5794
0.758709 0.815732 0.558343
0.789807 0.815412 0.539422
0.821866 0.813779 0.520027
0.846159 0.816159 0.492332
0.872633 0.82063 0.46923
