creative/lut-fuji-film.cube
TITLE "Generated by Resolve"
LUT_3D_SIZE 33
0.0137484 0.0180209 0.0176089
0.0272679 0.017792 0.0175784
0.0486152 0.019379 0.0178378
0.0813306 0.0223697 0.0184176
0.1084 0.0286412 0.0195773
0.135729 0.0385443 0.0200198
0.165667 0.0476844 0.0205234
0.198901 0.053193 0.0203403
0.234821 0.0569772 0.0194095
0.273808 0.0582895 0.0177615
0.315343 0.0580148 0.0136568
0.358175 0.0555123 0.0084535
0.401648 0.0500649 0.0015259
0.445319 0.041886 6.10361e-05
0.488701 0.0370031 0
0.531685 0.0375982 0
0.573877 0.0466011 0
0.615076 0.0594186 0
0.655009 0.0707256 0
0.693843 0.0830243 0
0.731243 0.0961318 0
0.766918 0.109712 0
0.800565 0.123232 0
0.832624 0.136553 0
0.863645 0.149905 0
0.893706 0.163256 0
0.922774 0.176608 0
0.942199 0.190112 0
0.954101 0.203647 0
0.965225 0.217197 0
0.976379 0.230747 0
0.987488 0.244236 0
0.998611 0.257527 0
0.0147097 0.03122 0.0180209
0.0276188 0.0317693 0.0179141
0.0489204 0.033402 0.0175021
0.0806897 0.035874 0.0180972
0.108248 0.0426337 0.0191501
0.135683 0.0526436 0.0195773
0.165927 0.0610971 0.0200961
0.198886 0.0666056 0.019791
0.234821 0.0696727 0.0188144
0.273854 0.0709392 0.0171511
0.31519 0.0707408 0.013077
0.358267 0.0690776 0.00747692
0.401679 0.0651713 0.00123598
0.445243 0.0587472 6.10361e-05
0.488716 0.0546731 0
0.531579 0.0554665 0
0.573953 0.0643015 0
0.615137 0.0744488 0
0.65507 0.0849165 0
0.69369 0.0968948 0
0.731106 0.109712 0
0.766781 0.122942 0
0.800412 0.136233 0
0.832471 0.149371 0
0.863508 0.162524 0
0.893675 0.175708 0
0.922652 0.188937 0
0.942199 0.202396 0
0.954101 0.215869 0
0.965225 0.229358 0
0.976333 0.242741 0
0.987488 0.256168 0
0.998566 0.269429 0
0.0155337 0.053666 0.0193942
0.0281987 0.0541238 0.0193027
0.0487221 0.0552529 0.018967
0.0803082 0.058381 0.0181888
0.108583 0.0661479 0.0171206
0.136172 0.0746624 0.0172427
0.166629 0.0800031 0.0175631
0.199481 0.0833448 0.0176089
0.235508 0.0862287 0.0161135
0.274739 0.0877089 0.0141451
0.316075 0.087953 0.0101015
0.358816 0.0872663 0.00419623
0.402274 0.0854505 0.000259403
0.44567 0.0836805 0
0.488945 0.083238 0
0.531777 0.0846113 0
0.573938 0.0892348 0
0.615167 0.0963607 0
0.655039 0.105577 0
0.693675 0.11603 0
0.731014 0.127901 0
0.766629 0.140169 0
0.800244 0.152773 0
0.83241 0.165301 0
0.863432 0.177905 0
0.893477 0.190646 0
0.92256 0.203571 0
0.942123 0.216617 0
0.954101 0.229862 0
0.965225 0.243076 0
0.976333 0.256275 0
0.987457 0.269352 0
0.998566 0.282475 0
0.0168612 0.0863508 0.0245518
0.0298924 0.0863508 0.0239872
0.0511482 0.0872053 0.0229648
0.081239 0.0882429 0.0223239
0.108751 0.0922866 0.0204776
0.137255 0.0963455 0.0177462
0.168231 0.100023 0.0150759
0.201205 0.103624 0.0131075
0.237247 0.106447 0.0115663
0.276555 0.108339 0.00872816
0.317632 0.109545 0.00425727
0.360174 0.109987 0.000381476
0.403159 0.109895 1.5259e-05
0.446525 0.109941 0
0.489647 0.110842 0
0.532311 0.113268 0
0.574319 0.117525 0
0.615274 0.123522 0
0.655161 0.131258 0
0.69369 0.140368 0
0.730968 0.150652 0
0.766522 0.161532 0
0.800183 0.172808 0
0.832197 0.184253 0
0.863188 0.196078 0
0.893202 0.208164 0
0.922377 0.220493 0
0.942031 0.232792 0
0.954055 0.245502 0
0.965179 0.258198 0
0.976303 0.27097 0
0.987411 0.283497 0
0.99852 0.296162 0
0.0216831 0.113344 0.0308385
0.0340276 0.113466 0.0307622
0.0550851 0.114015 0.0298314
0.0846571 0.114717 0.0284276
0.109957 0.116121 0.0263676
0.137774 0.119448 0.0234684
0.169146 0.123232 0.0194247
0.203021 0.126879 0.0138552
0.240146 0.130114 0.00868238
0.279255 0.13283 0.00340276
0.320195 0.134783 0.000259403
0.362112 0.136339 0
0.404715 0.137545 0
0.447776 0.139086 0
0.490745 0.14107 0
0.533227 0.14406 0
0.575006 0.148013 0
0.61593 0.153246 0
0.655497 0.159609 0
0.693858 0.16733 0
0.731167 0.175967 0
0.766552 0.18555 0
0.8 0.195483 0
0.831952 0.205783 0
0.862913 0.216617 0
0.892866 0.227878 0
0.922026 0.239384 0
0.942 0.25098 0
0.954009 0.262867 0
0.965179 0.274937 0
0.976303 0.287144 0
0.987366 0.299092 0
0.99852 0.311055 0
0.0161135 0.141756 0.035874
0.0278325 0.14197 0.0357977
0.0503548 0.142397 0.0348211
0.0831464 0.143297 0.0336614
0.110719 0.144411 0.0309453
0.138399 0.145998 0.0274357
0.169589 0.149508 0.0227665
0.204059 0.153475 0.0166629
0.241779 0.15697 0.00941482
0.282063 0.160006 0.00177005
0.323125 0.162524 9.15541e-05
0.364874 0.164706 0
0.407202 0.166751 0
0.449821 0.169039 0
0.492378 0.171695 0
0.534493 0.174899 0
0.576165 0.178759 0
0.616785 0.183536 0
0.656107 0.189258 0
0.69427 0.19588 0
0.731212 0.203708 0
0.766552 0.211994 0
0.799802 0.220768 0
0.831662 0.229938 0
0.862669 0.239704 0
0.892561 0.249973 0
0.921553 0.260548 0
0.941878 0.271595 0
0.953979 0.282643 0
0.965103 0.293858 0
0.976257 0.305165 0
0.987366 0.316579 0
0.998474 0.328038 0
0.00205997 0.173434 0.0388647
0.0140841 0.173587 0.0386664
0.0364691 0.174212 0.0380255
0.0727855 0.175067 0.0368048
0.107927 0.176181 0.0337377
0.138231 0.177707 0.0302739
0.169665 0.179767 0.0252232
0.204669 0.18349 0.0181125
0.242832 0.18735 0.00968948
0.282994 0.190768 0.00151064
0.32459 0.19382 7.62951e-05
0.367147 0.196597 0
0.409842 0.199329 0
0.452277 0.201892 0
0.494392 0.204669 0
0.536309 0.207904 0
0.577371 0.211658 0
0.617609 0.2159 0
0.656657 0.221012 0
0.694728 0.226993 0
0.731441 0.233738 0
0.766506 0.240909 0
0.799558 0.248447 0
0.831312 0.25658 0
0.862226 0.265202 0
0.892058 0.274434 0
0.920989 0.284031 0
0.941741 0.294026 0
0.953979 0.304265 0
0.965103 0.314626 0
0.976211 0.325185 0
0.98732 0.335729 0
0.998428 0.346471 0
0 0.209277 0.0411231
0.00946059 0.20943 0.0409247
0.0210574 0.209903 0.0395819
0.0475319 0.210971 0.0384222
0.0965896 0.212146 0.0350347
0.13431 0.21355 0.0309606
0.168612 0.215335 0.0253452
0.204044 0.217395 0.0184176
0.242512 0.221027 0.0090486
0.283299 0.224872 0.00108339
0.325063 0.228229 3.0518e-05
0.367605 0.231327 0
0.41091 0.23418 0
0.454002 0.236942 0
0.496422 0.23978 0
0.537987 0.242771 0
0.578836 0.246098 0
0.618601 0.250111 0
0.65745 0.254658 0
0.695048 0.259754 0
0.731609 0.265568 0
0.766384 0.271733 0
0.799222 0.278202 0
0.830869 0.285206 0
0.861662 0.292775 0
0.891432 0.300923 0
0.920302 0.309407 0
0.94168 0.318379 0
0.953933 0.327703 0
0.965057 0.337163 0
0.976165 0.346716 0
0.987274 0.356161 0
0.998428 0.365972 0
0 0.248646 0.0421607
0.00910964 0.248753 0.0420844
0.0201267 0.249332 0.0414893
0.0313268 0.250217 0.0392462
0.0669413 0.251621 0.0359655
0.122042 0.252995 0.0316167
0.16434 0.254414 0.0247349
0.203037 0.256138 0.0164797
0.241581 0.258076 0.00674449
0.282445 0.26128 0.000656138
0.324834 0.26482 0
0.367605 0.267994 0
0.41088 0.270954 0
0.454002 0.273747 0
0.496834 0.276432 0
0.53904 0.279225 0
0.580056 0.282353 0
0.619669 0.285649 0
0.658045 0.289403 0
0.695491 0.293889 0
0.731548 0.298848 0
0.765896 0.304006 0
0.798657 0.309392 0
0.830289 0.315373 0
0.860883 0.321874 0
0.890562 0.328847 0
0.919432 0.3364 0
0.941421 0.344427 0
0.953841 0.352667 0
0.965011 0.361196 0
0.97612 0.369543 0
0.987228 0.377859 0
0.998383 0.386465 0
0 0.290288 0.0433509
0.00866712 0.290349 0.0431525
0.0196994 0.29073 0.042359
0.03093 0.291752 0.0404059
0.0424353 0.293065 0.0364996
0.0997787 0.294484 0.031281
0.155169 0.295827 0.0239109
0.199481 0.297124 0.0149386
0.24065 0.298604 0.00404364
0.281376 0.300252 0.000335698
0.323781 0.302968 0
0.367056 0.306111 0
0.410269 0.308995 0
0.453407 0.311681 0
0.496315 0.314229 0
0.538491 0.316808 0
0.57966 0.319402 0
0.619821 0.322332 0
0.658442 0.325429 0
0.695567 0.329061 0
0.731426 0.333196 0
0.76553 0.337285 0
0.798077 0.341772 0
0.82948 0.346593 0
0.860075 0.352148 0
0.889677 0.358114 0
0.918471 0.364675 0
0.941207 0.371588 0
0.953796 0.378882 0
0.964965 0.386435 0
0.976074 0.394141 0
0.987198 0.401938 0
0.998337 0.409705 0
0 0.332906 0.0468299
0.00819409 0.332952 0.0466316
0.0193027 0.333257 0.0457465
0.0305028 0.333959 0.0434577
0.0420844 0.335302 0.0398718
0.0676585 0.336873 0.0345159
0.139574 0.338003 0.0261845
0.193927 0.339178 0.016083
0.238514 0.34023 0.00410468
0.281041 0.341527 0.000335698
0.32285 0.342809 0
0.365957 0.344991 0
0.409308 0.347601 0
0.452384 0.350118 0
0.495064 0.352438 0
0.537331 0.354742 0
0.578439 0.357031 0
0.61854 0.359442 0
0.657526 0.362036 0
0.695293 0.364874 0
0.731014 0.368093 0
0.764889 0.371267 0
0.797223 0.374853 0
0.828519 0.378744 0
0.859007 0.383307 0
0.888518 0.388403 0
0.917235 0.393835 0
0.940902 0.399771 0
0.95375 0.406149 0
0.964874 0.412741 0
0.975998 0.419547 0
0.987152 0.426474 0
0.99826 0.43328 0
0 0.375235 0.0546578
0.00770581 0.37528 0.0545205
0.0187381 0.375723 0.0540627
0.0300145 0.376333 0.0523537
0.0416571 0.377325 0.0493324
0.0532082 0.37882 0.0440833
0.1243 0.38024 0.0364233
0.187274 0.381064 0.0258335
0.23563 0.382025 0.0118257
0.280034 0.382879 0.00201419
0.322972 0.383825 0.000122072
0.365347 0.384756 0
0.408118 0.386313 0
0.451179 0.388403 0
0.493721 0.39057 0
0.535821 0.39263 0
0.576822 0.394598 0
0.616693 0.396582 0
0.655695 0.398703 0
0.693324 0.401022 0
0.729488 0.403296 0
0.763699 0.405707 0
0.796155 0.40824 0
0.827512 0.411276 0
0.857954 0.414832 0
0.887373 0.418997 0
0.915908 0.423636 0
0.940551 0.428687 0
0.953674 0.434134 0
0.964828 0.43978 0
0.975952 0.445579 0
0.987106 0.451545 0
0.998215 0.457496 0
0 0.416953 0.0641947
0.00714122 0.417029 0.0641184
0.0182498 0.417273 0.063798
0.0294499 0.417746 0.0630503
0.0412604 0.418769 0.0617838
0.0528115 0.42005 0.059556
0.112215 0.421515 0.0555734
0.181262 0.422522 0.0478065
0.233997 0.423056 0.0346685
0.279683 0.423728 0.0174411
0.323445 0.424262 0.00419623
0.365911 0.424933 0.00077821
0.407919 0.425483 9.15541e-05
0.450019 0.426505 0
0.492287 0.428138 0
0.534203 0.429923 0
0.574929 0.431617 0
0.614816 0.433234 0
0.653544 0.434928 0
0.691127 0.436744 0
0.727031 0.438407 0
0.761242 0.439963 0
0.794186 0.441764 0
0.826001 0.444068 0
0.856458 0.446754 0
0.885985 0.449943 0
0.914443 0.453758 0
0.940215 0.458 0
0.953567 0.462501 0
0.964752 0.467323 0
0.975906 0.471641 0
0.987015 0.476158 0
0.998169 0.481178 0
0 0.457328 0.0766003
0.00657664 0.457496 0.0767376
0.0176394 0.457649 0.0766003
0.0287633 0.458076 0.0759899
0.0407416 0.458824 0.0750439
0.0524147 0.46006 0.0736553
0.107668 0.461494 0.071519
0.179492 0.462501 0.0682536
0.234577 0.463127 0.0628061
0.28069 0.463447 0.0530098
0.324636 0.463844 0.0359197
0.367361 0.464073 0.0153658
0.409125 0.464424 0.00387579
0.450248 0.464515 0.000946059
0.491478 0.465156 0.000122072
0.532601 0.466331 0
0.573129 0.467658 0
0.612787 0.469017 0
0.651316 0.470375 0
0.688624 0.471672 0
0.724285 0.472786 0
0.758511 0.473823 0
0.791348 0.475074 0
0.823438 0.476661 0
0.854337 0.478706 0
0.884245 0.481102 0
0.912917 0.483986 0
0.939406 0.487327 0
0.95346 0.491218 0
0.964706 0.495293 0
0.975814 0.499489 0
0.986969 0.503212 0
0.998123 0.507988 0
0 0.496269 0.0917525
0.0059205 0.496284 0.0916915
0.0170291 0.496422 0.0915541
0.0281529 0.49691 0.0912947
0.0402228 0.49752 0.0906081
0.0520027 0.498436 0.0896925
0.111711 0.499626 0.0884413
0.184207 0.50103 0.0863966
0.238453 0.501534 0.0828107
0.284291 0.501793 0.0779736
0.327871 0.501839 0.0711833
0.370016 0.501976 0.0611582
0.411261 0.501884 0.0432441
0.45214 0.5019 0.0196994
0.492027 0.501808 0.00541695
0.532082 0.50193 0.00166323
0.571771 0.502663 0.000320439
0.610956 0.503609 1.5259e-05
0.649195 0.504677 0
0.686168 0.505562 0
0.72166 0.506096 0
0.755627 0.506722 0
0.788556 0.507576 0
0.820539 0.508812 0
0.851453 0.510277 0
0.881621 0.512139 0
0.910674 0.514305 0
0.937682 0.517006 0
0.953124 0.520012 0
0.964569 0.523415 0
0.975723 0.525704 0
0.986893 0.527611 0
0.998001 0.531685 0
0 0.533303 0.108537
0.00527962 0.533318 0.108537
0.0162509 0.533425 0.108415
0.027451 0.5337 0.108171
0.0396887 0.534218 0.107744
0.053727 0.535088 0.107103
0.124437 0.536065 0.106203
0.196307 0.53727 0.104967
0.246555 0.538125 0.102678
0.290944 0.538201 0.0989395
0.333257 0.538048 0.0941024
0.374517 0.537987 0.0882887
0.414816 0.537865 0.0809949
0.454826 0.537514 0.071458
0.494011 0.537224 0.0537423
0.532692 0.536767 0.029099
0.571328 0.536706 0.00909438
0.609567 0.537102 0.00334173
0.647318 0.537728 0.00204471
0.683818 0.538155 0.00105287
0.718975 0.538476 0.000167849
0.752834 0.538811 0
0.785702 0.539361 0
0.817624 0.540169 0
0.848722 0.541283 0
0.878599 0.542824 0
0.907759 0.544579 0
0.93521 0.546639 0
0.952621 0.54902 0
0.964523 0.551034 0
0.975692 0.551598 0
0.986801 0.553048 0
0.997909 0.556573 0
0 0.568231 0.125948
0.00448615 0.568368 0.126009
0.0155489 0.568429 0.125948
0.0269474 0.568658 0.125826
0.0408637 0.569055 0.125597
0.0887007 0.56968 0.125063
0.157687 0.570611 0.124468
0.212024 0.571618 0.123629
0.258183 0.572625 0.122423
0.300481 0.572961 0.119753
0.340978 0.572686 0.115877
0.380804 0.572366 0.111254
0.420005 0.572061 0.105867
0.458869 0.571572 0.0993668
0.497215 0.571145 0.0915541
0.534936 0.570672 0.0817273
0.57232 0.570016 0.0670329
0.609308 0.56968 0.0458228
0.645945 0.569711 0.0305791
0.681773 0.569787 0.0185397
0.716396 0.569848 0.00764477
0.750195 0.569909 0.00436408
0.782925 0.57026 0.00302129
0.814893 0.570855 0.00198367
0.845792 0.571679 0.000762951
0.875715 0.572808 9.15541e-05
0.904692 0.574197 0
0.932387 0.575982 0
0.952041 0.577432 0
0.964401 0.578454 0
0.975555 0.57937 0
0.986709 0.580316 0
0.997864 0.582834 0
0.00233463 0.601526 0.143709
0.0061799 0.601541 0.143694
0.017792 0.601602 0.143648
0.0338903 0.601877 0.143648
0.0750439 0.602228 0.14342
0.136172 0.602747 0.143099
0.186801 0.603403 0.142718
0.230381 0.604242 0.142153
0.272145 0.605356 0.141543
0.312139 0.605844 0.139818
0.350835 0.605753 0.136812
0.388891 0.60531 0.133013
0.426719 0.604776 0.128557
0.464012 0.604303 0.123491
0.501244 0.603632 0.11751
0.538003 0.602991 0.110536
0.574365 0.602289 0.102419
0.610132 0.601434 0.092607
0.645518 0.600824 0.0823529
0.680217 0.600336 0.0760815
0.714443 0.59997 0.068452
0.747814 0.600015 0.0547494
0.780392 0.600229 0.0387732
0.812192 0.600656 0.0271458
0.842954 0.601297 0.0145724
0.872908 0.602197 0.00761425
0.901701 0.603342 0.00494392
0.929412 0.604654 0.00318914
0.951263 0.606271 0.00189212
0.964309 0.607736 0.000335698
0.975464 0.607843 0
0.986618 0.607843 0
0.997772 0.610056 0
0.0500038 0.633112 0.161608
0.0543374 0.633112 0.161624
0.0744488 0.633158 0.161639
0.105699 0.63328 0.161593
0.140063 0.633539 0.161425
0.175967 0.633936 0.161257
0.212894 0.634577 0.161105
0.250034 0.635233 0.160723
0.287861 0.636027 0.160235
0.325567 0.636851 0.159518
0.362097 0.63682 0.157366
0.398138 0.636316 0.154177
0.43418 0.635813 0.150515
0.470176 0.635126 0.146258
0.505989 0.634485 0.141436
0.541527 0.633661 0.135927
0.576928 0.632898 0.129671
0.611673 0.63212 0.122652
0.646052 0.631159 0.114382
0.680079 0.630365 0.106065
0.713252 0.629694 0.101381
0.745785 0.629328 0.0974441
0.778195 0.629297 0.0920729
0.809659 0.629618 0.0861067
0.840253 0.630137 0.0792706
0.870008 0.630854 0.0700389
0.898619 0.631739 0.0526589
0.926146 0.632807 0.0363165
0.950317 0.633906 0.0236515
0.964172 0.633814 0.00863661
0.975433 0.632532 0.00151064
0.986542 0.632013 0.000106813
0.99765 0.633524 0
0.122408 0.662928 0.179858
0.12462 0.662928 0.179858
0.137392 0.663096 0.179904
0.154253 0.663203 0.179858
0.178958 0.663386 0.179843
0.207095 0.663706 0.179675
0.237964 0.664118 0.179492
0.270817 0.664652 0.179309
0.304677 0.665385 0.179095
0.339956 0.666117 0.178775
0.374716 0.666484 0.17763
0.408911 0.666087 0.175051
0.443122 0.665461 0.171801
0.477516 0.664866 0.168215
0.511986 0.664103 0.16405
0.546212 0.663386 0.159533
0.580301 0.662486 0.15433
0.614145 0.661662 0.148577
0.647852 0.660685 0.14197
0.680766 0.659831 0.134752
0.71339 0.658976 0.127428
0.745052 0.658152 0.123522
0.776303 0.65771 0.120546
0.807279 0.65774 0.116716
0.837705 0.658137 0.112383
0.867033 0.658656 0.107439
0.89546 0.659312 0.101991
0.922683 0.660075 0.095613
0.947646 0.660044 0.0848859
0.963561 0.6589 0.0582742
0.97525 0.657389 0.0218967
0.986404 0.656672 0.0074464
0.997559 0.657954 0.00486763
0.160601 0.691432 0.197696
0.161822 0.691447 0.197711
0.174487 0.69163 0.197971
0.189731 0.69192 0.19823
0.210971 0.69218 0.198337
0.235279 0.692424 0.198245
0.262715 0.69276 0.198184
0.291966 0.693172 0.198093
0.322911 0.69369 0.19794
0.355322 0.694392 0.19791
0.388449 0.694896 0.197406
0.42089 0.694743 0.19559
0.453437 0.69424 0.192844
0.486046 0.693553 0.189609
0.519142 0.692897 0.186038
0.552132 0.692058 0.181979
0.585107 0.691279 0.177508
0.617838 0.690349 0.172564
0.650278 0.689494 0.167086
0.682506 0.688624 0.161089
0.714336 0.687633 0.154314
0.74551 0.686748 0.147509
0.775677 0.685771 0.143984
0.805493 0.68513 0.141558
0.835294 0.685267 0.13843
0.864057 0.68545 0.134295
0.891691 0.685466 0.128939
0.918227 0.685481 0.122728
0.943496 0.68545 0.115251
0.9626 0.685344 0.10544
0.975158 0.684718 0.0906386
0.986313 0.684474 0.0614176
0.997467 0.685557 0.0462806
0.1944 0.719463 0.216434
0.194491 0.719463 0.216434
0.206622 0.719768 0.216846
0.220523 0.719829 0.216938
0.239963 0.719936 0.216861
0.261967 0.720104 0.216815
0.286412 0.720363 0.216785
0.313191 0.720806 0.216815
0.341711 0.721233 0.216831
0.371527 0.721721 0.216815
0.402808 0.722377 0.216846
0.434058 0.722515 0.2159
0.46511 0.722042 0.213581
0.496223 0.721462 0.210758
0.527459 0.720714 0.207507
0.559121 0.719997 0.203967
0.590921 0.719127 0.199954
0.622629 0.718318 0.195605
0.653956 0.717357 0.190707
0.685176 0.716503 0.185412
0.716075 0.715496 0.179553
0.746441 0.714611 0.173205
0.776287 0.71371 0.16672
0.805158 0.712627 0.163256
0.833478 0.712032 0.161318
0.861997 0.712123 0.158648
0.889937 0.712673 0.155703
0.916808 0.713344 0.152468
0.942611 0.71397 0.148669
0.962249 0.713695 0.142061
0.975021 0.712444 0.131289
0.986191 0.711711 0.119982
0.997391 0.712993 0.113436
0.218357 0.743786 0.230961
0.218357 0.743786 0.230961
0.234226 0.746166 0.234531
0.248463 0.7467 0.235279
0.265492 0.746502 0.234821
0.285512 0.746273 0.234195
0.307744 0.746334 0.233982
0.332631 0.746654 0.234119
0.35938 0.747173 0.234455
0.387793 0.747906 0.234974
0.417533 0.748623 0.235492
0.447837 0.749126 0.235492
0.477394 0.74905 0.234073
0.506981 0.74844 0.23154
0.536828 0.747814 0.228641
0.567117 0.747021 0.225299
0.597559 0.746151 0.221622
0.627985 0.745327 0.217655
0.658213 0.744457 0.21326
0.688441 0.743465 0.208377
0.718151 0.742565 0.203159
0.74789 0.741573 0.197421
0.77705 0.740719 0.191333
0.805783 0.739879 0.184985
0.833234 0.738796 0.181628
0.860227 0.738033 0.179889
0.887327 0.738186 0.177722
0.913588 0.738506 0.17467
0.938231 0.738048 0.169162
0.960449 0.736812 0.160983
0.974716 0.735164 0.150469
0.986053 0.734249 0.140261
0.997253 0.735256 0.13431
0.238972 0.766812 0.244038
0.238972 0.766812 0.244038
0.253666 0.769146 0.247776
0.268681 0.770214 0.2495
0.284001 0.769741 0.248508
0.301381 0.768811 0.246799
0.322164 0.768612 0.246281
0.346258 0.769116 0.246769
0.372091 0.770001 0.247868
0.400061 0.77116 0.249332
0.429313 0.772457 0.250889
0.459419 0.773648 0.252354
0.489021 0.774334 0.252705
0.517784 0.774212 0.251148
0.546365 0.773541 0.248463
0.575051 0.772824 0.24538
0.604105 0.771893 0.241794
0.632975 0.770993 0.237903
0.662028 0.769787 0.23328
0.690578 0.768612 0.228336
0.719371 0.767422 0.223056
0.748028 0.766491 0.217746
0.776532 0.765713 0.212329
0.804761 0.764996 0.206622
0.832593 0.764462 0.20087
0.8589 0.763363 0.197543
0.884169 0.762264 0.195453
0.90927 0.761654 0.191974
0.933501 0.760815 0.186191
0.956466 0.759518 0.178454
0.973693 0.757992 0.168994
0.985977 0.757183 0.160159
0.997131 0.758099 0.155154
0.265644 0.792538 0.262318
0.265644 0.792538 0.262318
0.277256 0.794018 0.264866
0.291676 0.794949 0.266499
0.307271 0.794659 0.265934
0.324224 0.794003 0.264668
0.343771 0.79379 0.264103
0.365896 0.794156 0.264424
0.390005 0.794705 0.26511
0.4159 0.795453 0.266148
0.442771 0.796246 0.26717
0.47071 0.79704 0.268116
0.498741 0.797543 0.268513
0.526497 0.797452 0.267353
0.55378 0.796933 0.265019
0.581018 0.796094 0.261982
0.608576 0.795193 0.258503
0.636332 0.79411 0.25452
0.664134 0.793149 0.250462
0.692409 0.792126 0.246067
0.720424 0.791348 0.241749
0.748623 0.790555 0.23711
0.776425 0.789914 0.232303
0.804028 0.789151 0.226963
0.830961 0.788495 0.221164
0.857237 0.787747 0.214923
0.882048 0.786236 0.210529
0.905791 0.784817 0.207996
0.929992 0.784192 0.204669
0.953521 0.78378 0.199802
0.97293 0.78323 0.193652
0.98584 0.783093 0.187823
0.996994 0.783993 0.184298
0.299504 0.82092 0.287083
0.299504 0.82092 0.287083
0.308751 0.822019 0.289189
0.322927 0.822721 0.2907
0.338201 0.822705 0.290486
0.354376 0.822065 0.289128
0.371466 0.821241 0.287373
0.39057 0.820752 0.286229
0.411597 0.820478 0.285527
0.434577 0.820554 0.285359
0.459236 0.820859 0.28574
0.485496 0.8215 0.286748
0.513191 0.822477 0.28835
0.541146 0.82324 0.289387
0.568292 0.823331 0.288655
0.594781 0.823011 0.286732
0.621637 0.822446 0.284184
0.648493 0.821836 0.281209
0.675486 0.821057 0.27776
0.702419 0.820233 0.274022
0.729397 0.819501 0.270069
0.756161 0.818753 0.265766
0.782849 0.817929 0.261036
0.80911 0.817227 0.256107
0.835172 0.816526 0.250782
0.860731 0.815976 0.245228
0.885832 0.815427 0.239338
0.909331 0.814267 0.235538
0.931731 0.812573 0.233234
0.954025 0.811276 0.229038
0.972763 0.810132 0.222751
0.985702 0.809659 0.217243
0.996902 0.810941 0.216449
0.315175 0.841611 0.298405
0.315175 0.841611 0.298405
0.322667 0.842374 0.300084
0.337118 0.843305 0.302113
0.35111 0.842847 0.301076
0.365499 0.841718 0.298451
0.381735 0.840818 0.296483
0.400412 0.840406 0.29546
0.42092 0.840284 0.295094
0.443229 0.840497 0.295384
0.467536 0.841093 0.296407
0.493355 0.841886 0.297948
0.520333 0.842878 0.299931
0.547784 0.843854 0.301823
0.57467 0.844434 0.302373
0.601022 0.84445 0.301442
0.627176 0.844236 0.299779
0.653193 0.843915 0.297536
0.679271 0.843305 0.294652
0.705455 0.842649 0.291203
0.731319 0.841856 0.287358
0.757366 0.841154 0.283299
0.783093 0.840528 0.279133
0.808957 0.839948 0.2748
0.834562 0.839597 0.270512
0.859586 0.839323 0.26598
0.884245 0.838849 0.260502
0.908186 0.838178 0.254032
0.930175 0.836316 0.248096
0.95082 0.833478 0.242908
0.971145 0.831479 0.236988
0.985397 0.830915 0.231922
0.996689 0.832242 0.231556
0.33106 0.862211 0.310155
0.33106 0.862211 0.310155
0.336706 0.862654 0.311177
0.349889 0.86331 0.312764
0.363607 0.862776 0.311559
0.377844 0.861662 0.308873
0.393683 0.860914 0.307042
0.41239 0.860716 0.306523
0.433051 0.860975 0.306966
