creative/lut-cuisine.cube
TITLE "Generated by Resolve"
LUT_3D_SIZE 9
0 0 0
0.130724 0 0
0.258915 0 0
0.387121 0 0
0.515312 0 0
0.643519 0 0
0.77171 0 0
0.899916 0 0
1 0 0
0.0159762 0.122164 0
0.142733 0.120516 0
0.266423 0.1178 0
0.392706 0.113481 0
0.51957 0.107439 0
0.646906 0.0993362 0
0.774517 0.0887617 0
0.902235 0.0750439 0
1 0.0587778 0
0.0428016 0.245594 0
0.160739 0.244617 0
0.277653 0.24303 0
0.40061 0.240574 0
0.525917 0.237156 0
0.652384 0.232654 0
0.779171 0.227039 0
0.906172 0.220356 0
1 0.2121 0
0.0847181 0.369009 0
0.185977 0.368353 0
0.294163 0.367254 0
0.412558 0.365545 0
0.535119 0.363195 0
0.659785 0.360143 0
0.785595 0.356359 0
0.912047 0.351843 0
1 0.34641 0
0.133165 0.492439 0
0.216846 0.491951 0
0.315816 0.491096 0
0.428428 0.48983 0
0.547417 0.488075 0
0.669718 0.485786 0
0.793851 0.482979 0
0.919142 0.479591 0
1 0.475593 0
0.181613 0.615869 0
0.252155 0.615457 0
0.341711 0.614801 0
0.448066 0.613794 0
0.562905 0.61239 0
0.682368 0.610559 0
0.80441 0.608347 0
0.928206 0.605661 0
1 0.602487 0
0.230076 0.739284 0
0.29044 0.738949 0
0.371496 0.738399 0
0.471229 0.737575 0
0.58143 0.736416 0
0.697505 0.734936 0
0.817288 0.733074 0
0.939208 0.730877 0
1 0.728283 0
0.278523 0.862715 0
0.330938 0.862409 0
0.404028 0.861997 0
0.497459 0.861265 0
0.602716 0.860304 0
0.715297 0.859022 0
0.832288 0.85745 0
0.952102 0.855604 0
1 0.853452 0
0.32697 0.986145 0
0.372824 0.985901 0
0.439597 0.985489 0
0.526604 0.984878 0
0.626902 0.984024 0
0.735531 0.982925 0
0.849439 0.981598 0
0.96701 0.979995 0
1 0.978119 0
0.00318914 0.0009308 0.110063
0.133471 0 0.105196
0.260899 0 0.0987564
0.388876 0 0.0892958
0.517021 0 0.0756847
0.645289 0 0.0585184
0.773632 0 0.0375067
0.901884 0 0.0124819
1 0 0
0.0193027 0.123171 0.0971695
0.145006 0.121584 0.0935988
0.267796 0.118898 0.0875563
0.393683 0.114626 0.0776989
0.520668 0.108553 0.0643778
0.648203 0.100328 0.0473487
0.775952 0.0896773 0.0264591
0.90396 0.0755627 0.00144961
1 0.0592508 0
0.0461585 0.24622 0.0782025
0.162829 0.245289 0.0745251
0.27892 0.243717 0.0683604
0.401541 0.241245 0.0588235
0.526665 0.237827 0.0457008
0.652949 0.233371 0.0287938
0.77995 0.227726 0.00793469
0.907271 0.220874 0
1 0.212558 0
0.0881208 0.369451 0.0491493
0.187884 0.368811 0.0455329
0.29543 0.367727 0.0394293
0.413428 0.366033 0.029984
0.53579 0.363684 0.0169223
0.660319 0.360632 9.15541e-05
0.786023 0.356863 0
0.912505 0.352285 0
1 0.346868 0
0.135668 0.49279 0.00950637
0.218647 0.492287 0.0059205
0.316915 0.491478 0
0.429252 0.490196 0
0.54815 0.488411 0
0.670268 0.486152 0
0.794247 0.483375 0
0.919554 0.479957 0
1 0.475929 0
0.183764 0.616129 0
0.25362 0.615732 0
0.342794 0.615106 0
0.448966 0.614069 0
0.563622 0.612665 0
0.682887 0.610864 0
0.804913 0.608621 0
0.928573 0.605966 0
1 0.602792 0
0.231952 0.739498 0
0.291661 0.739193 0
0.372381 0.738659 0
0.472053 0.737804 0
0.582071 0.73666 0
0.698009 0.73518 0
0.817624 0.733349 0
0.939605 0.731106 0
1 0.728573 0
0.28011 0.862898 0
0.332067 0.862623 0
0.405066 0.862181 0
0.498299 0.861463 0
0.603555 0.860456 0
0.71574 0.859236 0
0.8327 0.857664 0
0.952453 0.855817 0
1 0.853635 0
0.32842 0.986282 0
0.373907 0.986068 0
0.44033 0.985672 0
0.527367 0.985046 0
0.627314 0.984237 0
0.735958 0.983124 0
0.849775 0.981796 0
0.967453 0.980148 0
1 0.978286 0
0.00856031 0.00250248 0.226734
0.137377 0.000747692 0.223529
0.263203 0 0.21915
0.390463 0 0.213199
0.518227 0 0.205463
0.646204 0 0.195666
0.774411 0 0.183368
0.902602 0 0.167987
1 0 0.14876
0.0247807 0.124575 0.218006
0.14876 0.123033 0.215732
0.2701 0.120439 0.212055
0.395254 0.116304 0.206516
0.521904 0.110323 0.198962
0.649149 0.102296 0.189136
0.776776 0.091783 0.176608
0.904601 0.0779431 0.160876
1 0.0613565 0.141024
0.0517128 0.24715 0.206653
0.166308 0.24622 0.204562
0.281178 0.244678 0.201083
0.403128 0.242252 0.195636
0.52784 0.23888 0.188022
0.653925 0.23444 0.177966
0.780728 0.228855 0.164981
0.907988 0.221988 0.148455
1 0.213794 0.127321
0.0933394 0.370153 0.189868
0.190997 0.369512 0.187747
0.297581 0.368429 0.184161
0.414969 0.366751 0.178515
0.53695 0.364431 0.170504
0.66125 0.361395 0.159747
0.786831 0.357626 0.145754
0.913146 0.353094 0.127626
1 0.347662 0.103914
0.139651 0.493339 0.165637
0.221439 0.492836 0.163317
0.318868 0.492042 0.159411
0.430808 0.490745 0.153185
0.549249 0.489006 0.144213
0.671229 0.486717 0.132113
0.795117 0.483909 0.115923
0.920211 0.480537 0.0944533
1 0.476539 0.0656138
0.18677 0.616602 0.130373
0.256062 0.61619 0.127687
0.344701 0.615549 0.123003
0.450263 0.614557 0.11545
0.564706 0.613138 0.104631
0.683742 0.611353 0.0893111
0.805661 0.60911 0.0684215
0.929259 0.606424 0.0435035
1 0.603281 0.0143587
0.234546 0.739879 0.0750744
0.293858 0.739559 0.0714733
0.374197 0.739025 0.0653697
0.47335 0.738201 0.0559091
0.583169 0.737041 0.0428779
0.698924 0.735576 0.0260624
0.818341 0.733745 0.00527962
0.940276 0.731502 0
1 0.728969 0
0.282338 0.863218 0
0.334066 0.862943 0
0.406882 0.862486 0
0.499519 0.861799 0
0.604471 0.860807 0
0.716747 0.859541 0
0.833371 0.858015 0
0.953079 0.856168 0
1 0.853971 0
0.33022 0.986587 0
0.375875 0.986328 0
0.44184 0.985962 0
0.528542 0.985336 0
0.628443 0.984497 0
0.736797 0.983413 0
0.850645 0.982055 0
0.968002 0.980468 0
1 0.978546 0
0.0168917 0.00492866 0.343404
0.143313 0.00321965 0.341054
0.266773 0.000167849 0.337697
0.39295 0 0.33312
0.520104 0 0.327382
0.647761 0 0.320394
0.775647 0 0.312001
0.903609 0 0.302037
1 0 0.290211
0.0332952 0.126558 0.336736
0.154376 0.125109 0.335012
0.273579 0.122606 0.332204
0.397726 0.118608 0.328084
0.523735 0.112856 0.322652
0.650629 0.105043 0.315816
0.777996 0.0948196 0.3075
0.905669 0.0815137 0.297536
1 0.0650797 0.285664
0.0602274 0.248463 0.328084
0.171511 0.247562 0.326589
0.284642 0.246021 0.324071
0.40557 0.243656 0.320226
0.529686 0.240345 0.315007
0.655406 0.235966 0.308309
0.781964 0.230442 0.300008
0.90901 0.223713 0.289952
1 0.215625 0.277928
0.10103 0.371145 0.316121
0.195804 0.370489 0.314687
0.300877 0.369436 0.312306
0.41735 0.367773 0.308568
0.538796 0.365484 0.30338
0.66276 0.362463 0.296696
0.788067 0.358724 0.288289
0.914275 0.354162 0.278004
1 0.348867 0.265614
0.145724 0.494133 0.300175
0.22565 0.493629 0.298741
0.322042 0.492821 0.29633
0.433082 0.491569 0.292546
0.551064 0.489815 0.287266
0.672663 0.487556 0.280385
0.796292 0.484779 0.271626
0.921263 0.481407 0.260929
1 0.477409 0.247929
0.19173 0.617243 0.279255
0.25977 0.616861 0.27776
0.347509 0.61622 0.275212
0.452628 0.615183 0.27126
0.56643 0.613809 0.265675
0.685176 0.612024 0.258366
0.806836 0.609796 0.249073
0.930205 0.607156 0.237537
1 0.603998 0.223438
0.238422 0.740459 0.251865
0.297154 0.740124 0.250263
0.376867 0.73959 0.247517
0.475471 0.738766 0.243214
0.584939 0.737591 0.237125
0.700298 0.736156 0.229038
0.819623 0.734295 0.21883
0.941207 0.732113 0.205921
1 0.729519 0.190021
0.285847 0.863706 0.215732
0.336904 0.863432 0.213855
0.40911 0.862989 0.210742
0.501564 0.862272 0.205814
0.606104 0.861311 0.19881
0.718029 0.860044 0.189425
0.834607 0.858488 0.177432
0.954025 0.856672 0.162066
1 0.854459 0.142657
0.333211 0.987015 0.165896
0.378424 0.98677 0.163653
0.444358 0.986343 0.159762
0.530343 0.985779 0.153613
0.629938 0.984939 0.144762
0.738186 0.983825 0.132723
0.851789 0.982483 0.116732
0.968978 0.980896 0.0954299
1 0.979004 0.066804
0.0284123 0.00830091 0.46009
0.151156 0.00662242 0.458228
0.27158 0.00364691 0.455543
0.396338 0 0.451774
0.522683 0 0.447074
0.649775 0 0.441459
0.777295 0 0.434897
0.905043 0 0.427222
1 0 0.418463
0.0448768 0.129198 0.454719
0.161913 0.127825 0.453269
0.278355 0.125414 0.450965
0.401083 0.121553 0.447623
0.526284 0.11603 0.443244
0.652674 0.108476 0.437827
0.77966 0.0986496 0.431388
0.907073 0.085832 0.423835
1 0.0694896 0.415076
0.0719768 0.250126 0.447562
0.178576 0.249256 0.446342
0.289204 0.247776 0.444343
0.408881 0.245457 0.44126
0.532235 0.242206 0.43714
0.657435 0.237934 0.431952
0.783642 0.232517 0.425635
0.910414 0.225895 0.418173
1 0.217807 0.409415
0.111116 0.372396 0.437934
0.202197 0.371756 0.43682
0.305241 0.370733 0.434943
0.4206 0.369085 0.43209
0.541329 0.366812 0.428122
0.66482 0.363821 0.423087
0.7897 0.360189 0.416892
0.915633 0.355703 0.40943
1 0.350317 0.400656
0.15378 0.495125 0.425589
0.231357 0.494652 0.424521
0.326207 0.493843 0.422721
0.436301 0.492576 0.419913
0.553521 0.490883 0.416052
0.674647 0.48864 0.411032
0.797955 0.485878 0.404837
0.922698 0.482506 0.397314
1 0.478599 0.388418
0.19826 0.618097 0.410147
0.264942 0.6177 0.409064
0.351461 0.617075 0.407248
0.455604 0.616053 0.40444
0.568887 0.614679 0.400549
0.687205 0.612879 0.395468
0.808484 0.610697 0.389136
0.931579 0.608087 0.38143
1 0.604883 0.372305
0.244053 0.741176 0.390906
0.301717 0.740856 0.389807
0.380545 0.740322 0.387945
0.478309 0.739513 0.385046
0.587243 0.738338 0.381033
0.702281 0.736873 0.37583
0.821241 0.735058 0.369223
0.94255 0.732891 0.361212
1 0.730297 0.351659
0.29041 0.864347 0.367163
0.340887 0.864088 0.366033
0.412589 0.863615 0.36405
0.50425 0.862928 0.360998
0.608515 0.861921 0.356802
0.719875 0.860716 0.351263
0.836133 0.859159 0.344289
0.955505 0.857298 0.335821
1 0.855116 0.325658
0.337438 0.987564 0.337728
0.381994 0.987335 0.336507
0.447105 0.986954 0.334432
0.532982 0.986343 0.331151
0.632166 0.985504 0.326558
0.740032 0.984405 0.320577
0.853346 0.983063 0.313039
0.970352 0.981476 0.303777
1 0.979568 0.292576
0.0433051 0.0126497 0.576761
0.160967 0.010956 0.575265
0.277729 0.00805676 0.572992
0.400656 0.00335698 0.569818
0.525963 0 0.565805
0.652415 0 0.561028
0.779477 0 0.555535
0.906935 0 0.549187
1 0 0.541985
0.0598764 0.132479 0.57232
0.171252 0.131167 0.571084
0.284367 0.128862 0.569116
0.405417 0.125124 0.566278
0.529564 0.119829 0.562539
0.655283 0.112627 0.557946
0.781842 0.103151 0.552575
0.908904 0.090898 0.54638
1 0.0750134 0.539269
0.0871901 0.252186 0.566186
0.18735 0.251331 0.565118
0.295033 0.249912 0.563394
0.413077 0.247654 0.560815
0.535485 0.244495 0.557351
0.66006 0.240284 0.553017
0.785809 0.235004 0.547814
0.912276 0.228489 0.541741
1 0.220584 0.534722
0.123323 0.373922 0.557946
0.210101 0.373312 0.557
0.310857 0.37229 0.555444
0.42475 0.370672 0.553063
0.544488 0.36846 0.549798
0.667353 0.36553 0.545663
0.791897 0.361883 0.540642
0.917464 0.357488 0.534676
1 0.352193 0.527718
0.16376 0.496345 0.547677
0.238621 0.495872 0.546777
0.331502 0.495094 0.545312
0.440146 0.493874 0.543053
0.556634 0.492164 0.539895
0.677241 0.489937 0.535882
0.800107 0.487205 0.530938
0.924529 0.483879 0.525048
1 0.479988 0.518151
0.206546 0.61912 0.535058
0.271214 0.618753 0.534218
0.356512 0.618097 0.532799
0.459525 0.61709 0.530587
0.571893 0.615747 0.527474
0.689677 0.613977 0.523537
0.810605 0.61178 0.518654
0.933547 0.60911 0.512718
1 0.606058 0.50576
0.251072 0.742061 0.51989
0.307439 0.741756 0.519051
0.384985 0.741238 0.517632
0.482063 0.740398 0.515404
0.590265 0.739239 0.512306
0.704738 0.737804 0.508339
0.82327 0.735988 0.503365
0.944396 0.733806 0.497414
1 0.731258 0.490379
0.296422 0.865125 0.501732
0.34612 0.864851 0.500862
0.416785 0.864408 0.499443
0.507759 0.863722 0.497169
0.611139 0.86276 0.494011
0.722454 0.861463 0.489952
0.838224 0.859953 0.484871
0.957336 0.858091 0.478782
1 0.85594 0.471519
0.342657 0.988251 0.48011
0.386526 0.988037 0.479179
0.451225 0.98764 0.477668
0.53637 0.98703 0.475349
0.634974 0.986206 0.472099
0.742275 0.985122 0.467887
0.855375 0.983764 0.462593
0.972076 0.982193 0.45626
1 0.980301 0.448676
0.0616922 0.0180209 0.693431
0.172457 0.0163424 0.692195
0.285145 0.0134279 0.690288
0.405936 0.00885023 0.687526
0.529961 0.00233463 0.684031
0.655604 0 0.67985
0.782147 0 0.674983
0.909178 0 0.66952
1 0 0.663386
0.0783551 0.136446 0.689647
0.182239 0.13518 0.688594
0.29163 0.132967 0.6869
0.410574 0.129442 0.684382
0.533562 0.124331 0.681086
0.658534 0.117357 0.677119
0.784543 0.108278 0.67245
0.911208 0.0965591 0.667094
1 0.081651 0.661036
0.104143 0.254658 0.684276
0.197696 0.253834 0.683375
0.302083 0.252461 0.681865
0.41828 0.250233 0.679606
0.539498 0.247135 0.676555
0.663218 0.243107 0.672801
0.788479 0.237888 0.668299
0.91458 0.231495 0.663111
1 0.22385 0.657176
0.137148 0.375738 0.677073
0.219623 0.375128 0.676219
0.317754 0.37409 0.674907
0.42977 0.372549 0.672801
0.548455 0.370352 0.669978
0.670466 0.367529 0.666423
0.794491 0.363943 0.66212
0.919692 0.359594 0.657069
1 0.354406 0.65127
0.175219 0.497795 0.66807
0.247196 0.497322 0.667323
0.337926 0.496559 0.666056
0.445182 0.495323 0.664134
0.560586 0.493629 0.661463
0.680354 0.491478 0.658045
0.802792 0.488746 0.653925
0.926635 0.485557 0.648966
1 0.481651 0.643259
0.21651 0.620295 0.657313
0.279072 0.619944 0.656611
0.362554 0.619303 0.655406
0.464149 0.618341 0.653513
0.575692 0.616983 0.65095
0.692805 0.615228 0.647639
0.813199 0.613062 0.643549
0.935683 0.610468 0.638712
1 0.607401 0.633036
0.259297 0.743099 0.644541
0.314351 0.742794 0.643854
0.390723 0.74226 0.64268
0.48661 0.741451 0.640833
0.593866 0.740322 0.6383
0.707774 0.738872 0.635035
0.825849 0.737072 0.631022
0.946593 0.73492 0.626169
1 0.732357 0.620508
0.303807 0.866026 0.629602
0.352514 0.865751 0.628885
0.42211 0.865324 0.627726
0.512078 0.864637 0.625864
0.614694 0.863691 0.623362
0.725338 0.862425 0.620111
0.840665 0.860929 0.616068
0.959365 0.859098 0.61117
1 0.856947 0.605432
0.348989 0.989075 0.612131
0.392248 0.988861 0.611414
0.456001 0.988464 0.610239
0.540413 0.987854 0.608408
0.638437 0.987015 0.605798
0.74519 0.985962 0.602518
0.857832 0.984604 0.598413
0.974212 0.983032 0.5935
1 0.981186 0.587625
0.0839399 0.0244602 0.810101
0.185458 0.0227817 0.809033
0.293706 0.0199741 0.807385
0.412146 0.0153811 0.804959
0.534752 0.00891127 0.801892
0.65951 0.000274662 0.798154
0.785336 0 0.79382
0.911894 0 0.788952
1 0 0.78352
0.0994278 0.141085 0.806851
0.194736 0.139849 0.805905
0.300099 0.137713 0.804425
0.4168 0.134295 0.802167
0.538308 0.129427 0.799298
0.662303 0.122805 0.795743
0.787732 0.114061 0.791562
0.913893 0.102968 0.786816
1 0.0888838 0.781415
0.122255 0.257557 0.802075
0.209415 0.256748 0.801266
0.310338 0.25539 0.799924
0.424308 0.253254 0.797925
0.544198 0.250233 0.795209
0.667079 0.24625 0.791852
0.791608 0.241245 0.787869
0.917296 0.234943 0.783261
1 0.227466 0.778042
0.152758 0.377813 0.795605
0.230503 0.377234 0.794903
0.325521 0.376272 0.793652
0.435721 0.374701 0.791821
0.553033 0.372595 0.789334
0.674342 0.369726 0.786206
0.797726 0.366217 0.782391
0.922408 0.361959 0.777951
1 0.356909 0.772854
0.188342 0.499443 0.787594
0.257084 0.498985 0.786938
0.345495 0.498222 0.785794
0.451041 0.497002 0.784085
0.565057 0.495399 0.781735
0.684016 0.493263 0.778744
0.805859 0.490562 0.775128
0.929488 0.487282 0.77084
1 0.483497 0.765911
0.227558 0.621683 0.778058
0.287877 0.621363 0.777401
0.369558 0.620706 0.776394
0.469825 0.619715 0.774762
0.580148 0.618418 0.772503
0.696513 0.616663 0.769619
0.816327 0.614527 0.76611
0.938369 0.611933 0.761944
1 0.608927 0.757107
0.268849 0.744305 0.766918
0.32256 0.743984 0.766323
0.397269 0.743481 0.765301
0.491875 0.742672 0.763699
0.59823 0.741527 0.761547
0.711376 0.740108 0.75874
0.828901 0.738323 0.755322
0.949218 0.736187 0.751171
1 0.733623 0.74638
0.312047 0.867094 0.75404
0.359655 0.866835 0.753414
0.428229 0.866392 0.752422
0.517143 0.865705 0.750912
0.618997 0.864744 0.74873
0.728695 0.863539 0.745983
0.843717 0.861997 0.742596
0.96202 0.860182 0.738521
1 0.858015 0.733715
0.356374 0.990021 0.739208
0.398962 0.989792 0.738598
0.461631 0.989425 0.737652
0.545296 0.9888 0.736095
0.642557 0.987961 0.733944
0.748562 0.986923 0.731228
0.86067 0.985595 0.727794
0.976638 0.984054 0.72369
1 0.982162 0.718883
0.107424 0.0319829 0.926772
0.199771 0.0303044 0.925856
0.303563 0.0274815 0.924422
0.419333 0.0229648 0.92224
0.540352 0.016495 0.919493
0.663951 0.00808728 0.916136
0.789075 0 0.91223
0.915053 0 0.907835
1 0 0.902907
0.121065 0.146319 0.923934
0.208576 0.145144 0.92311
0.309743 0.143099 0.921767
0.423896 0.139818 0.919768
0.543847 0.135119 0.917159
0.666758 0.128801 0.913954
0.791424 0.120516 0.91014
0.91696 0.110124 0.905867
1 0.0964218 0.901076
0.141588 0.260853 0.919646
0.222568 0.260075 0.918929
0.319783 0.258762 0.917693
0.431342 0.256687 0.915862
0.549691 0.253712 0.913451
0.671427 0.249912 0.910414
0.795346 0.244938 0.906798
0.920378 0.238895 0.902708
1 0.231525 0.897948
0.169436 0.380194 0.913802
0.242725 0.379629 0.91313
0.334615 0.378683 0.912016
0.442573 0.377157 0.910369
0.558465 0.375067 0.908125
0.678614 0.372351 0.905241
0.801297 0.368887 0.901839
0.925475 0.364721 0.897856
1 0.359609 0.893309
0.202686 0.501335 0.906508
0.26833 0.500862 0.905913
0.354177 0.500099 0.904891
0.457542 0.498955 0.903365
0.570474 0.497307 0.901228
0.68838 0.495232 0.898573
0.809445 0.492607 0.895308
0.93254 0.489387 0.891524
1 0.485649 0.887114
0.239948 0.623255 0.897902
0.298161 0.622904 0.897353
0.377646 0.622293 0.896376
0.476249 0.621302 0.894957
0.585229 0.620035 0.892943
0.700679 0.618326 0.890379
0.819883 0.616175 0.887282
0.941405 0.613642 0.883558
1 0.610605 0.879301
0.279805 0.745632 0.887938
0.331746 0.745327 0.887388
0.404929 0.744823 0.886473
0.498116 0.744015 0.885084
0.603281 0.742901 0.883177
0.715496 0.741512 0.88069
0.832547 0.739696 0.877684
0.9523 0.737591 0.874083
1 0.735134 0.869841
0.321599 0.868269 0.876509
0.36791 0.868025 0.87599
0.435294 0.867567 0.875135
0.52311 0.86688 0.873762
0.623728 0.865965 0.87187
0.732982 0.864698 0.869444
0.847272 0.863203 0.866499
0.965011 0.861418 0.862928
1 0.859266 0.858763
0.364797 0.991089 0.863493
0.406699 0.990829 0.863005
0.468513 0.990448 0.862119
0.550652 0.989899 0.860822
0.647196 0.989044 0.858946
0.752621 0.987991 0.85658
0.864134 0.986679 0.85362
0.979812 0.985092 0.85008
1 0.983276 0.846006
