creative/lut-kodak-5207-cool.cube
TITLE "Generated by Resolve"
LUT_3D_SIZE 9
0.0762798 0.00639353 0
0.167117 0.00303655 0
0.254337 0.0118105 0
0.384894 0.0412299 0
0.537148 0.0732891 0
0.65066 0.116991 0
0.715389 0.163287 0
0.736446 0.163973 0
0.767117 0.15581 0
0.0743267 0.0640421 0.0103456
0.16231 0.0689403 0
0.269993 0.0754559 0
0.390555 0.0871138 0
0.53254 0.142885 0
0.661601 0.184939 0
0.746914 0.232151 0
0.786191 0.267399 0
0.802243 0.262089 0
0.0286564 0.220661 0.123842
0.154986 0.193072 0.0131838
0.272465 0.213748 0
0.426001 0.206607 0
0.550881 0.23682 0
0.648798 0.283207 0
0.736431 0.317693 0.00469978
0.787274 0.342061 0.0107576
0.819089 0.352544 0.0180209
0.0645762 0.36318 0.21648
0.129702 0.381064 0.113603
0.282261 0.363729 0.0488289
0.451438 0.376928 0.0532387
0.617487 0.359731 0.0269627
0.689937 0.370565 0.0247654
0.751339 0.384894 0.0334783
0.783352 0.395377 0.0269932
0.815244 0.405142 0.0346685
0.125887 0.437263 0.310277
0.155001 0.470161 0.252949
0.25565 0.490135 0.124147
0.438987 0.474754 0.0758526
0.618296 0.472572 0.0605631
0.735042 0.458869 0.0505531
0.770489 0.449332 0.0504005
0.802563 0.452567 0.0459144
0.83682 0.46038 0.0452277
0.137789 0.513481 0.419089
0.169787 0.535546 0.427726
0.264042 0.560265 0.294209
0.433936 0.529015 0.0969863
0.632609 0.527184 0.0755169
0.7122 0.521385 0.0649271
0.783825 0.510674 0.0523537
0.841154 0.516503 0.0687572
0.883803 0.53402 0.0595712
0.149035 0.567452 0.508049
0.180438 0.58471 0.530159
0.268193 0.623209 0.489769
0.408698 0.587427 0.194278
0.59353 0.560769 0.0792706
0.712535 0.558694 0.0677806
0.794293 0.568978 0.0689708
0.870741 0.581689 0.0648051
0.918959 0.597803 0.0771801
0.151659 0.602853 0.581659
0.17818 0.61561 0.599268
0.256153 0.652934 0.590616
0.418173 0.655146 0.410925
0.590005 0.60882 0.138247
0.732357 0.606638 0.0840925
0.819776 0.622217 0.0726635
0.888533 0.632334 0.0846571
0.932021 0.640925 0.0953231
0.162188 0.626719 0.631052
0.189212 0.642329 0.637675
0.249897 0.671107 0.63917
0.404501 0.693721 0.495964
0.607034 0.646342 0.233738
0.752651 0.650919 0.1037
0.844953 0.659678 0.0902724
0.901808 0.663676 0.0915084
0.915511 0.67425 0.155245
0.078294 0.043946 0.0783856
0.165194 0.0579995 0.0720989
0.295109 0.0213169 0.0126345
0.415015 0.0315709 0
0.553399 0.0652018 0
0.661021 0.140993 0
0.736736 0.185504 0
0.749081 0.138567 0
0.771069 0.0977493 0
0.0350958 0.103578 0.129946
0.16173 0.123766 0.109102
0.317632 0.0912642 0.0243992
0.434699 0.0739147 0
0.554604 0.134279 0
0.660792 0.210452 0.0111238
0.746975 0.249714 0
0.791959 0.256397 0
0.802686 0.240681 0
0.0347906 0.248692 0.244465
0.124804 0.218723 0.189624
0.286091 0.239765 0.0878157
0.462821 0.231144 0.0545205
0.577142 0.247807 0.0168002
0.678233 0.280858 0.0069276
0.766842 0.305379 0.00538643
0.826001 0.32723 0.0109865
0.844434 0.355871 0.0284886
0.0736858 0.384329 0.336095
0.0927291 0.401572 0.334203
0.25568 0.399817 0.219806
0.456748 0.397879 0.16405
0.621195 0.385504 0.117067
0.725765 0.381659 0.0522621
0.791135 0.388418 0.0312047
0.831312 0.408896 0.0348974
0.86659 0.431495 0.0474708
0.118257 0.462867 0.388327
0.143038 0.482643 0.403235
0.23061 0.533501 0.364477
0.428763 0.524025 0.234577
0.615961 0.520806 0.187839
0.764736 0.494011 0.100893
0.826139 0.478676 0.0674296
0.851804 0.482597 0.0602579
0.880751 0.496773 0.0604562
0.139864 0.527367 0.457496
0.148836 0.532662 0.4598
0.228412 0.580591 0.488563
0.372656 0.579812 0.278386
0.594812 0.565667 0.151385
0.762539 0.564569 0.0897383
0.849622 0.545739 0.0706188
0.879744 0.553384 0.0800946
0.898695 0.554452 0.0774853
0.147005 0.571511 0.541054
0.15906 0.577951 0.546883
0.227848 0.62295 0.575021
0.354391 0.627665 0.424964
0.598337 0.593851 0.154025
0.763653 0.6 0.0766918
0.832914 0.602625 0.0803845
0.884459 0.591226 0.0819562
0.918257 0.605447 0.0959029
0.153918 0.606424 0.593057
0.173388 0.621225 0.613626
0.239033 0.655863 0.631067
0.352285 0.685756 0.580285
0.551766 0.633265 0.246586
0.756207 0.628046 0.0906844
0.829572 0.634073 0.0871595
0.888899 0.634882 0.0986801
0.909514 0.647181 0.136385
0.163348 0.633509 0.647623
0.188083 0.646876 0.65539
0.245686 0.67953 0.672465
0.34667 0.719966 0.67805
0.559335 0.695903 0.464256
0.734966 0.655756 0.179599
0.849546 0.662593 0.102708
0.897261 0.664393 0.119615
0.874739 0.689174 0.244526
0.0884108 0.0910811 0.22829
0.159976 0.134691 0.233036
0.27744 0.124483 0.197391
0.395758 0.108202 0.16141
0.505669 0.113481 0.117723
0.64448 0.178347 0.121416
0.734249 0.198856 0.0696117
0.758053 0.149172 0
0.776623 0.118425 0
0.0501564 0.134035 0.229511
0.154009 0.166613 0.263737
0.27071 0.21796 0.25594
0.452674 0.197772 0.214771
0.556588 0.210468 0.157214
0.647639 0.260716 0.150881
0.739391 0.291203 0.105928
0.801816 0.300557 0.0809339
0.824063 0.276204 0.0323033
0.0447089 0.218265 0.323629
0.0772106 0.232883 0.346365
0.251759 0.274617 0.333974
0.478737 0.292302 0.232288
0.595117 0.298634 0.172274
0.66891 0.330785 0.131807
0.746944 0.347036 0.130098
0.79913 0.367254 0.101915
0.83624 0.371252 0.0870375
0.0753643 0.348379 0.41796
0.0899062 0.37792 0.445716
0.208057 0.416022 0.447684
0.448814 0.439231 0.304692
0.623865 0.436896 0.252811
0.713054 0.415778 0.163088
0.792935 0.41387 0.111711
0.845075 0.427115 0.0924697
0.870512 0.450568 0.110369
0.132174 0.458839 0.496117
0.141878 0.489723 0.504143
0.192599 0.552911 0.548501
0.358984 0.562707 0.447807
0.61117 0.553765 0.345541
0.734295 0.537697 0.29099
0.81593 0.512505 0.17998
0.857511 0.513985 0.12726
0.889067 0.528649 0.151064
0.142214 0.540963 0.550607
0.14435 0.55906 0.542794
0.215579 0.602625 0.581018
0.334218 0.637644 0.545525
0.562509 0.625071 0.382025
0.714412 0.622217 0.348791
0.808652 0.600183 0.260136
0.867491 0.587671 0.200366
0.87718 0.603815 0.214313
0.146807 0.58439 0.592599
0.144625 0.590555 0.582025
0.198306 0.614939 0.600732
0.308293 0.665293 0.614649
0.515831 0.649409 0.401968
0.720867 0.640513 0.258305
0.827207 0.640986 0.195941
0.874739 0.636774 0.196674
0.865721 0.649775 0.255131
0.154986 0.621988 0.627115
0.160922 0.622095 0.636744
0.219013 0.649302 0.654902
0.3066 0.700114 0.678981
0.500389 0.690883 0.526497
0.739162 0.654887 0.228611
0.852918 0.666117 0.136904
0.865553 0.671443 0.197772
0.847303 0.684276 0.33164
0.166781 0.630777 0.657038
0.193668 0.644038 0.669917
0.248142 0.685267 0.697993
0.338491 0.730541 0.722972
0.494057 0.732555 0.627878
0.703731 0.689647 0.370504
0.841108 0.682902 0.176425
0.861418 0.693935 0.259113
0.82562 0.721202 0.432593
0.105364 0.103243 0.448295
0.182116 0.115587 0.456687
0.240986 0.0835737 0.457511
0.315618 0.0820478 0.418677
0.442985 0.125597 0.337423
0.526192 0.16849 0.276768
0.629511 0.198352 0.245243
0.700725 0.211643 0.200366
0.737438 0.201862 0.147677
0.0558022 0.142855 0.416876
0.177203 0.180529 0.457633
0.251011 0.211963 0.480171
0.373587 0.195987 0.449928
0.492653 0.193256 0.369085
0.562203 0.228565 0.299901
0.684047 0.2813 0.29395
0.749157 0.324346 0.297673
0.771496 0.300893 0.231067
0.0607156 0.217594 0.442588
0.0920577 0.214572 0.468162
0.237583 0.284642 0.498161
0.382742 0.342031 0.490959
0.555428 0.328023 0.434424
0.634745 0.335851 0.340215
0.711681 0.392752 0.326207
0.753414 0.424399 0.329274
0.788052 0.445457 0.325536
0.0870375 0.309209 0.477867
0.0881361 0.293202 0.498039
0.158846 0.340047 0.533867
0.362005 0.425116 0.541558
0.605188 0.459342 0.444404
0.702449 0.46566 0.364813
0.746395 0.478325 0.332799
0.77557 0.507164 0.34876
0.797269 0.532494 0.367315
0.131655 0.3776 0.522911
0.13315 0.376471 0.535393
0.16614 0.423758 0.572015
0.299031 0.536919 0.602045
0.571923 0.580118 0.497093
0.726299 0.590616 0.437507
0.77705 0.571267 0.385946
0.803891 0.572274 0.379553
0.822675 0.599756 0.398993
0.153185 0.456107 0.58233
0.156695 0.480507 0.589853
0.196231 0.546471 0.622599
0.298878 0.648722 0.669779
0.492302 0.655482 0.587243
0.703029 0.659983 0.499001
0.776562 0.664378 0.494469
0.819425 0.663966 0.485069
0.826581 0.676234 0.494591
0.150835 0.537942 0.626612
0.154131 0.564767 0.636423
0.19234 0.603815 0.65037
0.309224 0.692897 0.698787
0.468315 0.708843 0.64509
0.678676 0.705501 0.544411
0.772473 0.721859 0.550027
0.819104 0.725521 0.551507
0.83238 0.732113 0.569436
0.159426 0.581277 0.656596
0.168597 0.603555 0.664271
0.209384 0.629953 0.682872
0.297765 0.7037 0.719905
0.461219 0.733928 0.703166
0.674159 0.726131 0.565988
0.778119 0.738689 0.54461
0.811322 0.760678 0.565942
0.841779 0.761212 0.597803
0.178408 0.603174 0.672587
0.202533 0.628489 0.686091
0.24712 0.661372 0.70956
0.32372 0.723156 0.745708
0.453147 0.75288 0.762905
0.655558 0.755856 0.627329
0.776974 0.748775 0.542931
0.815717 0.770443 0.562722
0.838788 0.789349 0.618662
0.137545 0.141985 0.593622
0.213245 0.135058 0.592157
0.269032 0.0933394 0.572824
0.291814 0.0689097 0.556252
0.363409 0.0934462 0.520455
0.477104 0.134768 0.470054
0.570626 0.180636 0.442237
0.64181 0.222934 0.43505
0.694987 0.260243 0.443534
0.0728313 0.177661 0.56376
0.196735 0.2112 0.602197
0.288334 0.210513 0.603143
0.354147 0.154559 0.607355
0.416403 0.150973 0.575402
0.51809 0.187778 0.497261
0.592935 0.229358 0.453727
0.656458 0.27422 0.448157
0.718486 0.322011 0.436042
0.0690013 0.236454 0.569665
0.112032 0.23917 0.596521
0.256184 0.299748 0.612711
0.370382 0.318242 0.633646
0.48539 0.286778 0.610712
0.585107 0.29482 0.527703
0.636149 0.320104 0.478019
0.7066 0.37792 0.471107
0.761669 0.447456 0.479789
0.114443 0.326329 0.573877
0.110948 0.306264 0.597406
0.174762 0.344656 0.628672
0.356298 0.43447 0.645762
0.524178 0.486259 0.621485
0.666438 0.474006 0.581537
0.709316 0.465019 0.516289
0.763088 0.521263 0.524834
0.802197 0.572915 0.545815
0.152193 0.38088 0.586465
0.145571 0.382544 0.604166
0.167239 0.401053 0.629114
0.278264 0.491051 0.65716
0.515175 0.580713 0.651514
0.709926 0.60734 0.605524
0.773175 0.615991 0.56405
0.805158 0.635203 0.560784
0.824903 0.665919 0.580957
0.162234 0.430045 0.614725
0.161013 0.432242 0.621668
0.173693 0.453269 0.635462
0.266514 0.554131 0.689769
0.452964 0.644114 0.698863
0.687007 0.692851 0.624659
0.785229 0.705364 0.621149
0.82533 0.713481 0.610437
0.839551 0.727321 0.628275
0.157733 0.476081 0.649119
0.15787 0.488014 0.649088
0.180056 0.512047 0.656947
0.288991 0.627359 0.716731
0.443015 0.70277 0.748379
0.644083 0.735805 0.686168
0.769024 0.757443 0.659434
0.822187 0.765103 0.668269
0.849622 0.770871 0.68333
0.162768 0.50959 0.668727
0.177096 0.527398 0.676875
0.214069 0.577371 0.694469
0.304814 0.673457 0.7393
0.465492 0.734966 0.773281
0.638956 0.768627 0.744381
0.768597 0.789059 0.691188
0.819821 0.806943 0.708553
0.847852 0.807416 0.712322
0.195499 0.546578 0.69752
0.223697 0.586297 0.707805
0.273259 0.643091 0.73109
0.350225 0.709331 0.76875
0.480583 0.747875 0.79144
0.666636 0.786862 0.759991
0.773938 0.808515 0.713985
0.82443 0.827466 0.716686
0.85359 0.832013 0.741436
0.188525 0.211002 0.676753
0.261128 0.180423 0.671458
0.317876 0.130419 0.654948
0.343969 0.0962539 0.629602
0.407355 0.115373 0.631724
0.511315 0.155062 0.589288
0.610422 0.205341 0.561349
0.666575 0.262425 0.559823
0.717769 0.317586 0.571984
0.117113 0.232578 0.657572
0.231754 0.269169 0.678065
0.33579 0.249363 0.692515
0.404578 0.184543 0.667231
0.435233 0.149981 0.649989
0.519539 0.181643 0.609033
0.608759 0.238087 0.576822
0.668681 0.308904 0.567987
0.711513 0.368002 0.587228
0.100099 0.266224 0.669047
0.161654 0.303655 0.689952
0.306737 0.351278 0.705165
0.429816 0.342916 0.723949
0.503029 0.26978 0.70312
0.560143 0.269017 0.653178
0.637324 0.316991 0.612497
0.68545 0.37464 0.59617
0.730999 0.435737 0.606332
0.142687 0.346578 0.652934
0.141619 0.344045 0.667643
0.22977 0.399664 0.692805
0.393271 0.462684 0.722316
0.544991 0.466346 0.75024
0.643336 0.440574 0.708171
0.703563 0.473259 0.650767
0.734676 0.504067 0.643397
0.77084 0.552056 0.635599
0.154376 0.402167 0.650294
0.163882 0.400824 0.667384
0.19144 0.435065 0.683421
0.297276 0.512459 0.703487
0.52546 0.590402 0.722881
0.679713 0.639551 0.696605
0.760815 0.649424 0.700938
0.789197 0.64799 0.680812
0.824918 0.679866 0.69221
0.163439 0.443793 0.663691
0.166659 0.442756 0.673167
0.19379 0.467567 0.685023
0.276722 0.549371 0.713619
0.437827 0.63154 0.741497
0.681819 0.706004 0.737438
0.781125 0.733486 0.728527
0.834012 0.735958 0.719722
0.851133 0.748959 0.721645
0.173404 0.473228 0.68658
0.178241 0.48423 0.689479
0.212161 0.507362 0.695399
0.290272 0.59295 0.735622
0.427451 0.676448 0.767971
0.635386 0.738674 0.774044
0.778988 0.783322 0.743236
0.829877 0.788006 0.740185
0.860075 0.790555 0.750332
0.19971 0.513039 0.706798
0.217273 0.525765 0.714595
0.250156 0.565057 0.721553
0.31632 0.634806 0.75671
0.471717 0.716136 0.791501
0.654536 0.769512 0.80177
0.768185 0.804196 0.764752
0.823377 0.824292 0.757443
0.856718 0.830259 0.775204
0.244999 0.554513 0.728542
0.272557 0.58854 0.739574
0.314183 0.631006 0.761105
0.385763 0.693049 0.788357
0.52668 0.746563 0.812177
0.685023 0.789624 0.819272
0.781445 0.82858 0.798672
0.830365 0.84036 0.781415
0.858854 0.849226 0.797086
0.239536 0.266041 0.715206
0.313222 0.231846 0.715969
0.381384 0.170306 0.702556
0.407492 0.135439 0.689525
0.495903 0.167865 0.691234
0.592477 0.199329 0.670665
0.663355 0.25565 0.651392
0.719188 0.316518 0.66128
0.752361 0.371572 0.683742
0.180743 0.317769 0.752224
0.29247 0.333898 0.738231
0.380987 0.299855 0.732357
0.460807 0.228885 0.714153
0.507988 0.199191 0.704204
0.581598 0.225834 0.682109
0.661372 0.286152 0.667826
0.709422 0.354986 0.677852
0.754955 0.427008 0.689662
0.144762 0.332647 0.730205
0.228168 0.379217 0.75581
0.355962 0.395911 0.77142
0.476448 0.368307 0.783642
0.543633 0.304677 0.748867
0.592065 0.290684 0.708705
0.670344 0.336049 0.694545
0.723308 0.410376 0.693919
0.768643 0.50045 0.704265
0.157305 0.360891 0.698405
0.179858 0.39617 0.70605
0.272633 0.454704 0.729519
0.458625 0.505974 0.782223
0.595712 0.482292 0.816022
0.673762 0.428031 0.784497
0.718196 0.466911 0.75877
0.761212 0.538094 0.718944
0.792676 0.603387 0.723659
0.163516 0.416754 0.697063
0.182345 0.435981 0.70074
0.227405 0.485435 0.724117
0.354467 0.55317 0.741039
0.561547 0.61944 0.766476
0.706432 0.663447 0.761379
0.772183 0.661189 0.748043
0.804501 0.680003 0.752255
0.826978 0.699504 0.74873
0.168078 0.459876 0.702846
0.186084 0.471901 0.710399
0.225086 0.509071 0.725277
0.30837 0.578119 0.746944
0.474739 0.657298 0.769543
0.701503 0.724285 0.782788
0.783749 0.762249 0.771679
0.825559 0.767254 0.787823
0.853803 0.766888 0.777569
0.196887 0.497261 0.725582
0.217212 0.520043 0.729061
0.255589 0.555581 0.737453
0.333852 0.621118 0.754971
0.476005 0.692073 0.791241
0.654765 0.74049 0.807828
0.788296 0.807248 0.801373
0.839673 0.812284 0.794614
0.87332 0.81117 0.800778
0.249256 0.551873 0.751034
0.274952 0.573449 0.755688
0.311833 0.615839 0.758373
0.386526 0.667308 0.785183
0.522744 0.720638 0.811276
0.671427 0.760037 0.818189
0.784741 0.827268 0.824659
0.838224 0.84416 0.807355
0.873869 0.843854 0.816144
0.308812 0.607752 0.781643
0.33695 0.631754 0.783078
0.384009 0.663066 0.794629
0.460075 0.707164 0.811353
0.583124 0.742046 0.825772
0.708247 0.787915 0.838163
0.798306 0.840146 0.832761
0.842405 0.856229 0.821332
0.865705 0.857801 0.818326
0.283162 0.301732 0.755291
0.351812 0.26894 0.747936
0.421866 0.198184 0.733379
0.461234 0.160281 0.725246
0.550881 0.20116 0.733043
0.637354 0.256977 0.723445
0.71014 0.313146 0.722591
0.757305 0.358541 0.739116
0.797589 0.415167 0.772015
0.223346 0.357961 0.801358
0.335805 0.359884 0.786221
0.424887 0.3393 0.768704
0.505531 0.265888 0.76112
0.563836 0.237797 0.747478
0.653407 0.291081 0.736126
0.717342 0.344182 0.74583
0.766278 0.406027 0.775311
0.808698 0.487297 0.777005
0.181659 0.371023 0.758877
0.268528 0.427588 0.786633
0.408621 0.431144 0.813855
0.522072 0.399985 0.832746
0.587228 0.34757 0.801251
0.657465 0.34966 0.778195
0.728588 0.38999 0.786984
0.780056 0.471107 0.789563
0.814404 0.572198 0.764614
0.181827 0.403082 0.734646
0.218509 0.449622 0.737209
0.318959 0.501366 0.757198
0.498589 0.547829 0.802457
0.632853 0.534813 0.838804
0.709346 0.468177 0.838758
0.758618 0.496025 0.808698
0.791089 0.583581 0.77705
0.82063 0.649577 0.762707
0.185992 0.44242 0.72784
0.210101 0.475456 0.737163
0.270054 0.530297 0.752773
0.39855 0.594842 0.770565
0.608194 0.660151 0.792111
0.734447 0.691798 0.788556
0.795254 0.678309 0.791318
0.825818 0.700816 0.782513
0.839353 0.724559 0.782696
0.205417 0.492363 0.74107
0.232609 0.514031 0.750774
0.276204 0.560967 0.75993
0.361532 0.619791 0.776394
0.543694 0.685298 0.798596
0.732967 0.742504 0.807095
0.806836 0.779065 0.80502
0.841428 0.781704 0.810559
0.86186 0.788815 0.812268
0.251179 0.546929 0.763455
0.279011 0.572351 0.769268
0.314992 0.605081 0.775051
0.398627 0.65658 0.787747
0.540383 0.709117 0.810025
0.69897 0.762066 0.831128
0.808179 0.82472 0.827024
0.839872 0.835859 0.828977
0.866819 0.838468 0.832654
0.311635 0.604562 0.785153
0.339696 0.62797 0.790494
0.381247 0.655131 0.79292
0.46595 0.692287 0.80853
0.593957 0.735531 0.826917
0.719188 0.777188 0.843046
0.796826 0.835843 0.850874
0.843702 0.853086 0.831006
0.872541 0.853895 0.834501
0.379828 0.659556 0.805203
0.419699 0.673854 0.811032
0.473518 0.699092 0.814649
0.552911 0.729381 0.82797
0.653635 0.761196 0.843214
0.749554 0.804501 0.854551
0.811444 0.852277 0.863951
0.851835 0.865492 0.849561
0.882887 0.86688 0.8477
0.31577 0.334997 0.775982
0.397375 0.30132 0.770825
0.466697 0.230854 0.762524
0.50634 0.191226 0.750942
0.595056 0.243244 0.770199
0.676814 0.313054 0.765499
0.746975 0.358312 0.792401
0.793332 0.405081 0.818738
0.830777 0.485832 0.827588
0.263279 0.401099 0.829038
0.385641 0.390417 0.820844
0.47631 0.368765 0.810849
0.542382 0.303532 0.792493
0.611475 0.299825 0.789609
0.698558 0.351614 0.793713
0.764233 0.393805 0.831388
0.815137 0.451881 0.844923
0.837705 0.557794 0.819913
0.217823 0.416373 0.780102
0.311086 0.463645 0.806073
0.454734 0.471946 0.838026
0.567971 0.433219 0.871305
0.634241 0.387396 0.853529
0.710338 0.398001 0.846616
0.78851 0.447456 0.853605
0.828748 0.54548 0.823606
0.844816 0.63856 0.797742
0.213367 0.455863 0.754498
0.256046 0.494438 0.76939
0.369299 0.546456 0.775662
0.549477 0.594888 0.82324
0.66537 0.583947 0.8486
0.749493 0.520409 0.860456
0.799069 0.559472 0.838087
0.834592 0.640192 0.813855
0.848661 0.692378 0.794186
0.223484 0.490913 0.756451
0.254231 0.527565 0.765377
0.312947 0.576379 0.774517
0.457694 0.629541 0.79556
0.647242 0.690654 0.817014
0.76318 0.71603 0.811704
0.812726 0.699641 0.806485
0.838575 0.717433 0.80795
0.857984 0.744549 0.808179
0.263691 0.548531 0.775845
0.290257 0.575311 0.778271
0.33402 0.613886 0.790295
0.435889 0.659236 0.796338
0.603906 0.713878 0.821973
0.75964 0.765438 0.832929
0.822629 0.797589 0.834836
0.854963 0.794034 0.82678
0.87454 0.800214 0.831388
0.320623 0.615015 0.79762
0.345266 0.633844 0.801038
0.394507 0.659159 0.805066
0.492882 0.693751 0.818372
0.616159 0.736248 0.835081
0.740597 0.787945 0.844221
0.820859 0.835004 0.844511
0.859373 0.84332 0.84184
0.876463 0.844678 0.842725
0.390814 0.662089 0.811231
0.428077 0.679484 0.820783
0.485359 0.69955 0.820447
0.562692 0.728588 0.833219
0.657816 0.759548 0.850294
0.756451 0.802014 0.845838
0.826215 0.852033 0.855344
0.855451 0.86479 0.844388
0.878813 0.865446 0.857053
0.494621 0.707134 0.823484
0.529686 0.716609 0.833112
0.576135 0.734951 0.835325
0.635248 0.757717 0.848157
0.71899 0.786435 0.858076
0.786999 0.826917 0.864836
0.833844 0.862348 0.869337
0.862257 0.872618 0.864149
0.886748 0.874311 0.861952
