creative/lut-french-oil-painting.cube
TITLE "Generated by Resolve"
LUT_3D_SIZE 9
0.00474556 0.00474556 0.0142214
0.0863355 0.0146639 0.0311437
0.213199 0.0340124 0.0499275
0.378576 0.0693523 0.0466926
0.586786 0.122026 0.0613107
0.738323 0.14902 0.095491
0.854124 0.172274 0.110246
0.930495 0.188128 0.124163
0.981643 0.194293 0.127947
0.0053254 0.103182 0.0332952
0.0812695 0.10869 0.031632
0.215564 0.124987 0.0409552
0.38407 0.154711 0.0466621
0.58497 0.189975 0.0603799
0.746075 0.207492 0.0913405
0.861234 0.223987 0.110338
0.943771 0.237461 0.124239
0.99585 0.243549 0.127947
0.00175479 0.201984 0.0370642
0.0731365 0.203738 0.0391852
0.207813 0.223636 0.0469978
0.406973 0.256123 0.0671092
0.59382 0.284977 0.0760815
0.747143 0.298253 0.0975204
0.859892 0.307988 0.108782
0.943404 0.314107 0.122118
0.99585 0.311162 0.12929
0.00167849 0.319448 0.0456245
0.0534218 0.322332 0.0471351
0.185199 0.33785 0.0581521
0.386084 0.377997 0.0796216
0.604501 0.410483 0.102251
0.749569 0.4224 0.104936
0.85684 0.427298 0.108141
0.941497 0.429603 0.113802
0.99585 0.428168 0.117632
1.5259e-05 0.457527 0.0701152
0.0492866 0.461006 0.0701915
0.15903 0.471626 0.0765393
0.367727 0.502968 0.100084
0.580087 0.54641 0.126482
0.755322 0.577646 0.138048
0.853864 0.577981 0.115938
0.937697 0.573693 0.108812
0.993484 0.570657 0.104692
0.000854505 0.582757 0.0961471
0.0494545 0.585489 0.0987259
0.17116 0.593957 0.11014
0.384741 0.617823 0.130632
0.559853 0.651957 0.143099
0.726436 0.687129 0.158785
0.853666 0.712123 0.166003
0.935973 0.712978 0.153124
0.993484 0.710048 0.14873
0 0.687633 0.126619
0.0562295 0.693431 0.130907
0.238254 0.707439 0.145052
0.424063 0.7252 0.164813
0.568002 0.741756 0.169131
0.71548 0.775219 0.180606
0.833387 0.797803 0.187579
0.927672 0.815015 0.195621
0.993484 0.817639 0.195544
0.00767529 0.78732 0.159731
0.139452 0.79237 0.16788
0.32546 0.805097 0.186435
0.478477 0.821332 0.201694
0.597528 0.831876 0.198215
0.721706 0.852384 0.202792
0.825315 0.874754 0.211566
0.911528 0.88603 0.215763
0.980438 0.897276 0.218814
0.16318 0.875715 0.197574
0.276417 0.885084 0.208698
0.405386 0.896498 0.223316
0.522972 0.905364 0.227741
0.625223 0.911635 0.221302
0.730358 0.925261 0.221744
0.822492 0.940581 0.232319
0.901411 0.95404 0.237034
0.961868 0.957168 0.235782
0.0265812 0.0388342 0.115908
0.0954299 0.041886 0.124346
0.207385 0.0348821 0.132311
0.375555 0.067216 0.143862
0.578256 0.117632 0.136492
0.736065 0.146853 0.160388
0.853117 0.172976 0.169207
0.930632 0.186267 0.177768
0.97734 0.194293 0.180301
0.0209964 0.116518 0.119326
0.100481 0.118135 0.122606
0.217365 0.126848 0.12546
0.390143 0.146914 0.129107
0.585321 0.186511 0.126833
0.744198 0.203723 0.152773
0.859403 0.223148 0.164233
0.945312 0.235554 0.174136
0.981857 0.243549 0.177203
0.00741588 0.212787 0.115312
0.0800336 0.218479 0.123873
0.210834 0.228397 0.123079
0.402304 0.255161 0.130678
0.593133 0.284092 0.132448
0.747372 0.296803 0.150042
0.856947 0.306065 0.162234
0.940764 0.31252 0.171405
0.982223 0.312139 0.179416
0.00289921 0.323568 0.110216
0.0540627 0.331426 0.117983
0.190021 0.343954 0.123598
0.387121 0.37789 0.136233
0.609979 0.409384 0.152789
0.747036 0.420691 0.153658
0.85713 0.428138 0.155047
0.941772 0.429725 0.162615
0.98497 0.429877 0.166842
0 0.462135 0.120302
0.0492409 0.467506 0.123842
0.157397 0.475364 0.130724
0.367178 0.502571 0.151705
0.584085 0.550835 0.175586
0.756619 0.57554 0.185931
0.853788 0.578332 0.165835
0.936568 0.574731 0.156939
0.98883 0.571054 0.154101
9.15541e-05 0.582879 0.145449
0.0494698 0.5897 0.150057
0.166293 0.59736 0.159411
0.382422 0.618753 0.178973
0.557183 0.651591 0.19266
0.726543 0.68838 0.209232
0.853895 0.713664 0.216281
0.935836 0.713481 0.202853
0.99324 0.710277 0.198016
0.000961318 0.690364 0.177905
0.0574197 0.69453 0.181323
0.239841 0.708659 0.195483
0.425254 0.725795 0.21413
0.568475 0.741955 0.218448
0.715663 0.775174 0.229862
0.833341 0.797848 0.236866
0.927749 0.815045 0.244877
0.993484 0.817639 0.244785
0.00788891 0.787366 0.208972
0.140734 0.792508 0.217288
0.326314 0.80528 0.235828
0.478996 0.821439 0.251072
0.59791 0.831998 0.247486
0.721706 0.852384 0.252049
0.825391 0.874784 0.260807
0.911574 0.886107 0.265049
0.980407 0.897322 0.268086
0.164416 0.875898 0.247013
0.277317 0.885267 0.258167
0.405814 0.896559 0.272618
0.523278 0.905455 0.277012
0.625223 0.911635 0.270542
0.730465 0.925292 0.270985
0.822553 0.940642 0.281621
0.901488 0.954055 0.28629
0.961868 0.957168 0.285023
0.0388037 0.0729686 0.236149
0.111131 0.0719615 0.238178
0.212055 0.0402686 0.230945
0.377951 0.0701305 0.248417
0.57641 0.119661 0.262013
0.73727 0.148333 0.271489
0.851942 0.172412 0.272435
0.93164 0.186709 0.278187
0.979538 0.194293 0.279042
0.0444343 0.143282 0.227085
0.119646 0.14406 0.22948
0.220859 0.132433 0.231876
0.392248 0.150637 0.245045
0.586954 0.183597 0.25069
0.745235 0.206348 0.259586
0.858564 0.222248 0.268284
0.943328 0.236164 0.27219
0.987732 0.243366 0.272221
0.0100557 0.235767 0.224063
0.090959 0.238224 0.227588
0.224781 0.239277 0.232563
0.401755 0.254307 0.232013
0.59115 0.280308 0.233356
0.746456 0.294102 0.245731
0.858854 0.302861 0.256229
0.941421 0.306859 0.260609
0.983612 0.309667 0.262013
0.0043946 0.354345 0.214755
0.0552071 0.354086 0.218616
0.198215 0.359258 0.226291
0.391531 0.383825 0.235706
0.597803 0.409384 0.244083
0.743679 0.425818 0.243671
0.855467 0.431006 0.244251
0.939849 0.428443 0.24567
0.981384 0.426535 0.248707
0 0.470054 0.204654
0.0492866 0.478996 0.216358
0.166934 0.491035 0.227695
0.376913 0.511437 0.241443
0.577325 0.553841 0.252033
0.756527 0.576074 0.256931
0.856641 0.575906 0.238895
0.935195 0.575692 0.222446
0.979324 0.570565 0.215793
0 0.590387 0.212665
0.0496223 0.59881 0.228962
0.18703 0.610544 0.242237
0.392187 0.629557 0.257038
0.559319 0.655818 0.263035
0.730724 0.692958 0.270604
0.853284 0.712871 0.265644
0.93402 0.714946 0.253635
0.983871 0.711513 0.246296
0 0.697719 0.233051
0.0634928 0.704463 0.251667
0.256809 0.719509 0.261067
0.429908 0.732433 0.280095
0.573999 0.748592 0.282841
0.715084 0.779126 0.285283
0.83476 0.801343 0.29012
0.928145 0.818372 0.295308
0.98732 0.820127 0.294499
0.0193942 0.79321 0.270085
0.166903 0.798642 0.277974
0.339574 0.812558 0.293614
0.484321 0.828473 0.306172
0.605264 0.836362 0.301762
0.721523 0.855879 0.305165
0.825391 0.877333 0.311284
0.908873 0.886671 0.316625
0.979019 0.897368 0.319997
0.179232 0.882628 0.304341
0.294255 0.889937 0.313817
0.417639 0.90161 0.325719
0.525383 0.908476 0.32929
0.632593 0.914855 0.327276
0.732937 0.928206 0.32285
0.821485 0.943145 0.330724
0.904021 0.953643 0.33576
0.962722 0.956466 0.3364
0.0693828 0.116014 0.390021
0.145068 0.112306 0.381888
0.233768 0.0923629 0.381399
0.381277 0.0669718 0.370626
0.579522 0.123598 0.393454
0.739986 0.16846 0.411612
0.866361 0.191394 0.421744
0.948043 0.206058 0.426535
0.989517 0.212222 0.426352
0.0652323 0.181765 0.374212
0.141588 0.183856 0.381155
0.239139 0.178576 0.377295
0.3897 0.150683 0.372717
0.587137 0.190265 0.390692
0.745983 0.225071 0.406302
0.866117 0.24538 0.415976
0.944778 0.253681 0.414755
0.989914 0.258579 0.417044
0.0719158 0.272908 0.361639
0.144396 0.273304 0.361135
0.245777 0.270924 0.365515
0.400641 0.258885 0.370092
0.597238 0.285542 0.386313
0.75053 0.305791 0.390707
0.863432 0.315373 0.395483
0.944411 0.318441 0.402472
0.990524 0.317723 0.400122
0.00273136 0.395468 0.360632
0.057557 0.390524 0.35787
0.218769 0.386435 0.357046
0.403357 0.392172 0.363394
0.591806 0.412619 0.365698
0.741573 0.427146 0.368582
0.852949 0.434165 0.36875
0.940551 0.43241 0.377951
0.990433 0.43032 0.377005
1.5259e-05 0.51754 0.337026
0.0492561 0.515068 0.337469
0.168612 0.511421 0.344701
0.387701 0.524727 0.362234
0.580987 0.555978 0.374166
0.748608 0.572778 0.376135
0.855467 0.576028 0.371389
0.939071 0.57792 0.365682
0.990112 0.576623 0.35874
0.00125124 0.60647 0.319707
0.0496223 0.606455 0.326238
0.185733 0.621027 0.347936
0.406622 0.640345 0.369329
0.56788 0.660517 0.378622
0.72929 0.693477 0.380285
0.859007 0.709209 0.379599
0.944167 0.707362 0.372
0.994659 0.704463 0.362936
0.00137331 0.701595 0.32459
0.0513008 0.707576 0.334295
0.26096 0.723186 0.360998
0.447532 0.744793 0.384466
0.582544 0.754406 0.388098
0.720287 0.780743 0.390112
0.837827 0.803403 0.383322
0.92903 0.81593 0.378363
0.991791 0.817517 0.373251
0.00341802 0.796628 0.340581
0.0957656 0.798245 0.34844
0.345205 0.819776 0.38378
0.496864 0.835752 0.400122
0.609354 0.843626 0.400595
0.725902 0.856031 0.401419
0.823316 0.876387 0.396292
0.910262 0.887053 0.387533
0.979797 0.899367 0.385183
0.148821 0.879301 0.362463
0.275456 0.887373 0.38146
0.426139 0.903639 0.407111
0.53901 0.913008 0.414221
0.638041 0.918776 0.413184
0.735317 0.930037 0.40856
0.823438 0.941619 0.408087
0.903334 0.954894 0.401038
0.965072 0.958602 0.39678
0.10338 0.166033 0.558495
0.172045 0.168765 0.558312
0.26479 0.166033 0.554559
0.387625 0.103288 0.529595
0.570809 0.119478 0.532753
0.734081 0.157916 0.552087
0.864759 0.195102 0.568948
0.950301 0.216831 0.57995
0.989303 0.226566 0.586114
0.100862 0.23389 0.549096
0.170047 0.234913 0.555901
0.266896 0.236652 0.550484
0.397513 0.184573 0.539117
0.580514 0.18674 0.535225
0.744747 0.22208 0.552941
0.867491 0.248844 0.567605
0.947646 0.267857 0.575311
0.989639 0.274647 0.580682
0.110826 0.318441 0.524788
0.172763 0.316625 0.524819
0.274907 0.319905 0.535271
0.406744 0.29424 0.531594
0.586587 0.279881 0.534752
0.749401 0.308309 0.549661
0.869001 0.327947 0.560647
0.947158 0.338689 0.572808
0.990127 0.341817 0.569894
0.090837 0.427695 0.514916
0.168338 0.431067 0.514641
0.279698 0.427253 0.511467
0.416785 0.420951 0.516701
0.591775 0.4168 0.527459
0.745983 0.432441 0.538308
0.862364 0.441932 0.544411
0.944793 0.447196 0.549569
0.990906 0.446555 0.550195
0.000228885 0.56054 0.506188
0.0503243 0.559625 0.510384
0.192081 0.555093 0.50869
0.406806 0.54963 0.508537
0.588525 0.561059 0.521202
0.737682 0.574426 0.518593
0.848264 0.580514 0.522347
0.931609 0.583368 0.520195
0.989166 0.584039 0.518242
4.57771e-05 0.669459 0.489738
0.0505379 0.663005 0.485191
0.186542 0.654597 0.486366
0.414237 0.654566 0.501945
0.581445 0.670039 0.518898
0.733486 0.693294 0.524193
0.853971 0.701732 0.523201
0.936187 0.700999 0.520729
0.990143 0.70161 0.519921
4.57771e-05 0.732265 0.463157
0.0516213 0.73109 0.462623
0.226581 0.733715 0.470726
0.455787 0.753918 0.505806
0.599802 0.766262 0.524453
0.727062 0.782513 0.530816
0.840543 0.804532 0.523461
0.929625 0.811597 0.518029
0.992859 0.811856 0.51754
0.00399786 0.804974 0.452552
0.100725 0.808972 0.460594
0.312444 0.818631 0.47628
0.507332 0.840772 0.518532
0.628901 0.852354 0.533059
0.733333 0.862287 0.533639
0.827024 0.877363 0.53051
0.910979 0.888273 0.518502
0.979385 0.898589 0.511376
0.137331 0.876829 0.45687
0.248936 0.884779 0.467338
0.396872 0.897383 0.487694
0.553689 0.915114 0.532189
0.653468 0.923903 0.536934
0.742901 0.930312 0.535805
0.827375 0.940032 0.536522
0.902739 0.950347 0.526131
0.96231 0.95581 0.514336
0.117128 0.208148 0.708156
0.190372 0.212222 0.705196
0.285878 0.217487 0.70779
0.403388 0.182284 0.691524
0.57142 0.119966 0.663325
0.732784 0.163592 0.682902
0.856123 0.187198 0.690669
0.940139 0.203449 0.703883
0.991638 0.212207 0.704112
0.119158 0.274159 0.698329
0.185107 0.275273 0.702815
0.283833 0.282841 0.703578
0.407095 0.257649 0.697688
0.572656 0.18587 0.667033
0.736065 0.219791 0.681941
0.860014 0.238621 0.694194
0.944991 0.254032 0.701701
0.996719 0.261814 0.705974
0.131991 0.35639 0.675837
0.194797 0.357549 0.678767
0.289845 0.361212 0.686107
0.421683 0.353246 0.687633
0.581964 0.281727 0.668894
0.741161 0.304631 0.679927
0.863859 0.316304 0.693278
0.946319 0.326635 0.702586
0.99585 0.330526 0.701305
0.158999 0.467674 0.655863
0.220417 0.470069 0.658183
0.308202 0.463798 0.656214
0.439536 0.468421 0.672557
0.588739 0.421637 0.667735
0.741588 0.429389 0.675074
0.86244 0.440162 0.685847
0.944457 0.442191 0.694163
0.99585 0.444923 0.695979
0.0624857 0.583276 0.657649
0.118471 0.579629 0.65185
0.277897 0.58262 0.656397
0.448493 0.58291 0.655421
0.59321 0.576196 0.660563
0.738933 0.579309 0.667872
0.851957 0.586892 0.676448
0.937438 0.588098 0.678859
0.994446 0.588937 0.675837
4.57771e-05 0.689204 0.649821
0.0513161 0.690303 0.648341
0.213779 0.687846 0.64976
0.430594 0.687434 0.649638
0.596643 0.684871 0.65124
0.739849 0.697475 0.663386
0.845182 0.702708 0.659129
0.925841 0.70518 0.663478
0.988037 0.705455 0.660792
0.0181582 0.790143 0.636667
0.111772 0.788952 0.634562
0.274083 0.783169 0.631266
0.451575 0.771588 0.629587
0.6094 0.778393 0.651972
0.737453 0.790463 0.663951
0.845518 0.803861 0.663859
0.92932 0.806806 0.660121
0.992599 0.805707 0.660609
0.103182 0.85069 0.607431
0.186862 0.852598 0.614771
0.322759 0.843397 0.61062
0.492622 0.841764 0.617823
0.640909 0.858671 0.653834
0.745922 0.870573 0.667994
0.836957 0.879499 0.668513
0.918425 0.892317 0.661555
0.986725 0.89839 0.65864
0.164431 0.895476 0.58851
0.257832 0.896284 0.592996
0.396216 0.900862 0.603983
0.537667 0.91194 0.624765
0.669444 0.928893 0.665385
0.754101 0.933486 0.66688
0.835294 0.941115 0.671168
0.910506 0.951247 0.664775
0.969039 0.955856 0.653254
0.108598 0.241291 0.832212
0.181216 0.241291 0.829099
0.283299 0.249271 0.831037
0.411978 0.239506 0.822782
0.562875 0.151949 0.784634
0.72256 0.163851 0.788479
0.853727 0.192767 0.801266
0.935378 0.20705 0.807584
0.980865 0.21326 0.81326
0.109804 0.299001 0.82681
0.179614 0.300526 0.827741
0.283268 0.307439 0.827527
0.420829 0.305043 0.829648
0.568063 0.207996 0.788571
0.733303 0.2177 0.793591
0.857771 0.241749 0.807935
0.945632 0.254551 0.811215
0.98761 0.262028 0.815564
0.131884 0.38436 0.80705
0.195209 0.387411 0.806882
0.295094 0.390845 0.813046
0.432624 0.39588 0.821988
0.571496 0.315358 0.794934
0.73228 0.303761 0.792721
0.858717 0.3205 0.803662
0.944213 0.325429 0.813336
0.98555 0.326223 0.815457
0.17116 0.495216 0.782788
0.232212 0.495399 0.784527
0.324773 0.494377 0.787305
0.453712 0.501366 0.799542
0.592706 0.462837 0.796689
0.737896 0.428733 0.791699
0.85774 0.437995 0.8009
0.942702 0.439796 0.807843
0.987396 0.438392 0.809689
0.199847 0.619562 0.780438
0.261006 0.618418 0.779553
0.357534 0.619028 0.781155
0.475013 0.611597 0.777295
0.609873 0.608972 0.790326
0.738949 0.577295 0.786938
0.852064 0.582757 0.796139
0.939239 0.585611 0.800702
0.985061 0.585077 0.802899
0.0532998 0.704479 0.776776
0.129168 0.705608 0.777142
0.282155 0.705333 0.777096
0.473548 0.711482 0.778531
0.621424 0.709209 0.780972
0.740261 0.702296 0.784619
0.848661 0.707408 0.787228
0.930114 0.710872 0.791897
0.982162 0.710597 0.796277
0.027039 0.79678 0.773785
0.117739 0.795468 0.770336
0.274479 0.797223 0.769375
0.468849 0.798535 0.774258
0.621515 0.796017 0.776364
0.747463 0.798215 0.778759
0.846357 0.804639 0.78613
0.923964 0.80647 0.783215
0.976043 0.808911 0.783123
0.177066 0.884092 0.761028
0.242649 0.882048 0.762753
0.359335 0.880247 0.760678
0.518776 0.874174 0.76022
0.642023 0.867628 0.759441
0.75845 0.875181 0.781125
0.846235 0.886229 0.785763
0.923491 0.891752 0.784024
0.97731 0.894102 0.782361
0.255879 0.947463 0.744015
0.319265 0.945373 0.743999
0.423651 0.9364 0.747036
0.546349 0.925826 0.744198
0.665125 0.927794 0.75584
0.768566 0.942748 0.778988
0.847761 0.947402 0.787411
0.922057 0.958038 0.784588
0.97467 0.959838 0.779309
0.0766766 0.260349 0.923888
0.157931 0.263325 0.924147
0.269474 0.271901 0.923827
0.415183 0.273503 0.920836
0.558694 0.198383 0.893309
0.712947 0.153445 0.874968
0.84744 0.192279 0.892012
0.933288 0.208469 0.898817
0.97911 0.21471 0.898512
0.079118 0.318059 0.928466
0.155871 0.319936 0.93109
0.268498 0.324437 0.929442
0.419989 0.330236 0.932464
0.55996 0.251621 0.901137
0.717952 0.20264 0.880507
0.851118 0.239811 0.896345
0.944549 0.255711 0.903029
0.984405 0.261616 0.902739
0.110124 0.400824 0.912947
0.179919 0.400168 0.910307
0.289769 0.407095 0.914
0.437598 0.41474 0.921004
0.575463 0.353582 0.90312
0.722957 0.29218 0.878309
0.854032 0.319799 0.895598
0.940902 0.325078 0.903456
0.98349 0.325429 0.904524
0.17084 0.514992 0.888823
0.234089 0.514839 0.889845
0.328099 0.516304 0.893202
0.458228 0.522347 0.903685
0.59826 0.503227 0.906126
0.725475 0.428977 0.883589
0.854429 0.440925 0.892042
0.9411 0.444648 0.899077
0.984512 0.441703 0.900465
0.223377 0.639277 0.881376
0.284428 0.640894 0.879576
0.370764 0.637995 0.879667
0.489387 0.634775 0.88275
0.619181 0.637278 0.895293
0.735088 0.594339 0.887831
0.850446 0.584283 0.891981
0.935836 0.586404 0.894301
0.986328 0.585 0.898634
0.21149 0.73817 0.884871
0.276524 0.739391 0.883452
0.379446 0.739834 0.883345
0.519158 0.734722 0.877974
0.635721 0.729809 0.879408
0.747463 0.722011 0.887617
0.846174 0.707057 0.886336
0.931121 0.707958 0.89131
0.983917 0.70901 0.893599
0.133211 0.809628 0.881422
0.203021 0.809735 0.879957
0.324224 0.809979 0.878599
0.506325 0.813443 0.87866
0.649393 0.813733 0.879423
0.758709 0.812299 0.880629
0.847166 0.807446 0.885725
0.926085 0.81091 0.886641
0.980331 0.812833 0.88748
0.188724 0.886793 0.872526
0.253025 0.885328 0.87335
0.357061 0.885985 0.873732
0.521157 0.887297 0.875624
0.657572 0.889326 0.878782
0.761944 0.885847 0.876951
0.850141 0.889799 0.87837
0.924514 0.895811 0.881422
0.977081 0.897139 0.880201
0.271809 0.957412 0.865248
0.333104 0.956252 0.866606
0.444221 0.955169 0.868574
0.574746 0.951949 0.867399
0.685008 0.943664 0.86746
0.773877 0.943404 0.867597
0.856886 0.950225 0.881743
0.925643 0.959167 0.884062
0.977096 0.963928 0.879606
0.0199588 0.271412 0.994369
0.120577 0.272618 0.995712
0.251743 0.280415 0.99472
0.410498 0.289509 0.995621
0.556588 0.231495 0.987823
0.703746 0.151797 0.953979
0.84213 0.181964 0.966018
0.938247 0.205768 0.97705
0.99527 0.214801 0.976898
0.0271611 0.32636 0.993423
0.124224 0.330068 0.99585
0.260578 0.335912 0.995331
0.415244 0.342885 0.993973
0.560372 0.279683 0.983566
0.706493 0.199908 0.952575
0.843168 0.230976 0.963989
0.939681 0.25478 0.975738
0.993347 0.264073 0.976898
0.0784772 0.41062 0.991608
0.155901 0.410117 0.991699
0.277241 0.413611 0.991363
0.43299 0.426246 0.994461
0.573739 0.380743 0.98883
0.709438 0.295521 0.953826
0.845258 0.310567 0.966873
0.93756 0.32253 0.976867
0.993973 0.323949 0.977523
0.16405 0.525628 0.973831
0.224903 0.524453 0.972625
0.327657 0.526726 0.97557
0.464561 0.532998 0.986252
0.604028 0.523766 0.990662
0.721401 0.437919 0.96408
0.848325 0.433768 0.966339
0.939544 0.44329 0.976455
0.99382 0.442924 0.978821
0.231861 0.654444 0.961807
0.290166 0.650736 0.962463
0.375463 0.650599 0.961624
0.495979 0.648936 0.967071
0.620569 0.650614 0.977615
0.73611 0.618036 0.976654
0.846098 0.581048 0.965942
0.936248 0.588113 0.975372
0.993133 0.586969 0.976181
0.259922 0.75697 0.967666
0.320256 0.755398 0.966033
0.410529 0.75462 0.964675
0.528466 0.748028 0.961807
0.643809 0.744411 0.966506
0.750149 0.742489 0.976898
0.846036 0.710491 0.969741
0.929183 0.710658 0.971603
0.991119 0.710842 0.971832
0.231525 0.829984 0.968475
0.295628 0.829435 0.969039
0.395331 0.830198 0.966537
0.549386 0.830777 0.962417
0.668574 0.830381 0.961852
0.764981 0.829786 0.9664
0.848478 0.817182 0.967666
0.92723 0.808667 0.968826
0.987167 0.809186 0.968963
0.228687 0.897292 0.964172
0.292485 0.898116 0.962539
0.392416 0.898146 0.96202
0.551125 0.900542 0.962676
0.680766 0.902037 0.962661
0.779919 0.903166 0.965423
0.856336 0.901244 0.967819
0.923949 0.89955 0.970184
0.982055 0.901274 0.97203
0.28304 0.96022 0.958968
0.343801 0.958877 0.959304
0.450172 0.960235 0.959136
0.581155 0.958175 0.958282
0.693828 0.960006 0.964981
0.782361 0.96051 0.96144
0.857954 0.959976 0.965225
0.926146 0.96463 0.963653
0.982254 0.96701 0.962402
