creative/lut-sunset-glow.cube
TITLE "Generated by Resolve"
LUT_3D_SIZE 5
0 0 0
0.2636 0 0
0.523339 0 0
0.783093 0 0
1 0 0
0.0648356 0.242649 0
0.290944 0.238529 0
0.538796 0.22887 0
0.79353 0.212055 0
1 0.185977 0
0.180865 0.487404 0
0.345144 0.485252 0
0.57026 0.480323 0
0.815503 0.471992 0
1 0.459846 0
0.297688 0.732158 0
0.421027 0.730739 0
0.619043 0.72752 0
0.849622 0.722103 0
1 0.714305 0
0.414496 0.976913 0
0.510918 0.97586 0
0.682612 0.97351 0
0.895903 0.969589 0
1 0.963912 0
0.0128328 0.00158694 0.225025
0.269749 0 0.216999
0.527352 0 0.202548
0.786633 0 0.179202
1 0 0.142321
0.0781415 0.243839 0.203754
0.29601 0.239796 0.197894
0.541588 0.230243 0.1841
0.796048 0.213443 0.159625
1 0.187213 0.119112
0.188586 0.488121 0.16022
0.349447 0.486 0.153597
0.5729 0.481071 0.137285
0.817273 0.47277 0.106584
1 0.460639 0.0522011
0.303014 0.732616 0.061799
0.424704 0.731243 0.0517128
0.621469 0.728023 0.0283513
0.851301 0.722637 0
1 0.714855 0
0.418387 0.977249 0
0.513848 0.976242 0
0.68484 0.973877 0
0.897581 0.969955 0
1 0.964279 0
0.042649 0.0052491 0.45713
0.281971 0 0.452308
0.533898 0 0.443351
0.790921 0 0.430518
1 0 0.413184
0.106615 0.245899 0.443854
0.307408 0.242008 0.440436
0.547997 0.232715 0.432853
0.80029 0.216327 0.420737
1 0.190509 0.403616
0.205402 0.489448 0.42063
0.359426 0.487358 0.417594
0.578988 0.48249 0.410574
0.821424 0.474296 0.398718
1 0.462226 0.381369
0.314321 0.733623 0.383917
0.433005 0.732235 0.380789
0.627131 0.72903 0.373465
0.855329 0.723674 0.360922
1 0.715923 0.342229
0.426749 0.978042 0.32723
0.520623 0.977035 0.323659
0.689921 0.97467 0.315267
0.901473 0.970733 0.300694
1 0.965072 0.278553
0.0924086 0.0114137 0.68925
0.301442 0.00361639 0.685893
0.544564 0 0.679271
0.798062 0 0.669718
1 0 0.657481
0.145159 0.248905 0.679515
0.325597 0.245151 0.676982
0.558526 0.236164 0.671366
0.807385 0.220295 0.662654
1 0.195407 0.650904
0.231128 0.491295 0.662364
0.375372 0.489265 0.660227
0.589044 0.484474 0.655406
0.828382 0.476402 0.647456
1 0.464576 0.636194
0.332448 0.735042 0.637507
0.446433 0.733684 0.635554
0.636439 0.730495 0.630945
0.861967 0.7252 0.623255
1 0.717494 0.612146
0.440711 0.979156 0.603235
0.532036 0.978164 0.601251
0.69836 0.975845 0.596536
0.907698 0.971939 0.588724
1 0.966339 0.577279
0.148775 0.0202487 0.92137
0.327428 0.0125277 0.918853
0.559594 0 0.913619
0.808164 0 0.905928
1 0 0.896086
0.190051 0.252949 0.913771
0.350118 0.249348 0.911711
0.573175 0.240681 0.907195
0.81738 0.22533 0.900191
1 0.201266 0.890852
0.263951 0.493675 0.899855
0.397162 0.491691 0.898146
0.603067 0.487022 0.89427
0.838117 0.479133 0.888014
1 0.467491 0.879393
0.35697 0.736812 0.880217
0.465095 0.73547 0.87866
0.649485 0.732326 0.875196
0.871397 0.727108 0.869398
1 0.719554 0.861128
0.459495 0.980652 0.854398
0.547799 0.979629 0.852934
0.710262 0.977325 0.849607
0.916686 0.973465 0.843976
1 0.967895 0.835935
