creative/lut-french-oil-painting.cube
TITLE "Generated by Resolve"
LUT_3D_SIZE 5
0.00474556 0.00474556 0.0142214
0.213199 0.0340124 0.0499275
0.586786 0.122026 0.0613107
0.854124 0.172274 0.110246
0.981643 0.194293 0.127947
0.00175479 0.201984 0.0370642
0.207813 0.223636 0.0469978
0.59382 0.284977 0.0760815
0.859892 0.307988 0.108782
0.99585 0.311162 0.12929
1.5259e-05 0.457527 0.0701152
0.15903 0.471626 0.0765393
0.580087 0.54641 0.126482
0.853864 0.577981 0.115938
0.993484 0.570657 0.104692
0 0.687633 0.126619
0.238254 0.707439 0.145052
0.568002 0.741756 0.169131
0.833387 0.797803 0.187579
0.993484 0.817639 0.195544
0.16318 0.875715 0.197574
0.405386 0.896498 0.223316
0.625223 0.911635 0.221302
0.822492 0.940581 0.232319
0.961868 0.957168 0.235782
0.0388037 0.0729686 0.236149
0.212055 0.0402686 0.230945
0.57641 0.119661 0.262013
0.851942 0.172412 0.272435
0.979538 0.194293 0.279042
0.0100557 0.235767 0.224063
0.224781 0.239277 0.232563
0.59115 0.280308 0.233356
0.858854 0.302861 0.256229
0.983612 0.309667 0.262013
0 0.470054 0.204654
0.166934 0.491035 0.227695
0.577325 0.553841 0.252033
0.856641 0.575906 0.238895
0.979324 0.570565 0.215793
0 0.697719 0.233051
0.256809 0.719509 0.261067
0.573999 0.748592 0.282841
0.83476 0.801343 0.29012
0.98732 0.820127 0.294499
0.179232 0.882628 0.304341
0.417639 0.90161 0.325719
0.632593 0.914855 0.327276
0.821485 0.943145 0.330724
0.962722 0.956466 0.3364
0.10338 0.166033 0.558495
0.26479 0.166033 0.554559
0.570809 0.119478 0.532753
0.864759 0.195102 0.568948
0.989303 0.226566 0.586114
0.110826 0.318441 0.524788
0.274907 0.319905 0.535271
0.586587 0.279881 0.534752
0.869001 0.327947 0.560647
0.990127 0.341817 0.569894
0.000228885 0.56054 0.506188
0.192081 0.555093 0.50869
0.588525 0.561059 0.521202
0.848264 0.580514 0.522347
0.989166 0.584039 0.518242
4.57771e-05 0.732265 0.463157
0.226581 0.733715 0.470726
0.599802 0.766262 0.524453
0.840543 0.804532 0.523461
0.992859 0.811856 0.51754
0.137331 0.876829 0.45687
0.396872 0.897383 0.487694
0.653468 0.923903 0.536934
0.827375 0.940032 0.536522
0.96231 0.95581 0.514336
0.108598 0.241291 0.832212
0.283299 0.249271 0.831037
0.562875 0.151949 0.784634
0.853727 0.192767 0.801266
0.980865 0.21326 0.81326
0.131884 0.38436 0.80705
0.295094 0.390845 0.813046
0.571496 0.315358 0.794934
0.858717 0.3205 0.803662
0.98555 0.326223 0.815457
0.199847 0.619562 0.780438
0.357534 0.619028 0.781155
0.609873 0.608972 0.790326
0.852064 0.582757 0.796139
0.985061 0.585077 0.802899
0.027039 0.79678 0.773785
0.274479 0.797223 0.769375
0.621515 0.796017 0.776364
0.846357 0.804639 0.78613
0.976043 0.808911 0.783123
0.255879 0.947463 0.744015
0.423651 0.9364 0.747036
0.665125 0.927794 0.75584
0.847761 0.947402 0.787411
0.97467 0.959838 0.779309
0.0199588 0.271412 0.994369
0.251743 0.280415 0.99472
0.556588 0.231495 0.987823
0.84213 0.181964 0.966018
0.99527 0.214801 0.976898
0.0784772 0.41062 0.991608
0.277241 0.413611 0.991363
0.573739 0.380743 0.98883
0.845258 0.310567 0.966873
0.993973 0.323949 0.977523
0.231861 0.654444 0.961807
0.375463 0.650599 0.961624
0.620569 0.650614 0.977615
0.846098 0.581048 0.965942
0.993133 0.586969 0.976181
0.231525 0.829984 0.968475
0.395331 0.830198 0.966537
0.668574 0.830381 0.961852
0.848478 0.817182 0.967666
0.987167 0.809186 0.968963
0.28304 0.96022 0.958968
0.450172 0.960235 0.959136
0.693828 0.960006 0.964981
0.857954 0.959976 0.965225
0.982254 0.96701 0.962402
