creative/lut-fuji-c200-cool.cube
TITLE "Generated by Resolve"
LUT_3D_SIZE 9
0.0679179 0.0738079 0.0713054
0.160037 0.104646 0.0925612
0.35111 0.118898 0.0908217
0.54699 0.135363 0.0896468
0.677317 0.152636 0.0928664
0.749966 0.16231 0.0960861
0.797055 0.169314 0.0997787
0.832029 0.179736 0.107912
0.867918 0.204028 0.137377
0.0771954 0.167742 0.08748
0.133501 0.187488 0.0992294
0.30428 0.227665 0.107469
0.508263 0.259083 0.111727
0.654887 0.279805 0.108965
0.73312 0.294011 0.110109
0.785733 0.301808 0.11313
0.826062 0.296574 0.113329
0.870405 0.296742 0.122286
0.0867781 0.326223 0.103471
0.116457 0.302022 0.0901808
0.27068 0.337469 0.110887
0.477348 0.38764 0.135515
0.63328 0.421607 0.138613
0.718669 0.43975 0.137469
0.773526 0.452216 0.138811
0.819898 0.456016 0.142702
0.871458 0.456413 0.160021
0.11107 0.484779 0.146914
0.114382 0.461891 0.0818952
0.248127 0.493248 0.0969253
0.448722 0.546349 0.152926
0.646845 0.580453 0.188998
0.715145 0.587091 0.179248
0.767926 0.600549 0.17847
0.815366 0.612024 0.185977
0.868254 0.618418 0.204776
0.148653 0.595041 0.202319
0.14873 0.599451 0.108263
0.221027 0.630991 0.0937514
0.41323 0.641657 0.123354
0.61532 0.712032 0.208103
0.743023 0.72929 0.238407
0.806714 0.735027 0.250248
0.842405 0.73489 0.247837
0.880735 0.728008 0.243259
0.193957 0.645457 0.255543
0.2038 0.673198 0.172534
0.233478 0.700389 0.122347
0.377218 0.72459 0.133715
0.586831 0.745571 0.196048
0.718563 0.810437 0.265888
0.805158 0.82417 0.291554
0.868086 0.827832 0.312551
0.915129 0.82356 0.312825
0.226825 0.677272 0.307057
0.248295 0.708202 0.247776
0.276585 0.736263 0.19321
0.350103 0.771176 0.172641
0.533867 0.792462 0.20882
0.692866 0.839643 0.278889
0.786221 0.884901 0.329351
0.856992 0.902098 0.3552
0.93434 0.906737 0.378027
0.263493 0.704463 0.370977
0.299702 0.729412 0.326757
0.333867 0.754147 0.295064
0.37937 0.786236 0.262196
0.483574 0.828489 0.258961
0.6215 0.850843 0.278218
0.743938 0.896208 0.331273
0.832731 0.949889 0.389364
0.92517 0.977783 0.423362
0.316274 0.738552 0.447562
0.348882 0.752239 0.424643
0.383444 0.775082 0.419654
0.420325 0.797543 0.397665
0.482643 0.827756 0.388006
0.555825 0.855268 0.387823
0.626627 0.883757 0.382483
0.719738 0.905196 0.392737
0.846738 0.970062 0.477287
0.0683604 0.0746624 0.110277
0.149279 0.0949721 0.129686
0.327596 0.103563 0.140719
0.532082 0.118929 0.146334
0.673228 0.13753 0.159335
0.749584 0.15172 0.170321
0.796735 0.166079 0.182406
0.832059 0.183352 0.202823
0.868009 0.212665 0.239063
0.0769665 0.172778 0.14461
0.128222 0.172137 0.134783
0.286091 0.19443 0.140322
0.490715 0.203769 0.140246
0.645975 0.219287 0.145266
0.734325 0.223972 0.141344
0.795453 0.226505 0.138521
0.845762 0.226246 0.138445
0.889845 0.246983 0.163668
0.0882734 0.332662 0.201617
0.11339 0.296941 0.136461
0.263142 0.322713 0.151781
0.462959 0.347494 0.163973
0.629099 0.367239 0.171008
0.720241 0.380774 0.172198
0.782284 0.388785 0.169345
0.835599 0.38526 0.163622
0.890593 0.370901 0.164645
0.112764 0.485603 0.261906
0.110369 0.45214 0.145449
0.240208 0.481544 0.149111
0.438148 0.519203 0.1935
0.62002 0.532128 0.204746
0.70602 0.541924 0.200366
0.771023 0.560189 0.20856
0.826886 0.577523 0.219837
0.888197 0.581491 0.224781
0.151995 0.594766 0.31281
0.147906 0.592859 0.199985
0.218601 0.621729 0.15761
0.407446 0.630838 0.181247
0.605173 0.691859 0.249729
0.738949 0.706371 0.273838
0.7991 0.710582 0.280095
0.837522 0.713588 0.281163
0.888029 0.712077 0.27071
0.19646 0.646052 0.351339
0.207218 0.660365 0.271916
0.232563 0.692897 0.2
0.377935 0.715373 0.201862
0.579278 0.729274 0.244327
0.717723 0.801968 0.312703
0.808743 0.816922 0.338643
0.873304 0.822812 0.358755
0.919585 0.818235 0.34934
0.228504 0.678523 0.389288
0.253208 0.697826 0.337606
0.282795 0.727321 0.283879
0.35317 0.76408 0.242466
0.531273 0.786969 0.265843
0.689387 0.825925 0.320195
0.788342 0.882353 0.377691
0.863462 0.900862 0.407935
0.947402 0.91104 0.424811
0.263264 0.707027 0.434699
0.299413 0.727123 0.401587
0.339574 0.749142 0.368414
0.386648 0.781353 0.334371
0.477913 0.824842 0.314443
0.610178 0.854047 0.320409
0.737774 0.889815 0.360281
0.840009 0.954498 0.434638
0.939727 0.986236 0.467094
0.312947 0.73846 0.484703
0.348913 0.755428 0.465736
0.382269 0.7729 0.449836
0.420905 0.797925 0.443656
0.480415 0.826688 0.425803
0.554833 0.854566 0.43125
0.622843 0.883635 0.421271
0.71519 0.907134 0.424872
0.852476 0.96939 0.507881
0.0627146 0.07953 0.247059
0.15877 0.101732 0.256092
0.342306 0.117876 0.269017
0.540215 0.133227 0.281575
0.665888 0.147311 0.283619
0.73904 0.163378 0.292256
0.790478 0.179339 0.307225
0.83061 0.199649 0.330571
0.869581 0.23888 0.377325
0.0690318 0.160647 0.261204
0.128893 0.17409 0.251804
0.300816 0.19205 0.261738
0.500923 0.197635 0.267689
0.643214 0.20856 0.270588
0.728115 0.215976 0.271962
0.788098 0.224704 0.277028
0.837369 0.236545 0.2878
0.887831 0.263478 0.326375
0.10071 0.325261 0.357824
0.119905 0.301717 0.271168
0.290135 0.325338 0.28278
0.490837 0.327321 0.276493
0.638178 0.333333 0.278355
0.722255 0.343282 0.280598
0.78027 0.354803 0.285451
0.830411 0.367849 0.295689
0.88867 0.374578 0.310918
0.115007 0.488823 0.375616
0.113954 0.451637 0.286061
0.252415 0.476463 0.285679
0.452934 0.500282 0.299443
0.615732 0.502159 0.292531
0.705852 0.514611 0.29604
0.765347 0.528893 0.310613
0.817929 0.546517 0.331823
0.885542 0.562966 0.351431
0.151843 0.596948 0.42118
0.151156 0.592172 0.335225
0.219135 0.610788 0.29012
0.423529 0.620569 0.306371
0.608927 0.667643 0.345861
0.728771 0.676402 0.360525
0.77232 0.674617 0.361761
0.815259 0.681071 0.380423
0.884321 0.694194 0.40177
0.198825 0.650217 0.458839
0.211383 0.662028 0.390265
0.236133 0.680095 0.32694
0.386587 0.705852 0.323949
0.581994 0.711543 0.350668
0.712001 0.774853 0.411444
0.797787 0.790173 0.439979
0.849454 0.79057 0.458015
0.893477 0.781476 0.455055
0.233509 0.684062 0.484703
0.254246 0.70074 0.439536
0.286275 0.720485 0.396902
0.361059 0.755947 0.359625
0.539681 0.779278 0.378714
0.681346 0.796796 0.415564
0.777234 0.855634 0.479438
0.852583 0.877867 0.514809
0.935744 0.886488 0.526543
0.266453 0.711818 0.507057
0.296651 0.729717 0.487205
0.338003 0.749737 0.462577
0.38999 0.778653 0.435325
0.478859 0.820996 0.414145
0.608072 0.850507 0.426291
0.722805 0.868818 0.454643
0.830335 0.928374 0.52932
0.939162 0.974472 0.560311
0.312139 0.74226 0.537926
0.345327 0.755367 0.534554
0.384176 0.774441 0.519783
0.422187 0.798688 0.512154
0.484504 0.826108 0.505699
0.558267 0.854383 0.503807
0.622675 0.884001 0.489754
0.711986 0.908873 0.481102
0.848417 0.958038 0.540764
0.0674754 0.0980697 0.41004
0.187442 0.1187 0.404166
0.343328 0.135744 0.404211
0.534218 0.154192 0.417014
0.664469 0.170169 0.425299
0.733303 0.181689 0.421759
0.7832 0.196979 0.430503
0.823087 0.221469 0.453758
0.864591 0.266499 0.500023
0.0569619 0.150576 0.388693
0.124132 0.173281 0.393332
0.288441 0.191897 0.395224
0.493889 0.204349 0.406424
0.646067 0.216205 0.40734
0.726085 0.232853 0.411551
0.77937 0.251804 0.421653
0.826276 0.273091 0.441337
0.882414 0.310979 0.492012
0.0931258 0.293568 0.465461
0.131548 0.291157 0.441413
0.290929 0.323507 0.424918
0.495399 0.334386 0.433112
0.641154 0.342748 0.43679
0.720485 0.358236 0.442329
0.776822 0.369833 0.451041
0.826795 0.380026 0.459983
0.885084 0.390921 0.480903
0.133074 0.477165 0.522881
0.130602 0.45095 0.468696
0.257954 0.479164 0.4486
0.469642 0.488853 0.454246
0.621134 0.498955 0.45008
0.706935 0.506081 0.448508
0.76643 0.516808 0.453193
0.820081 0.528038 0.461769
0.886366 0.542916 0.474098
0.154971 0.603189 0.510628
0.151827 0.596582 0.462364
0.223682 0.613535 0.449882
0.435966 0.617853 0.464393
0.60499 0.639292 0.478233
0.700954 0.643503 0.47921
0.760128 0.653819 0.487266
0.813626 0.667201 0.502083
0.883635 0.680323 0.514473
0.196231 0.652018 0.52076
0.212329 0.663981 0.501076
0.23856 0.683101 0.470115
0.385992 0.702449 0.471656
0.585199 0.70602 0.493156
0.697017 0.741604 0.526497
0.777676 0.755413 0.548928
0.81796 0.754849 0.555398
0.881559 0.762081 0.556893
0.232944 0.682261 0.537484
0.257053 0.702144 0.530953
0.286061 0.724193 0.510857
0.357595 0.755199 0.489128
0.543008 0.776272 0.512123
0.677562 0.783261 0.541192
0.762402 0.817868 0.588281
0.832685 0.842054 0.619181
0.901976 0.847745 0.616449
0.266468 0.70837 0.557733
0.297063 0.731044 0.55642
0.335073 0.751522 0.551568
0.390387 0.779538 0.53254
0.480491 0.819272 0.526696
0.613046 0.847944 0.545617
0.725322 0.862181 0.580468
0.81474 0.886351 0.624674
0.916442 0.941253 0.662867
0.31313 0.739818 0.583062
0.343679 0.756436 0.587762
0.381949 0.774227 0.588922
0.426215 0.79855 0.578729
0.486275 0.825223 0.582696
0.556802 0.853437 0.583352
0.622217 0.883192 0.577661
0.709667 0.909529 0.575296
0.841993 0.93959 0.598032
0.0859693 0.123552 0.536202
0.227832 0.143862 0.521904
0.372351 0.160113 0.528862
0.525963 0.173816 0.529854
0.656596 0.189792 0.534615
0.728649 0.205692 0.538018
0.775433 0.220462 0.539605
0.815259 0.241978 0.555352
0.861234 0.28397 0.589517
0.0582895 0.152987 0.511864
0.140764 0.180407 0.513924
0.29424 0.199115 0.513024
0.482063 0.214832 0.521859
0.638651 0.224399 0.523491
0.729015 0.238514 0.524575
0.782467 0.257847 0.531075
0.826688 0.284962 0.551644
0.880446 0.33138 0.601572
0.0679026 0.27628 0.553277
0.130999 0.298238 0.553979
0.288716 0.320577 0.542657
0.482551 0.336812 0.549752
0.639277 0.346868 0.555001
0.72311 0.359396 0.55758
0.776196 0.378805 0.564508
0.822965 0.399496 0.578653
0.882536 0.433097 0.612268
0.132815 0.448646 0.62649
0.14934 0.438392 0.621775
0.277119 0.464012 0.601633
0.462577 0.48365 0.562905
0.62211 0.497505 0.569131
0.708644 0.512871 0.573816
0.76553 0.53051 0.57998
0.817823 0.545953 0.591653
0.883787 0.56376 0.610391
0.168078 0.588479 0.621408
0.16614 0.586496 0.6094
0.237476 0.609018 0.617197
0.433371 0.619318 0.596918
0.611811 0.625803 0.598123
0.699046 0.637278 0.595407
0.761349 0.648615 0.599344
0.816129 0.660685 0.605997
0.883741 0.671031 0.611261
0.194812 0.649699 0.586709
0.209522 0.665278 0.580423
0.23801 0.685863 0.588617
0.385031 0.70631 0.602533
0.591669 0.707408 0.61413
0.696254 0.720195 0.628061
0.763241 0.733379 0.635904
0.814115 0.74519 0.644388
0.881849 0.754833 0.641382
0.228229 0.683192 0.586892
0.254932 0.703593 0.601373
0.285542 0.725689 0.607874
0.355474 0.75758 0.609186
0.544701 0.775845 0.628534
0.687144 0.78265 0.650919
0.762676 0.797513 0.67042
0.82472 0.821836 0.691218
0.884138 0.825498 0.683284
0.265141 0.712047 0.615549
0.295888 0.732036 0.62707
0.33135 0.751919 0.625772
0.388113 0.779644 0.6224
0.482094 0.820264 0.626032
0.617685 0.846494 0.64799
0.734356 0.858732 0.675685
0.81117 0.869261 0.700633
0.8981 0.913283 0.731151
0.313298 0.743374 0.640131
0.339635 0.756359 0.638132
0.377859 0.772992 0.635218
0.42182 0.797971 0.63743
0.486107 0.82623 0.639414
0.556115 0.854154 0.649729
0.625223 0.883131 0.649332
0.715099 0.908827 0.6607
0.833829 0.925475 0.678035
0.123827 0.157351 0.635233
0.271626 0.172412 0.61709
0.403891 0.188327 0.630335
0.534768 0.198444 0.628809
0.647395 0.210483 0.624887
0.720455 0.227192 0.625132
0.767849 0.246571 0.628107
0.805875 0.267704 0.634699
0.853635 0.30277 0.655421
0.0586252 0.157809 0.637858
0.162036 0.187884 0.639017
0.316716 0.209995 0.632609
0.492027 0.232609 0.636011
0.632181 0.245335 0.632273
0.722789 0.259709 0.631128
0.781826 0.277836 0.637278
0.827588 0.302632 0.64921
0.876509 0.347372 0.676799
0.0780041 0.287465 0.663722
0.161013 0.310277 0.655177
0.309499 0.327596 0.648173
0.487526 0.34284 0.650034
0.633555 0.355108 0.653086
0.719463 0.364401 0.652552
0.779339 0.379294 0.655573
0.827329 0.39942 0.66392
0.884367 0.438727 0.692439
0.115175 0.422126 0.70164
0.157015 0.435004 0.696559
0.278782 0.458412 0.663767
0.463935 0.477485 0.657618
0.619699 0.492866 0.662715
0.710765 0.511818 0.666911
0.771282 0.529839 0.670848
0.821759 0.551446 0.680598
0.883223 0.579232 0.702281
0.180011 0.572137 0.725475
0.187564 0.576364 0.747295
0.274907 0.598016 0.74696
0.452415 0.608988 0.715389
0.613046 0.626215 0.6813
0.704189 0.640391 0.684489
0.766644 0.654765 0.690486
0.818814 0.670695 0.701076
0.882307 0.684382 0.71191
0.207965 0.639841 0.707774
0.224491 0.655756 0.721279
0.259953 0.681117 0.739559
0.404059 0.700801 0.734798
0.598398 0.709545 0.707057
0.708751 0.719539 0.708537
0.767544 0.734035 0.712749
0.820249 0.745739 0.717479
0.884565 0.752682 0.716365
0.235828 0.681819 0.679713
0.261158 0.70396 0.689998
0.292058 0.728695 0.702037
0.360571 0.761807 0.714916
0.550286 0.778958 0.712703
0.698116 0.784192 0.72726
0.77084 0.795956 0.73785
0.825055 0.813245 0.746197
0.884459 0.820951 0.742962
0.267674 0.7149 0.659525
0.297978 0.735653 0.675608
0.335256 0.757198 0.687373
0.386435 0.785336 0.693401
0.483925 0.824155 0.702541
0.627756 0.847654 0.728008
0.74757 0.858228 0.750744
0.818677 0.868452 0.763577
0.888823 0.895323 0.781353
0.321584 0.749523 0.674968
0.345068 0.762417 0.681361
0.376379 0.778744 0.683162
0.422065 0.801984 0.679866
0.488502 0.828931 0.687907
0.56347 0.857053 0.701076
0.633524 0.885863 0.715679
0.723201 0.909392 0.729519
0.838712 0.923308 0.748913
0.181033 0.19675 0.710872
0.317998 0.205737 0.698726
0.432471 0.22002 0.707378
0.546807 0.231601 0.706691
0.644266 0.247028 0.702846
0.714885 0.263935 0.703471
0.76408 0.280217 0.70605
0.803296 0.298558 0.710689
0.849134 0.33431 0.721538
0.0777905 0.193103 0.741726
0.200336 0.216739 0.737621
0.345739 0.230182 0.730159
0.506523 0.251835 0.731472
0.637949 0.274617 0.727565
0.722774 0.294835 0.725338
0.779248 0.315465 0.72607
0.82208 0.337774 0.729564
0.866743 0.380148 0.738079
0.089601 0.284291 0.74905
0.184665 0.310323 0.741436
0.329946 0.329046 0.738003
0.504387 0.349538 0.737682
0.641245 0.371344 0.736294
0.723674 0.388754 0.73669
0.780041 0.403876 0.737682
0.829038 0.422248 0.741512
0.88278 0.463355 0.756954
0.130022 0.439933 0.768978
0.200732 0.459983 0.754452
0.324102 0.481743 0.745647
0.493553 0.493004 0.742611
0.635569 0.507179 0.742733
0.720134 0.527657 0.746349
0.776989 0.546075 0.750103
0.826612 0.566613 0.756664
0.885557 0.595392 0.772641
0.188449 0.573327 0.830915
0.224918 0.591791 0.849454
0.321187 0.602121 0.822461
0.46717 0.611505 0.765682
0.627253 0.633494 0.760815
0.717174 0.648737 0.762951
0.774197 0.664866 0.767391
0.824598 0.680293 0.773358
0.882963 0.694057 0.785519
0.224781 0.638239 0.790875
0.247318 0.659815 0.831388
0.304234 0.684916 0.85388
0.445472 0.695521 0.829282
0.614694 0.705943 0.787442
0.715068 0.72639 0.778256
0.774838 0.741009 0.782605
0.824887 0.753246 0.789532
0.883452 0.763592 0.798123
0.257053 0.679225 0.768688
0.284688 0.701137 0.791775
0.3196 0.72784 0.82063
0.396963 0.759014 0.84358
0.582361 0.772915 0.826276
0.711559 0.78468 0.811566
0.782528 0.799237 0.805493
0.828443 0.814328 0.810636
0.886503 0.822599 0.813672
0.289372 0.717418 0.750652
0.315984 0.733608 0.762142
0.352255 0.756207 0.776074
0.400763 0.787503 0.787884
0.495888 0.827787 0.806668
0.642908 0.850172 0.816861
0.757427 0.860304 0.821897
0.830533 0.870604 0.831418
0.890074 0.885222 0.838026
0.333165 0.755734 0.719051
0.35201 0.768292 0.720195
0.377859 0.783062 0.721904
0.422904 0.807385 0.730159
0.494301 0.833753 0.745312
0.575753 0.863249 0.765698
0.647135 0.890547 0.787152
0.738064 0.910613 0.809155
0.850889 0.920745 0.829908
0.241154 0.246311 0.768017
0.36701 0.257191 0.764187
0.468208 0.26833 0.765026
0.565301 0.279911 0.764431
0.648661 0.293248 0.763775
0.710719 0.310231 0.770565
0.756756 0.324285 0.774792
0.798169 0.350988 0.781872
0.846281 0.401007 0.792615
0.148394 0.265431 0.799512
0.271901 0.278248 0.795621
0.40676 0.287037 0.79353
0.54136 0.298543 0.790188
0.646479 0.311925 0.789014
0.720027 0.332891 0.793896
0.769985 0.35491 0.798215
0.812406 0.385458 0.802441
0.859831 0.443626 0.811017
0.0951858 0.294102 0.838605
0.180209 0.310964 0.831327
0.322667 0.319539 0.825879
0.502571 0.331365 0.822629
0.642939 0.349065 0.818921
0.730312 0.379461 0.823636
0.785122 0.416022 0.827604
0.830045 0.454902 0.831083
0.875578 0.514015 0.833997
0.12108 0.421851 0.868177
0.178134 0.447913 0.859098
0.298009 0.459358 0.853376
0.483467 0.464454 0.848692
0.645289 0.479255 0.84715
0.740246 0.508492 0.849714
0.797574 0.54609 0.855558
0.84448 0.583825 0.860517
0.888518 0.619593 0.86125
0.232395 0.598703 0.933364
0.288502 0.623362 0.925841
0.373602 0.63212 0.889281
0.509499 0.65095 0.872984
0.65243 0.657801 0.874571
0.741955 0.668284 0.875837
0.797528 0.679362 0.877165
0.844007 0.690974 0.879606
0.890654 0.70811 0.88275
0.259449 0.664256 0.940856
0.28867 0.686122 0.967895
0.348058 0.703029 0.963363
0.463737 0.704158 0.916548
0.614572 0.723949 0.885008
0.725277 0.738918 0.889021
0.789837 0.74757 0.889876
0.840558 0.756817 0.89131
0.889433 0.769909 0.893599
0.288457 0.700786 0.893156
0.310536 0.720043 0.925902
0.344564 0.743603 0.965209
0.423224 0.764996 0.971069
0.583902 0.768399 0.925765
0.696971 0.78677 0.899275
0.779782 0.805158 0.902205
0.836957 0.815778 0.900862
0.888975 0.828153 0.901686
0.321035 0.727138 0.847013
0.342229 0.742245 0.866102
0.372396 0.763363 0.891005
0.424033 0.794934 0.930968
0.529976 0.825589 0.953155
0.669795 0.842237 0.9449
0.765698 0.854032 0.927443
0.828595 0.868803 0.91339
0.889998 0.883055 0.910246
0.36611 0.76202 0.809506
0.385763 0.774838 0.817472
0.405066 0.787732 0.82443
0.439857 0.809049 0.831144
0.515053 0.837903 0.858213
0.593973 0.866682 0.884169
0.670176 0.890578 0.910445
0.760967 0.906401 0.92314
0.862593 0.918715 0.921233
0.272892 0.273106 0.789731
0.370993 0.279911 0.790463
0.479149 0.289723 0.789105
0.574121 0.301381 0.788769
0.652522 0.315068 0.79147
0.712032 0.333516 0.799054
0.756893 0.359594 0.80705
0.791653 0.386694 0.813352
0.841016 0.441321 0.826215
0.202396 0.297292 0.818067
0.306889 0.302419 0.816068
0.441871 0.312886 0.814542
0.559655 0.32256 0.8121
0.655589 0.336797 0.810254
0.720851 0.361624 0.816495
0.766171 0.392294 0.823651
0.80296 0.417777 0.828031
0.851713 0.487282 0.840055
0.135988 0.336355 0.854932
0.222187 0.342855 0.848707
0.370489 0.352651 0.843214
0.531029 0.363409 0.839979
0.650919 0.381918 0.836118
0.725902 0.404349 0.837995
0.773739 0.43093 0.841611
0.813214 0.464958 0.846967
0.858869 0.531914 0.852918
0.13257 0.422461 0.897017
0.165576 0.432685 0.890959
0.278431 0.444343 0.88455
0.472938 0.450919 0.877638
0.63711 0.466484 0.875578
0.729732 0.496376 0.873854
0.784054 0.531014 0.87747
0.826368 0.568872 0.880751
0.869184 0.604608 0.882368
0.223682 0.573632 0.927016
0.242252 0.583093 0.927977
0.298283 0.595132 0.913603
0.436042 0.610605 0.903548
0.616251 0.61709 0.90486
0.725978 0.63061 0.904677
0.788556 0.648356 0.904295
0.836072 0.669032 0.905562
0.879316 0.691646 0.904448
0.283223 0.671031 0.980362
0.299214 0.681666 0.985351
0.345907 0.69778 0.980789
0.461585 0.705577 0.934401
0.613519 0.725139 0.915251
0.719676 0.732006 0.917571
0.782879 0.736309 0.915862
0.832563 0.742687 0.914656
0.880385 0.755978 0.915496
0.310185 0.716472 0.966232
0.325429 0.726635 0.981506
0.35317 0.741299 0.992798
0.433005 0.757504 0.985626
0.573907 0.758328 0.932433
0.688121 0.781353 0.920729
0.769696 0.795758 0.922133
0.82623 0.803586 0.920623
0.877165 0.813626 0.919264
0.344198 0.744686 0.92311
0.362005 0.757168 0.944701
0.380133 0.77026 0.961318
0.429191 0.793256 0.979873
0.543496 0.810697 0.974411
0.658366 0.818936 0.951537
0.738079 0.83003 0.928206
0.806989 0.849363 0.925856
0.873014 0.863508 0.922683
0.389975 0.779141 0.867857
0.407492 0.79118 0.870008
0.429313 0.801953 0.879026
0.463951 0.81677 0.904692
0.53962 0.839841 0.931609
0.622126 0.860227 0.936751
0.705623 0.881392 0.948989
0.780148 0.894347 0.949218
0.861677 0.907881 0.942061
