creative/lut-fuji-film.cube
TITLE "Generated by Resolve"
LUT_3D_SIZE 9
0.0137484 0.0180209 0.0176089
0.1084 0.0286412 0.0195773
0.234821 0.0569772 0.0194095
0.401648 0.0500649 0.0015259
0.573877 0.0466011 0
0.731243 0.0961318 0
0.863645 0.149905 0
0.954101 0.203647 0
0.998611 0.257527 0
0.0216831 0.113344 0.0308385
0.109957 0.116121 0.0263676
0.240146 0.130114 0.00868238
0.404715 0.137545 0
0.575006 0.148013 0
0.731167 0.175967 0
0.862913 0.216617 0
0.954009 0.262867 0
0.99852 0.311055 0
0 0.248646 0.0421607
0.0669413 0.251621 0.0359655
0.241581 0.258076 0.00674449
0.41088 0.270954 0
0.580056 0.282353 0
0.731548 0.298848 0
0.860883 0.321874 0
0.953841 0.352667 0
0.998383 0.386465 0
0 0.416953 0.0641947
0.0412604 0.418769 0.0617838
0.233997 0.423056 0.0346685
0.407919 0.425483 9.15541e-05
0.574929 0.431617 0
0.727031 0.438407 0
0.856458 0.446754 0
0.953567 0.462501 0
0.998169 0.481178 0
0 0.568231 0.125948
0.0408637 0.569055 0.125597
0.258183 0.572625 0.122423
0.420005 0.572061 0.105867
0.57232 0.570016 0.0670329
0.716396 0.569848 0.00764477
0.845792 0.571679 0.000762951
0.952041 0.577432 0
0.997864 0.582834 0
0.160601 0.691432 0.197696
0.210971 0.69218 0.198337
0.322911 0.69369 0.19794
0.453437 0.69424 0.192844
0.585107 0.691279 0.177508
0.714336 0.687633 0.154314
0.835294 0.685267 0.13843
0.943496 0.68545 0.115251
0.997467 0.685557 0.0462806
0.265644 0.792538 0.262318
0.307271 0.794659 0.265934
0.390005 0.794705 0.26511
0.498741 0.797543 0.268513
0.608576 0.795193 0.258503
0.720424 0.791348 0.241749
0.830961 0.788495 0.221164
0.929992 0.784192 0.204669
0.996994 0.783993 0.184298
0.354833 0.885252 0.32961
0.385229 0.885786 0.330877
0.452873 0.88423 0.326925
0.54284 0.886 0.331289
0.639017 0.886397 0.330465
0.736049 0.884718 0.320348
0.834134 0.883986 0.308644
0.926863 0.88249 0.28835
0.996429 0.87834 0.273381
0.450324 0.972808 0.419593
0.476188 0.973999 0.424628
0.538888 0.973144 0.421454
0.610101 0.973678 0.42417
0.686885 0.974136 0.426154
0.765927 0.974456 0.423453
0.846616 0.975052 0.417975
0.927626 0.975891 0.407843
0.995727 0.977417 0.39205
0.0110475 0.0282444 0.117189
0.112413 0.0307164 0.116121
0.239857 0.0524453 0.110979
0.404349 0.0648051 0.106203
0.574792 0.0760967 0.0753796
0.730922 0.112764 0.0423896
0.862913 0.160815 0.0417029
0.954101 0.211429 0.0408637
0.998611 0.261219 0.0398718
0.00474556 0.118776 0.118883
0.110811 0.122225 0.118471
0.244282 0.132998 0.115084
0.407614 0.142443 0.104036
0.576165 0.156542 0.0692912
0.731014 0.18526 0.0420081
0.862226 0.224689 0.0413519
0.954009 0.26923 0.0404822
0.998474 0.313756 0.0394751
0 0.254505 0.130907
0.0751812 0.25742 0.129381
0.246067 0.263828 0.119966
0.413718 0.27538 0.0948653
0.580591 0.28687 0.0469978
0.731212 0.303944 0.0413977
0.860075 0.326909 0.0406958
0.953841 0.356924 0.0398718
0.998337 0.388174 0.0388647
0 0.419043 0.148516
0.0411383 0.420783 0.147158
0.240848 0.425788 0.139483
0.410376 0.427848 0.112139
0.575723 0.434104 0.0680095
0.726986 0.441016 0.0404669
0.855848 0.449439 0.0397345
0.953552 0.464607 0.0388647
0.998123 0.481773 0.0378576
0 0.568704 0.192111
0.0494698 0.569528 0.19147
0.263996 0.573236 0.189075
0.422675 0.573129 0.175586
0.573251 0.571038 0.149172
0.716426 0.57084 0.121691
0.845365 0.572915 0.0752422
0.951812 0.57763 0.0410468
0.997864 0.583337 0.0364691
0.167788 0.691737 0.251469
0.216388 0.692103 0.251347
0.326009 0.693721 0.250858
0.455589 0.694545 0.246128
0.585901 0.691585 0.23093
0.714458 0.688075 0.208392
0.834882 0.68574 0.192294
0.942443 0.685267 0.168444
0.997467 0.686213 0.113817
0.273564 0.794842 0.311437
0.318471 0.79852 0.317678
0.39968 0.798428 0.316442
0.503655 0.799542 0.316381
0.610712 0.796246 0.304067
0.721569 0.792157 0.286213
0.831174 0.789105 0.264485
0.929412 0.784146 0.245289
0.996948 0.784466 0.225086
0.360235 0.886793 0.371969
0.393698 0.888395 0.376059
0.461784 0.887236 0.37258
0.547951 0.887922 0.373892
0.641642 0.88748 0.37052
0.737331 0.885679 0.359167
0.834546 0.884657 0.345708
0.926772 0.882567 0.322744
0.996384 0.878737 0.307118
0.453346 0.97351 0.455344
0.480613 0.975113 0.461952
0.543755 0.974517 0.459373
0.61265 0.974441 0.459266
0.687907 0.974548 0.459068
0.766308 0.974762 0.455131
0.846693 0.97525 0.448264
0.927459 0.975921 0.43624
0.995773 0.977447 0.419181
0 0.0525826 0.261662
0.0485084 0.052018 0.261036
0.244923 0.0364843 0.25977
0.4224 0.0311742 0.246693
0.57705 0.115007 0.24715
0.728801 0.157885 0.243992
0.858412 0.199603 0.235126
0.954101 0.241062 0.220615
0.998566 0.282261 0.198581
0 0.132769 0.263935
0.0497444 0.133272 0.264103
0.249271 0.134783 0.262226
0.419211 0.152605 0.251987
0.577096 0.190585 0.251347
0.728298 0.223758 0.245975
0.85771 0.258412 0.235142
0.953979 0.296025 0.220661
0.998474 0.333394 0.198169
0 0.26511 0.268666
0.0449683 0.268223 0.268544
0.252552 0.279561 0.268864
0.417929 0.292424 0.263661
0.579828 0.307393 0.256535
0.728359 0.326436 0.247456
0.855756 0.349264 0.23711
0.95375 0.376211 0.223804
0.998337 0.403845 0.201785
0 0.422446 0.285542
0.0409552 0.424826 0.286458
0.256107 0.433204 0.28751
0.417121 0.437003 0.27715
0.578302 0.443809 0.26511
0.726253 0.451514 0.252125
0.851942 0.461402 0.243381
0.952987 0.476143 0.232197
0.998123 0.492042 0.2112
0.026688 0.569879 0.316686
0.127901 0.570687 0.316579
0.28159 0.574395 0.316197
0.432395 0.577417 0.310811
0.576303 0.575311 0.29453
0.716075 0.575692 0.281971
0.84329 0.578622 0.269703
0.951202 0.583108 0.250416
0.997818 0.588937 0.226108
0.19234 0.691371 0.356268
0.237964 0.69163 0.356115
0.33962 0.693339 0.356298
0.46479 0.695964 0.355886
0.589868 0.693401 0.344015
0.714458 0.690028 0.326329
0.832975 0.688197 0.313237
0.939849 0.688014 0.295308
0.997436 0.688975 0.268315
0.285618 0.794385 0.399969
0.328954 0.79762 0.405325
0.408698 0.797955 0.405081
0.508629 0.798825 0.404883
0.614374 0.79675 0.396338
0.722789 0.793301 0.381292
0.829984 0.790097 0.361959
0.927275 0.785458 0.343755
0.996948 0.786023 0.325032
0.365408 0.886015 0.447578
0.398932 0.887724 0.451774
0.466758 0.886763 0.449073
0.551583 0.887572 0.450828
0.644953 0.887907 0.450111
0.738979 0.886427 0.440223
0.834028 0.885328 0.427329
0.924987 0.883131 0.405219
0.996384 0.879576 0.390234
0.454978 0.973159 0.5205
0.482155 0.974685 0.52668
0.544961 0.974121 0.524437
0.61326 0.97406 0.524239
0.688396 0.974365 0.525048
0.766903 0.975021 0.523583
0.846281 0.97554 0.517205
0.926192 0.976181 0.50573
0.995773 0.977798 0.490181
0 0.0698863 0.430182
0.0437476 0.0711376 0.429786
0.187198 0.0717937 0.428168
0.407202 0.0532235 0.425727
0.599161 0.0709239 0.414145
0.73344 0.1738 0.403983
0.850721 0.239521 0.406928
0.953323 0.280842 0.404639
0.99852 0.315801 0.396918
0 0.148653 0.431128
0.0431373 0.150027 0.430686
0.202594 0.15285 0.429114
0.410147 0.152255 0.426688
0.597055 0.17171 0.415564
0.729915 0.244984 0.407858
0.849409 0.297154 0.408896
0.953063 0.333761 0.405661
0.998428 0.364965 0.395956
0 0.280217 0.432166
0.0421759 0.282887 0.432258
0.228489 0.290761 0.43299
0.416938 0.296345 0.43064
0.586847 0.319829 0.421668
0.72108 0.357382 0.420539
0.845914 0.382574 0.41619
0.952407 0.406348 0.408713
0.998306 0.429282 0.396048
0 0.429343 0.434119
0.04065 0.4309 0.434165
0.241581 0.437919 0.435004
0.421286 0.450217 0.437354
0.577996 0.459525 0.432288
0.719127 0.469749 0.426856
0.842893 0.481697 0.421027
0.951049 0.494987 0.411551
0.998047 0.50959 0.397604
0.0391241 0.56669 0.44509
0.136339 0.567819 0.445884
0.290318 0.573343 0.450538
0.441291 0.582147 0.455833
0.579339 0.582727 0.44654
0.714168 0.584283 0.437522
0.838758 0.588418 0.428611
0.94609 0.592813 0.416052
0.997772 0.598779 0.399222
0.21442 0.689067 0.475395
0.258946 0.689448 0.475853
0.356191 0.691783 0.478447
0.47393 0.695521 0.480568
0.596002 0.696742 0.47657
0.713771 0.693492 0.462348
0.828931 0.69247 0.450462
0.934417 0.692821 0.434195
0.997391 0.693782 0.411658
0.300481 0.792111 0.504738
0.343801 0.795422 0.510307
0.419623 0.79556 0.509743
0.514321 0.796399 0.509728
0.620417 0.797482 0.508598
0.724269 0.795148 0.49691
0.827024 0.79173 0.479316
0.923003 0.787717 0.461707
0.996948 0.788861 0.444404
0.371267 0.884443 0.536217
0.404959 0.886366 0.540612
0.472587 0.885756 0.538979
0.5552 0.886442 0.540276
0.648066 0.887816 0.54255
0.740963 0.887694 0.537575
0.832334 0.886381 0.525399
0.921172 0.88397 0.504829
0.996338 0.881437 0.491539
0.455589 0.972366 0.592523
0.482063 0.973739 0.59762
0.545098 0.973251 0.595804
0.61294 0.973266 0.595941
0.688365 0.973999 0.598123
0.76759 0.97554 0.600778
0.845106 0.976059 0.59469
0.92372 0.976669 0.583932
0.995682 0.9785 0.570382
0 0.096788 0.583413
0.0433509 0.0983139 0.582956
0.0882429 0.102693 0.581262
0.365896 0.104448 0.578622
0.565515 0.107408 0.576471
0.741711 0.145739 0.568689
0.859403 0.228855 0.550866
0.952392 0.309606 0.556435
0.998474 0.361303 0.56611
0 0.173007 0.583062
0.0427405 0.174228 0.582681
0.0920882 0.17847 0.581277
0.372107 0.181964 0.57879
0.566583 0.187839 0.576638
0.740215 0.220356 0.568826
0.856275 0.29247 0.55256
0.950011 0.364172 0.558648
0.998383 0.408286 0.564889
0 0.300023 0.582483
0.0417487 0.30132 0.582513
0.170123 0.305089 0.582132
0.387167 0.30927 0.580056
0.569787 0.316686 0.577951
0.734905 0.341939 0.57023
0.846159 0.392538 0.559915
0.942779 0.440162 0.566293
0.99826 0.464805 0.562234
0 0.437293 0.580957
0.0402228 0.438727 0.580926
0.220829 0.445151 0.581399
0.406302 0.45417 0.582574
0.573159 0.459281 0.580972
0.720638 0.478462 0.574563
0.831159 0.506081 0.574395
0.938506 0.520119 0.568032
0.998047 0.531502 0.555016
0.00262455 0.570825 0.580682
0.0576638 0.571511 0.580697
0.268711 0.574838 0.58143
0.429236 0.581369 0.583337
0.580682 0.59115 0.587335
0.710033 0.596078 0.583017
0.829221 0.601968 0.57763
0.934661 0.606165 0.56582
0.997742 0.612207 0.550988
0.19884 0.682902 0.584527
0.24332 0.683238 0.584802
0.345525 0.685786 0.587564
0.471962 0.691142 0.594156
0.600275 0.698741 0.601846
0.712428 0.698299 0.593606
0.823774 0.698314 0.582406
0.927749 0.698878 0.567468
0.997345 0.700252 0.549371
0.287541 0.78677 0.601068
0.331884 0.790555 0.606683
0.410025 0.790234 0.606531
0.511543 0.79237 0.611139
0.620523 0.796277 0.615656
0.72546 0.797772 0.612985
0.82266 0.793896 0.59707
0.917571 0.791074 0.581201
0.996857 0.792676 0.565805
0.361761 0.882292 0.623636
0.396384 0.884276 0.627985
0.468025 0.883604 0.628473
0.552148 0.884581 0.630777
0.646677 0.887037 0.635065
0.742046 0.88957 0.637964
0.82945 0.8878 0.626276
0.916243 0.885176 0.608331
0.995361 0.884306 0.598093
0.45127 0.971115 0.667536
0.477073 0.97229 0.671458
0.540322 0.971939 0.670283
0.60972 0.97229 0.671458
0.687099 0.973709 0.675608
0.767773 0.976135 0.681743
0.843549 0.976806 0.677012
0.920363 0.977478 0.667445
0.995041 0.979599 0.656626
0 0.133577 0.712276
0.0428321 0.135042 0.711788
0.0879377 0.140383 0.710567
0.334554 0.146914 0.708202
0.527535 0.151919 0.704997
0.702602 0.169497 0.702861
0.85359 0.219074 0.69659
0.953613 0.28542 0.682429
0.998383 0.365484 0.684276
0 0.204746 0.711376
0.0422675 0.205982 0.711025
0.0875868 0.210101 0.709941
0.342962 0.215732 0.707683
0.52987 0.220706 0.704585
0.702327 0.237003 0.702495
0.851865 0.281544 0.696223
0.95314 0.34226 0.682795
0.998306 0.4168 0.685527
0 0.320653 0.709789
0.0412604 0.321416 0.70956
0.115053 0.324132 0.708659
0.365332 0.328161 0.706783
0.537133 0.332769 0.704005
0.702205 0.345617 0.702083
0.846967 0.378668 0.696345
0.949737 0.425422 0.684977
0.998169 0.483513 0.68954
0 0.448463 0.706218
0.0396429 0.449622 0.706218
0.221729 0.454765 0.706065
0.39469 0.46038 0.705699
0.547845 0.463386 0.703578
0.701915 0.471229 0.702037
0.839261 0.493523 0.697597
0.936248 0.525048 0.689967
0.998001 0.562615 0.696071
0.0107271 0.572122 0.703197
0.10367 0.572747 0.70309
0.273381 0.575799 0.703136
0.423194 0.581796 0.703487
0.56701 0.589593 0.704753
0.704173 0.593454 0.703929
0.827848 0.606531 0.700343
0.921996 0.622248 0.696208
0.99765 0.631754 0.688869
0.184161 0.683131 0.699947
0.232288 0.684977 0.701686
0.333989 0.686534 0.701976
0.457328 0.689784 0.702785
0.584558 0.694942 0.704646
0.710719 0.703243 0.708736
0.819486 0.704402 0.70135
0.919478 0.705455 0.691081
0.997253 0.708476 0.679332
0.259037 0.779156 0.696849
0.301823 0.782284 0.700557
0.382559 0.782406 0.700206
0.487175 0.785321 0.702876
0.605066 0.791348 0.709194
0.722576 0.798993 0.717388
0.81825 0.796719 0.707164
0.912413 0.795102 0.694286
0.996506 0.797238 0.682521
0.326863 0.877699 0.708125
0.361135 0.879774 0.711391
0.43476 0.87985 0.711376
0.527916 0.881956 0.714839
0.636851 0.885344 0.72369
0.738949 0.889311 0.730907
0.826658 0.88983 0.726482
0.910857 0.887205 0.711818
0.993591 0.888624 0.705516
0.408728 0.971084 0.731823
0.433326 0.971893 0.734157
0.505684 0.971618 0.73579
0.596338 0.971725 0.745235
0.684962 0.973358 0.754513
0.766247 0.97615 0.760296
0.842969 0.977966 0.760861
0.917266 0.978821 0.753521
0.993255 0.981445 0.746029
0 0.181292 0.824613
0.0422217 0.1823 0.824201
0.0875868 0.186374 0.823224
0.332921 0.192721 0.821302
0.513771 0.199695 0.818479
0.67364 0.207828 0.814817
0.823865 0.234012 0.812146
0.945586 0.279332 0.802747
0.998306 0.341497 0.793942
0 0.245975 0.823529
0.0415656 0.246906 0.823255
0.0872053 0.250202 0.822324
0.341314 0.255436 0.820493
0.516472 0.261631 0.817761
0.674159 0.269169 0.814282
0.822599 0.292592 0.811307
0.944167 0.335088 0.802548
0.998215 0.394369 0.794507
0 0.348119 0.821225
0.0406043 0.348684 0.820966
0.142626 0.350637 0.820142
0.365148 0.354009 0.818524
0.525383 0.358526 0.816129
0.676341 0.363958 0.812818
0.820035 0.380697 0.809659
0.939818 0.414328 0.801755
0.998077 0.463401 0.794736
0 0.464912 0.817426
0.0409552 0.465629 0.817243
0.244495 0.469154 0.816831
0.395987 0.472206 0.815702
0.539025 0.474647 0.813596
0.679789 0.477333 0.810819
0.816297 0.486595 0.807462
0.932662 0.510613 0.800839
0.997864 0.546319 0.794858
0.11107 0.578347 0.813077
0.167254 0.578866 0.81297
0.288991 0.581048 0.812634
0.423285 0.585168 0.812314
0.55845 0.590402 0.811521
0.685527 0.590692 0.808927
0.812863 0.593454 0.805432
0.925811 0.60911 0.800443
0.997559 0.635538 0.795987
0.193072 0.684077 0.80734
0.241337 0.686397 0.809216
0.335332 0.687526 0.80882
0.449714 0.689921 0.808621
0.571801 0.693446 0.808606
0.693675 0.696971 0.808026
0.811368 0.697795 0.804959
0.915877 0.709422 0.801068
0.995499 0.726223 0.800229
0.2551 0.780743 0.801572
0.298299 0.783886 0.804608
0.377188 0.784039 0.804013
0.477897 0.785931 0.804562
0.589654 0.788876 0.805203
0.703716 0.792569 0.805554
0.813626 0.799161 0.807599
0.907713 0.800961 0.801694
0.994369 0.804654 0.795972
0.306004 0.875105 0.802121
0.341299 0.877379 0.804837
0.415503 0.877226 0.804349
0.508095 0.878309 0.80502
0.612589 0.880354 0.806729
0.721004 0.884306 0.81062
0.823133 0.89041 0.817349
0.906615 0.890791 0.811017
0.99089 0.895109 0.808591
0.398306 0.970611 0.818082
0.422309 0.971435 0.819638
0.492912 0.971603 0.819944
0.573266 0.972427 0.821637
0.66183 0.973861 0.824567
0.756634 0.975631 0.831983
0.841199 0.978515 0.837888
0.916014 0.98117 0.836957
0.991272 0.984421 0.832731
0 0.24242 0.919738
0.0414435 0.243137 0.919509
0.200717 0.246021 0.918791
0.379095 0.250751 0.917342
0.528695 0.256962 0.915145
0.668971 0.262303 0.911421
0.800977 0.267475 0.906401
0.924849 0.293217 0.901915
0.998215 0.347097 0.896941
0 0.301152 0.918837
0.0420081 0.301701 0.918624
0.220539 0.304036 0.917906
0.384726 0.30811 0.916518
0.530602 0.313237 0.91429
0.669139 0.3178 0.910613
0.800549 0.322255 0.90573
0.923934 0.346609 0.90161
0.998077 0.398337 0.896681
0.0541695 0.388754 0.916457
0.123476 0.389059 0.91635
0.264775 0.390448 0.915709
0.402213 0.393027 0.914412
0.538247 0.395743 0.912154
0.671183 0.397559 0.908522
0.799496 0.39968 0.904036
0.921294 0.41915 0.900282
0.997955 0.463233 0.895354
0.15407 0.490822 0.912993
0.206806 0.49163 0.912886
0.310307 0.493996 0.912276
0.426902 0.49514 0.911086
0.550011 0.495216 0.908812
0.674601 0.494179 0.905333
0.798154 0.494179 0.90132
0.916716 0.507729 0.898177
0.997742 0.541619 0.893462
0.18497 0.589075 0.908797
0.231983 0.590127 0.909041
0.325139 0.591241 0.908644
0.443778 0.595026 0.907362
0.563241 0.597162 0.904936
0.678233 0.594263 0.901656
0.79617 0.592721 0.89839
0.911543 0.600824 0.895888
0.997467 0.627588 0.891966
0.226093 0.688182 0.902693
0.272633 0.690776 0.903929
0.35346 0.690593 0.903334
0.45417 0.690974 0.902327
0.564095 0.690776 0.900832
0.682673 0.692744 0.898436
0.795102 0.691905 0.895766
0.906325 0.697673 0.89395
0.996109 0.719646 0.891844
0.268879 0.783581 0.897231
0.308949 0.785763 0.898726
0.383917 0.785687 0.898177
0.476234 0.786053 0.897444
0.579461 0.786404 0.896239
0.688319 0.787625 0.894697
0.798932 0.792187 0.894347
0.902785 0.797375 0.893751
0.992508 0.814862 0.89456
0.32398 0.875319 0.894041
0.356481 0.877058 0.895491
0.427741 0.87715 0.89514
0.511727 0.877668 0.894804
0.605783 0.878492 0.894148
0.706127 0.880415 0.893568
0.808316 0.885313 0.894469
0.905425 0.896101 0.899657
0.988296 0.903838 0.900511
0.401389 0.973159 0.905119
0.423117 0.973739 0.90576
0.492775 0.97377 0.905715
0.568246 0.973693 0.905196
0.650523 0.973617 0.904433
0.737728 0.974426 0.904158
0.828199 0.977874 0.906538
0.916274 0.984329 0.914443
0.989654 0.989044 0.914275
0.229313 0.322454 0.996597
0.27805 0.323033 0.996521
0.357244 0.323888 0.996262
0.458183 0.326284 0.995743
0.571054 0.330251 0.994446
0.688258 0.33576 0.992386
0.803708 0.342641 0.989899
0.912566 0.350896 0.986862
0.998077 0.382757 0.984024
0.23621 0.375021 0.996262
0.284245 0.37583 0.996262
0.362142 0.37641 0.995987
0.46125 0.378286 0.995315
0.572641 0.38172 0.993851
0.688701 0.386694 0.991821
0.80354 0.39295 0.98938
0.911971 0.40061 0.986404
0.998001 0.431098 0.983764
0.257908 0.446204 0.995346
0.304112 0.447211 0.995377
0.377935 0.447181 0.99472
0.472023 0.448234 0.993698
0.578836 0.450187 0.992233
0.691264 0.453468 0.990326
0.803433 0.45774 0.988006
0.910201 0.463264 0.98529
0.997803 0.489342 0.982773
0.286442 0.530938 0.992325
0.330953 0.532433 0.992523
0.400381 0.531899 0.991836
0.487907 0.532082 0.990936
0.588281 0.532784 0.989715
0.695262 0.534081 0.988006
0.803143 0.535912 0.985946
0.907271 0.538811 0.983551
0.997131 0.559182 0.981369
0.260365 0.603815 0.990433
0.30515 0.605798 0.990662
0.389944 0.609369 0.9897
0.497642 0.617823 0.988113
0.59588 0.619058 0.986893
0.697826 0.619013 0.985519
0.801846 0.619394 0.983749
0.903502 0.62121 0.981735
0.995789 0.637797 0.979995
0.276173 0.694896 0.986297
0.314427 0.695903 0.986587
0.385367 0.695338 0.986221
0.474266 0.695186 0.985901
0.582528 0.69839 0.984955
0.699901 0.706615 0.982956
0.800763 0.707439 0.981491
0.899779 0.709972 0.979965
0.994125 0.724315 0.979095
0.310887 0.78851 0.982483
0.342367 0.789044 0.982681
0.411688 0.7888 0.98233
0.496223 0.789181 0.982055
0.592386 0.789975 0.981613
0.693858 0.791333 0.981094
0.802991 0.798917 0.979812
0.898314 0.803479 0.979171
0.990936 0.816526 0.979721
0.370718 0.882139 0.98114
0.394858 0.88246 0.98117
0.462181 0.882429 0.980987
0.539956 0.883253 0.980896
0.627283 0.884886 0.980743
0.719768 0.887526 0.980606
0.812161 0.891814 0.980575
0.902235 0.898924 0.980957
0.988464 0.90811 0.982055
0.439277 0.969833 0.982651
0.456367 0.969909 0.982712
0.521798 0.970031 0.982528
0.59115 0.970901 0.982574
0.667582 0.972595 0.982788
0.748012 0.975616 0.983307
0.829664 0.980453 0.984466
0.911025 0.987137 0.985962
0.990555 0.995682 0.989364
