creative/lut-fuji-film.cube
TITLE "Generated by Resolve"
LUT_3D_SIZE 5
0.0137484 0.0180209 0.0176089
0.234821 0.0569772 0.0194095
0.573877 0.0466011 0
0.863645 0.149905 0
0.998611 0.257527 0
0 0.248646 0.0421607
0.241581 0.258076 0.00674449
0.580056 0.282353 0
0.860883 0.321874 0
0.998383 0.386465 0
0 0.568231 0.125948
0.258183 0.572625 0.122423
0.57232 0.570016 0.0670329
0.845792 0.571679 0.000762951
0.997864 0.582834 0
0.265644 0.792538 0.262318
0.390005 0.794705 0.26511
0.608576 0.795193 0.258503
0.830961 0.788495 0.221164
0.996994 0.783993 0.184298
0.450324 0.972808 0.419593
0.538888 0.973144 0.421454
0.686885 0.974136 0.426154
0.846616 0.975052 0.417975
0.995727 0.977417 0.39205
0 0.0525826 0.261662
0.244923 0.0364843 0.25977
0.57705 0.115007 0.24715
0.858412 0.199603 0.235126
0.998566 0.282261 0.198581
0 0.26511 0.268666
0.252552 0.279561 0.268864
0.579828 0.307393 0.256535
0.855756 0.349264 0.23711
0.998337 0.403845 0.201785
0.026688 0.569879 0.316686
0.28159 0.574395 0.316197
0.576303 0.575311 0.29453
0.84329 0.578622 0.269703
0.997818 0.588937 0.226108
0.285618 0.794385 0.399969
0.408698 0.797955 0.405081
0.614374 0.79675 0.396338
0.829984 0.790097 0.361959
0.996948 0.786023 0.325032
0.454978 0.973159 0.5205
0.544961 0.974121 0.524437
0.688396 0.974365 0.525048
0.846281 0.97554 0.517205
0.995773 0.977798 0.490181
0 0.096788 0.583413
0.0882429 0.102693 0.581262
0.565515 0.107408 0.576471
0.859403 0.228855 0.550866
0.998474 0.361303 0.56611
0 0.300023 0.582483
0.170123 0.305089 0.582132
0.569787 0.316686 0.577951
0.846159 0.392538 0.559915
0.99826 0.464805 0.562234
0.00262455 0.570825 0.580682
0.268711 0.574838 0.58143
0.580682 0.59115 0.587335
0.829221 0.601968 0.57763
0.997742 0.612207 0.550988
0.287541 0.78677 0.601068
0.410025 0.790234 0.606531
0.620523 0.796277 0.615656
0.82266 0.793896 0.59707
0.996857 0.792676 0.565805
0.45127 0.971115 0.667536
0.540322 0.971939 0.670283
0.687099 0.973709 0.675608
0.843549 0.976806 0.677012
0.995041 0.979599 0.656626
0 0.181292 0.824613
0.0875868 0.186374 0.823224
0.513771 0.199695 0.818479
0.823865 0.234012 0.812146
0.998306 0.341497 0.793942
0 0.348119 0.821225
0.142626 0.350637 0.820142
0.525383 0.358526 0.816129
0.820035 0.380697 0.809659
0.998077 0.463401 0.794736
0.11107 0.578347 0.813077
0.288991 0.581048 0.812634
0.55845 0.590402 0.811521
0.812863 0.593454 0.805432
0.997559 0.635538 0.795987
0.2551 0.780743 0.801572
0.377188 0.784039 0.804013
0.589654 0.788876 0.805203
0.813626 0.799161 0.807599
0.994369 0.804654 0.795972
0.398306 0.970611 0.818082
0.492912 0.971603 0.819944
0.66183 0.973861 0.824567
0.841199 0.978515 0.837888
0.991272 0.984421 0.832731
0.229313 0.322454 0.996597
0.357244 0.323888 0.996262
0.571054 0.330251 0.994446
0.803708 0.342641 0.989899
0.998077 0.382757 0.984024
0.257908 0.446204 0.995346
0.377935 0.447181 0.99472
0.578836 0.450187 0.992233
0.803433 0.45774 0.988006
0.997803 0.489342 0.982773
0.260365 0.603815 0.990433
0.389944 0.609369 0.9897
0.59588 0.619058 0.986893
0.801846 0.619394 0.983749
0.995789 0.637797 0.979995
0.310887 0.78851 0.982483
0.411688 0.7888 0.98233
0.592386 0.789975 0.981613
0.802991 0.798917 0.979812
0.990936 0.816526 0.979721
0.439277 0.969833 0.982651
0.521798 0.970031 0.982528
0.667582 0.972595 0.982788
0.829664 0.980453 0.984466
0.990555 0.995682 0.989364
