creative/lut-summer-dream.cube
TITLE "Generated by Resolve"
LUT_3D_SIZE 9
0.00273136 0 0.00273136
0.0977493 0.00546273 0.00273136
0.252903 0 0.00273136
0.429923 0.00273136 0
0.606928 0.00546273 0.00273136
0.756619 0.00819409 0.00546273
0.884428 0.00819409 0.00546273
0.941192 0.0464637 0.00819409
0.978821 0.163989 0.00819409
0.00273136 0.100481 0.0300603
0.0649577 0.111421 0.0191348
0.252903 0.100481 0.0136721
0.440848 0.0430915 0.00546273
0.606928 0.0403601 0
0.764813 0.0376135 0
0.8981 0.0376135 0
0.954864 0.146944 0
0.995224 0.239872 0
0.00546273 0.239231 0.0601358
0.0376135 0.244694 0.0519265
0.209171 0.255634 0.0245975
0.44358 0.24744 0.00273136
0.617868 0.222843 0
0.767544 0.220096 0
0.900832 0.24744 0
0.954864 0.285695 0
0.995224 0.33489 0
0.00819409 0.380713 0.0956588
0.0376135 0.383459 0.0819867
0.0779736 0.388922 0.0792554
0.391653 0.41352 0.0355383
0.612406 0.410788 0
0.770275 0.402579 0
0.892638 0.399847 0
0.957595 0.421714 0
0.995224 0.457252 0
0.0109255 0.524941 0.13666
0.0376135 0.524941 0.117525
0.0752422 0.530404 0.109331
0.323323 0.533135 0.0956588
0.560464 0.555001 0.0382696
0.764813 0.576867 0.00273136
0.889906 0.563195 0.00273136
0.954864 0.568673 0
0.992477 0.576867 0
0.0136721 0.658228 0.180392
0.0403601 0.663691 0.174914
0.0779736 0.666423 0.155795
0.279591 0.666423 0.150317
0.511269 0.680095 0.125719
0.718349 0.688289 0.0710613
0.876234 0.704692 0.00546273
0.957595 0.699214 0
0.995224 0.701961 0.00273136
0.0191348 0.783307 0.256916
0.0403601 0.786038 0.245975
0.0807202 0.788769 0.221378
0.317861 0.788769 0.224125
0.494881 0.788769 0.221378
0.674617 0.794247 0.199512
0.835233 0.802441 0.169451
0.954864 0.813367 0.13666
0.995224 0.810636 0.131197
0.237781 0.886534 0.358038
0.27541 0.886534 0.349844
0.321233 0.886534 0.33344
0.435386 0.886534 0.322515
0.549538 0.886534 0.322515
0.677348 0.886534 0.319783
0.816114 0.886534 0.306111
0.930266 0.894728 0.286976
0.995224 0.900191 0.26511
0.426368 0.96788 0.461906
0.461265 0.970626 0.459174
0.504356 0.96788 0.453696
0.566567 0.96788 0.445502
0.647929 0.96788 0.442771
0.734752 0.970626 0.450965
0.82977 0.970626 0.448234
0.919326 0.976089 0.445502
0.992477 0.981552 0.437308
0.0191348 0.00819409 0.103212
0.0868238 0.0136721 0.100481
0.250172 0 0.100481
0.424445 0.00273136 0.100481
0.590539 0.00546273 0.0950179
0.751156 0.00546273 0.0813458
0.881697 0.00819409 0.0485542
0.93846 0.0983902 0.0458228
0.978821 0.185855 0.0485542
0.0191348 0.105943 0.114153
0.0813458 0.114153 0.122347
0.24744 0.119615 0.114153
0.435386 0.103212 0.114153
0.601465 0.0731518 0.0977493
0.764813 0.0649577 0.0813458
0.895369 0.10869 0.0485542
0.957595 0.182483 0.0376135
0.995224 0.253544 0.0376135
0.0218662 0.2365 0.133288
0.0376135 0.244694 0.13875
0.228305 0.261097 0.130541
0.432654 0.252903 0.111421
0.606928 0.241962 0.105943
0.764813 0.244694 0.0840772
0.892638 0.263828 0.0430915
0.957595 0.299367 0.0376135
0.995224 0.34583 0.0376135
0.0218662 0.377981 0.160616
0.0376135 0.386191 0.163348
0.157244 0.391653 0.155138
0.405325 0.405325 0.12781
0.612406 0.410788 0.103212
0.767544 0.397116 0.0840772
0.895369 0.410788 0.0458228
0.957595 0.435386 0.0403601
0.992477 0.462715 0.0376135
0.0218662 0.524941 0.190677
0.0376135 0.527672 0.198871
0.0779736 0.527672 0.182483
0.336996 0.535866 0.168811
0.568673 0.557733 0.13875
0.75935 0.571405 0.0786145
0.887175 0.563195 0.0540169
0.957595 0.563195 0.0376135
0.995224 0.579599 0.0376135
0.0218662 0.66096 0.234409
0.0376135 0.663691 0.245335
0.0752422 0.666423 0.220737
0.309651 0.671885 0.212543
0.516732 0.677348 0.198871
0.715618 0.688289 0.166079
0.873503 0.704692 0.119615
0.954864 0.699214 0.100481
0.995224 0.699214 0.0922866
0.0245975 0.786038 0.302739
0.0458228 0.786038 0.308202
0.108049 0.788769 0.278141
0.342458 0.786038 0.278141
0.500343 0.786038 0.272663
0.680095 0.796979 0.259007
0.837964 0.802441 0.228946
0.957595 0.813367 0.20708
0.995224 0.810636 0.198871
0.248722 0.883803 0.403861
0.30547 0.886534 0.403861
0.356756 0.883803 0.390188
0.438117 0.886534 0.379263
0.557733 0.886534 0.3738
0.680095 0.883803 0.3738
0.813367 0.889265 0.36286
0.932998 0.891997 0.346471
0.995224 0.900191 0.321874
0.420905 0.96788 0.504982
0.47219 0.96788 0.507713
0.515282 0.970626 0.502251
0.569299 0.96788 0.485863
0.65066 0.970626 0.488594
0.734752 0.970626 0.491325
0.824308 0.970626 0.488594
0.922057 0.978821 0.491325
0.992477 0.981552 0.485863
0.0191348 0.0164034 0.217365
0.0731518 0.0273289 0.214633
0.239231 0.041001 0.211902
0.435386 0.0355383 0.209171
0.585061 0.00546273 0.200977
0.740215 0.0273289 0.203708
0.876234 0.0819867 0.190036
0.941192 0.147585 0.173632
0.981552 0.215915 0.146304
0.0191348 0.122347 0.225574
0.0758831 0.125078 0.228305
0.250172 0.141482 0.225574
0.432654 0.136019 0.220096
0.587793 0.130541 0.211902
0.748409 0.13875 0.200977
0.881697 0.171542 0.195499
0.957595 0.220737 0.173632
0.995224 0.269932 0.143572
0.0191348 0.24744 0.228305
0.0376135 0.255634 0.239231
0.258366 0.258366 0.241962
0.435386 0.261097 0.231037
0.601465 0.261097 0.225574
0.756619 0.26656 0.209171
0.889906 0.282963 0.198245
0.957595 0.318502 0.176379
0.995224 0.362219 0.146304
0.0218662 0.383459 0.244694
0.0376135 0.388922 0.250172
0.24744 0.394385 0.258366
0.418982 0.405325 0.24744
0.604196 0.408057 0.228305
0.764813 0.408057 0.225574
0.887175 0.418982 0.206439
0.957595 0.438117 0.184573
0.992477 0.468177 0.157244
0.0218662 0.524941 0.277501
0.0403601 0.530404 0.282963
0.241962 0.530404 0.280232
0.377981 0.533135 0.272038
0.579599 0.55227 0.250172
0.75935 0.565942 0.233768
0.881697 0.557733 0.222843
0.957595 0.571405 0.206439
0.995224 0.585061 0.181842
0.0218662 0.663691 0.321233
0.0376135 0.666423 0.321233
0.239231 0.669154 0.329427
0.353384 0.671885 0.307561
0.52221 0.674617 0.299367
0.715618 0.693751 0.280232
0.86804 0.699214 0.255634
0.957595 0.699214 0.250172
0.995224 0.701961 0.241962
0.0245975 0.783307 0.373159
0.119615 0.783307 0.381353
0.291157 0.783307 0.384085
0.377981 0.788769 0.359487
0.519478 0.786038 0.356756
0.682826 0.788769 0.348562
0.835233 0.796979 0.337621
0.954864 0.810636 0.313024
0.995224 0.810636 0.310292
0.232319 0.881071 0.444221
0.308202 0.886534 0.460624
0.405951 0.883803 0.466087
0.465446 0.886534 0.446952
0.576867 0.883803 0.444221
0.685557 0.883803 0.438758
0.818845 0.889265 0.438758
0.932998 0.891997 0.416892
0.995224 0.902922 0.408682
0.412711 0.96788 0.545342
0.463996 0.970626 0.553552
0.534417 0.96788 0.553552
0.574777 0.96788 0.539879
0.656123 0.970626 0.539879
0.737484 0.965148 0.539879
0.827039 0.970626 0.545342
0.922057 0.976089 0.545342
0.989746 0.978821 0.537148
0 0.0437324 0.342458
0.0485542 0.0519265 0.339727
0.277501 0.0737926 0.342458
0.438117 0.0819867 0.331518
0.623331 0.109331 0.336996
0.762081 0.0710613 0.315129
0.873503 0.1066 0.301457
0.954864 0.172183 0.301457
0.976089 0.232319 0.298726
0 0.141482 0.347921
0.0895552 0.144213 0.353384
0.274769 0.157885 0.342458
0.432654 0.171542 0.342458
0.615137 0.187945 0.342458
0.751156 0.160616 0.323323
0.876234 0.187945 0.315129
0.957595 0.23714 0.304189
0.976089 0.291798 0.295995
0 0.263828 0.353384
0.0485542 0.269306 0.353384
0.272038 0.269306 0.356115
0.440848 0.282963 0.350652
0.606928 0.288426 0.347921
0.742947 0.277501 0.331518
0.873503 0.299367 0.320592
0.957595 0.33489 0.317861
0.976089 0.370428 0.298726
0 0.397116 0.367056
0.0403601 0.397116 0.358862
0.274769 0.397116 0.364324
0.449042 0.402579 0.372519
0.598733 0.402579 0.358862
0.753887 0.41352 0.353384
0.878965 0.424445 0.336996
0.957595 0.446311 0.328786
0.973358 0.476387 0.312398
0 0.530404 0.380713
0.119615 0.527672 0.380713
0.285695 0.530404 0.388922
0.435386 0.535866 0.394385
0.590539 0.549538 0.388922
0.748409 0.557733 0.369787
0.876234 0.560464 0.358862
0.957595 0.571405 0.347921
0.976089 0.587793 0.334249
0 0.663691 0.41352
0.114153 0.666423 0.416251
0.288426 0.669154 0.424445
0.432654 0.671885 0.424445
0.55227 0.671885 0.41352
0.723812 0.685557 0.399847
0.86804 0.696483 0.394385
0.957595 0.696483 0.383459
0.973358 0.701961 0.377981
0.00819409 0.786038 0.462715
0.157885 0.783307 0.462715
0.307561 0.786038 0.468177
0.462715 0.783307 0.476387
0.555001 0.788769 0.457252
0.688289 0.786038 0.45452
0.835233 0.802441 0.451774
0.952132 0.810636 0.438117
0.973358 0.810636 0.429923
0.210452 0.883803 0.520104
0.291798 0.883803 0.52285
0.405951 0.881071 0.531044
0.528313 0.883803 0.544701
0.598733 0.881071 0.525582
0.696483 0.881071 0.52285
0.818845 0.886534 0.517372
0.92752 0.891997 0.514641
0.978821 0.902922 0.503716
0.377172 0.970626 0.599374
0.428458 0.965148 0.602106
0.512551 0.970626 0.6103
0.604837 0.965148 0.618509
0.661601 0.96788 0.604837
0.748409 0.965148 0.604837
0.832502 0.96788 0.607569
0.919326 0.976089 0.604837
0.981552 0.978821 0.602106
0 0.0792554 0.478477
0.0622263 0.0847334 0.475746
0.282963 0.0983902 0.475746
0.47364 0.122988 0.473014
0.612406 0.133928 0.464805
0.783948 0.188586 0.481209
0.8981 0.183124 0.462074
0.957595 0.188586 0.432013
0.978821 0.248722 0.440208
0 0.166079 0.481209
0.116884 0.168811 0.481209
0.296635 0.179751 0.478477
0.479118 0.204349 0.48394
0.612406 0.215274 0.464805
0.781216 0.250813 0.481209
0.892638 0.245335 0.456611
0.957595 0.245335 0.434745
0.976089 0.302739 0.437476
0.00273136 0.288426 0.481209
0.13875 0.288426 0.48394
0.299367 0.282963 0.489403
0.468177 0.302098 0.486671
0.606928 0.31577 0.481209
0.770275 0.348562 0.489403
0.878965 0.329427 0.462074
0.957595 0.340368 0.451148
0.978821 0.381353 0.442939
0.00273136 0.408057 0.492134
0.0704204 0.405325 0.486671
0.274769 0.408057 0.492134
0.457252 0.41352 0.497612
0.604196 0.429923 0.497612
0.753887 0.440848 0.494881
0.865309 0.427176 0.464805
0.957595 0.446311 0.45388
0.973358 0.479118 0.451148
0 0.533135 0.494881
0.0922866 0.535866 0.500343
0.280232 0.533135 0.503075
0.446311 0.541329 0.511269
0.604196 0.549538 0.516732
0.740215 0.55227 0.503075
0.86804 0.555001 0.492134
0.954864 0.571405 0.478477
0.973358 0.593271 0.470268
0.0136721 0.666423 0.52221
0.157885 0.666423 0.524941
0.307561 0.666423 0.52221
0.451774 0.669154 0.527672
0.593271 0.671885 0.538598
0.726558 0.685557 0.533135
0.857099 0.693751 0.524941
0.957595 0.696483 0.514
0.973358 0.699214 0.503075
0.0519265 0.783307 0.55227
0.168811 0.783307 0.549538
0.307561 0.783307 0.557733
0.462715 0.783307 0.560464
0.606928 0.783307 0.576867
0.704692 0.786038 0.565942
0.837964 0.79971 0.557733
0.949386 0.810636 0.557733
0.978821 0.810636 0.55227
0.0874647 0.886534 0.585061
0.201602 0.886534 0.593271
0.351293 0.886534 0.598733
0.498238 0.883803 0.606928
0.637003 0.881071 0.6206
0.710155 0.883803 0.609659
0.816114 0.886534 0.606928
0.92752 0.894728 0.606928
0.976089 0.900191 0.596002
0.26511 0.973358 0.642466
0.340993 0.970626 0.647929
0.455146 0.970626 0.656123
0.577508 0.96788 0.667063
0.68072 0.965148 0.677989
0.748409 0.96788 0.669795
0.827039 0.970626 0.675258
0.922057 0.976089 0.669795
0.973358 0.978821 0.669795
0.00546273 0.114794 0.617227
0.125078 0.117525 0.611765
0.321233 0.12845 0.614496
0.495506 0.153063 0.617227
0.656123 0.185855 0.619959
0.773022 0.207721 0.614496
0.895369 0.27332 0.611765
0.946654 0.311574 0.606287
0.984283 0.330709 0.595361
0.00819409 0.193408 0.617227
0.157885 0.193408 0.614496
0.326696 0.204349 0.625422
0.492775 0.223468 0.625422
0.653391 0.253544 0.62269
0.764813 0.264469 0.609033
0.892638 0.332799 0.62269
0.957595 0.36286 0.611765
0.992477 0.3738 0.589899
0.0573892 0.299367 0.617227
0.155138 0.293904 0.62269
0.329427 0.299367 0.628153
0.492775 0.31577 0.619959
0.653391 0.348562 0.630884
0.767544 0.364965 0.619959
0.887175 0.419623 0.625422
0.954864 0.430549 0.614496
0.995224 0.430549 0.598093
0.0109255 0.416251 0.617227
0.122347 0.424445 0.62269
0.304829 0.427176 0.625422
0.47364 0.427176 0.636362
0.631525 0.451774 0.628153
0.756619 0.470909 0.628153
0.873503 0.517372 0.636362
0.954864 0.503716 0.617227
1 0.498238 0.598093
0.0136721 0.544076 0.630884
0.0731518 0.55227 0.628153
0.272038 0.549538 0.628153
0.432654 0.55227 0.630884
0.609659 0.555001 0.636362
0.748409 0.58233 0.639094
0.857099 0.590539 0.633631
0.957595 0.574136 0.609033
0.992477 0.590539 0.59263
0.0164034 0.674617 0.641825
0.100481 0.671885 0.639094
0.280232 0.674617 0.639094
0.435386 0.669154 0.639094
0.596002 0.677348 0.644556
0.734752 0.682826 0.650019
0.848905 0.682826 0.639094
0.952132 0.69102 0.630884
0.995224 0.693751 0.62269
0.0874647 0.783307 0.650019
0.187945 0.783307 0.65275
0.323964 0.786038 0.65275
0.465446 0.786038 0.655497
0.604196 0.786038 0.663691
0.726558 0.786038 0.677348
0.837964 0.796979 0.669154
0.93846 0.802441 0.66096
0.995224 0.805173 0.655497
0.142123 0.886534 0.674617
0.226215 0.889265 0.680095
0.343099 0.886534 0.680095
0.47364 0.883803 0.682826
0.612406 0.881071 0.696483
0.734752 0.883803 0.701961
0.818845 0.886534 0.693751
0.92752 0.891997 0.69102
0.992477 0.900191 0.693751
0.0355383 0.970626 0.696483
0.125078 0.981552 0.704692
0.293904 0.976089 0.704692
0.470909 0.973358 0.712886
0.642466 0.973358 0.72929
0.762081 0.96788 0.742947
0.835233 0.970626 0.740215
0.916594 0.978821 0.742947
0.989746 0.984283 0.737484
0.12845 0.153063 0.739574
0.223468 0.155795 0.742306
0.370428 0.169451 0.750515
0.52285 0.185855 0.745052
0.677989 0.226856 0.747784
0.803082 0.27332 0.747784
0.892638 0.297917 0.739574
0.949386 0.379904 0.73138
0.989746 0.434562 0.739574
0.139391 0.220737 0.747784
0.239872 0.228946 0.755978
0.373159 0.234409 0.750515
0.528313 0.250813 0.755978
0.68072 0.286336 0.750515
0.803082 0.330068 0.755978
0.895369 0.357397 0.739574
0.962371 0.433921 0.734112
0.992477 0.47219 0.739574
0.131197 0.31577 0.745052
0.226215 0.321233 0.753246
0.367697 0.329427 0.750515
0.52285 0.343099 0.750515
0.667063 0.367697 0.750515
0.794873 0.411429 0.747784
0.881697 0.436027 0.742306
0.957595 0.498878 0.742306
0.995224 0.531685 0.742306
0.13666 0.44358 0.745052
0.226215 0.446311 0.745052
0.34583 0.438117 0.750515
0.503716 0.446311 0.753246
0.656123 0.470909 0.750515
0.78941 0.520104 0.758709
0.873503 0.531044 0.742306
0.957595 0.58024 0.750515
1 0.593912 0.747784
0.0218662 0.560464 0.745052
0.0731518 0.560464 0.742306
0.274769 0.563195 0.739574
0.45452 0.560464 0.750515
0.626062 0.571405 0.758709
0.764813 0.604196 0.755978
0.859831 0.6206 0.753246
0.949386 0.658854 0.76144
1 0.65066 0.750515
0.0218662 0.677348 0.745052
0.0458228 0.680095 0.750515
0.261097 0.682826 0.753246
0.424445 0.680095 0.750515
0.574136 0.677348 0.747784
0.734752 0.685557 0.755978
0.851637 0.707424 0.76144
0.941192 0.72108 0.758709
0.995224 0.710155 0.742306
0.0245975 0.786038 0.755978
0.130541 0.788769 0.764172
0.293904 0.788769 0.753246
0.449042 0.786038 0.755978
0.590539 0.786038 0.755978
0.723812 0.788769 0.76144
0.837964 0.794247 0.76965
0.935729 0.794247 0.758709
0.995224 0.796979 0.747784
0.147585 0.881071 0.764172
0.231678 0.886534 0.76965
0.351293 0.886534 0.766903
0.481849 0.883803 0.772381
0.609659 0.881071 0.772381
0.72929 0.881071 0.775113
0.832502 0.886534 0.788769
0.924788 0.891997 0.786038
0.992477 0.900191 0.780575
0.125719 0.978821 0.786038
0.209812 0.976089 0.788769
0.326696 0.978821 0.794247
0.462715 0.976089 0.791516
0.590539 0.973358 0.791516
0.712886 0.973358 0.79971
0.835233 0.973358 0.818845
0.911131 0.978821 0.810636
0.992477 0.981552 0.813367
0.26511 0.213184 0.853727
0.335531 0.221378 0.856458
0.438758 0.226856 0.853727
0.574777 0.245975 0.859205
0.705318 0.278782 0.856458
0.819471 0.34165 0.859205
0.906294 0.385367 0.853727
0.952132 0.415442 0.842802
0.989746 0.4701 0.837339
0.267842 0.272663 0.856458
0.338262 0.278141 0.864668
0.444221 0.286336 0.859205
0.58024 0.308202 0.864668
0.705318 0.335531 0.856458
0.822217 0.392935 0.856458
0.911772 0.44213 0.853727
0.962371 0.466728 0.84007
0.995224 0.515923 0.837339
0.251453 0.356756 0.856458
0.327337 0.356756 0.861936
0.441489 0.370428 0.861936
0.566567 0.384085 0.853727
0.705318 0.419623 0.859205
0.814008 0.468818 0.856458
0.900832 0.507088 0.856458
0.957595 0.531685 0.850996
0.995224 0.567208 0.837339
0.251453 0.470909 0.856458
0.302739 0.465446 0.853727
0.40322 0.465446 0.859205
0.544701 0.476387 0.859205
0.68893 0.506447 0.859205
0.803082 0.544701 0.853727
0.895369 0.582971 0.853727
0.957595 0.596643 0.848264
0.995224 0.632166 0.845533
0.120256 0.579599 0.845533
0.220737 0.58233 0.859205
0.356756 0.579599 0.850996
0.51191 0.585061 0.853727
0.658854 0.596002 0.861936
0.783948 0.623331 0.856458
0.881697 0.661601 0.861936
0.952132 0.669795 0.850996
0.995224 0.697124 0.850996
0.0218662 0.696483 0.856458
0.0403601 0.693751 0.850996
0.244694 0.693751 0.853727
0.416251 0.69102 0.850996
0.593271 0.688289 0.853727
0.748409 0.701961 0.856458
0.865309 0.726558 0.859205
0.93846 0.745678 0.856458
0.995224 0.764813 0.859205
0.0218662 0.796979 0.853727
0.0376135 0.79971 0.853727
0.263828 0.79971 0.856458
0.421714 0.79971 0.856458
0.571405 0.788769 0.848264
0.701961 0.791516 0.853727
0.837964 0.796979 0.859205
0.932998 0.818845 0.864668
0.992477 0.82977 0.864668
0.0983902 0.891997 0.856458
0.193408 0.894728 0.864668
0.323964 0.891997 0.861936
0.45452 0.889265 0.856458
0.593271 0.883803 0.861936
0.712886 0.883803 0.861936
0.827039 0.883803 0.867399
0.924788 0.891997 0.87013
0.992477 0.891997 0.861936
0.0737926 0.976089 0.875593
0.182483 0.978821 0.881071
0.321233 0.976089 0.875593
0.457252 0.976089 0.872862
0.593271 0.976089 0.875593
0.715618 0.970626 0.881071
0.818845 0.970626 0.881071
0.919326 0.978821 0.897459
0.989746 0.987015 0.894728
0.404501 0.30338 0.959686
0.458518 0.306111 0.951492
0.545342 0.317037 0.954223
0.645838 0.336172 0.954223
0.74905 0.368978 0.951492
0.838605 0.420905 0.946014
0.917235 0.472831 0.943282
0.957595 0.497429 0.943282
0.992477 0.511101 0.932357
0.396307 0.354665 0.956954
0.458518 0.360128 0.954223
0.545342 0.371069 0.956954
0.643107 0.384726 0.951492
0.74905 0.428458 0.946014
0.838605 0.469459 0.946014
0.917235 0.518654 0.946014
0.954864 0.543252 0.940551
0.995224 0.556924 0.935088
0.388098 0.425086 0.954223
0.439399 0.433295 0.954223
0.531685 0.438758 0.954223
0.637629 0.463355 0.954223
0.738125 0.485222 0.94876
0.833143 0.531685 0.94876
0.909026 0.572671 0.943282
0.957595 0.591806 0.943282
0.992477 0.605478 0.935088
0.349844 0.51191 0.954223
0.414801 0.517372 0.956954
0.498878 0.520104 0.94876
0.621241 0.54197 0.951492
0.729915 0.561105 0.94876
0.824948 0.591165 0.94876
0.903563 0.629435 0.940551
0.957595 0.651301 0.943282
0.992477 0.656764 0.932357
0.30338 0.6206 0.959686
0.36286 0.617868 0.951492
0.477012 0.626062 0.956954
0.563836 0.615137 0.954223
0.697124 0.634256 0.946014
0.808545 0.661601 0.951492
0.892638 0.683467 0.946014
0.954864 0.713527 0.946014
0.995224 0.721721 0.940551
0 0.72108 0.951492
0.144213 0.718349 0.951492
0.326696 0.718349 0.951492
0.492775 0.712886 0.951492
0.647929 0.715618 0.951492
0.770275 0.72108 0.951492
0.878965 0.751156 0.94876
0.954864 0.773022 0.946014
0.995224 0.781216 0.943282
0 0.821576 0.951492
0.0403601 0.818845 0.954223
0.24744 0.816114 0.956954
0.416251 0.813367 0.956954
0.560464 0.810636 0.956954
0.710155 0.79971 0.94876
0.846174 0.807904 0.954223
0.943923 0.835233 0.94876
0.992477 0.846174 0.951492
0 0.913863 0.956954
0.0540169 0.911131 0.956954
0.255634 0.9084 0.956954
0.416251 0.911131 0.962417
0.557733 0.905669 0.962417
0.688289 0.900191 0.959686
0.807904 0.894728 0.956954
0.922057 0.897459 0.959686
0.992477 0.913863 0.959686
0.0245975 0.981552 0.965148
0.0704204 0.981552 0.965148
0.263828 0.981552 0.965148
0.424445 0.984283 0.965148
0.563195 0.984283 0.96788
0.688289 0.981552 0.96788
0.79971 0.981552 0.965148
0.902922 0.981552 0.970626
0.992477 0.987015 0.976089
