creative/lut-kodak-5219-warm.cube
TITLE "Generated by Resolve"
LUT_3D_SIZE 5
0 0 0.00784314
0.22118 0.00317388 0.000747692
0.495979 0.0269017 0.0018616
0.493446 0.207172 0.00300603
0.619608 0.294118 0
0.0281529 0.191897 0.211109
0.358877 0.246067 0.0983597
0.620554 0.294713 0.0486915
0.738323 0.409552 0.0110323
0.80795 0.487968 0.0289311
0.0247044 0.515084 0.466926
0.326101 0.558465 0.391531
0.648554 0.573388 0.329
0.847272 0.614633 0.188083
0.893568 0.663462 0.211933
0.187457 0.690288 0.656764
0.400366 0.740475 0.681361
0.714672 0.759533 0.53164
0.906203 0.783246 0.450309
0.938231 0.817655 0.492149
0.383825 0.833555 0.80943
0.540047 0.88394 0.817243
0.823178 0.888747 0.705531
0.976501 0.915404 0.58909
0.968933 0.941634 0.730175
0.00561532 0.00222782 0.0475776
0.145678 0.0429084 0.0644999
0.49778 0.0624094 0.0264897
0.581155 0.219287 0.002533
0.685573 0.308202 0.038117
0.0269017 0.238117 0.348943
0.322774 0.293095 0.285878
0.630198 0.340993 0.122988
0.750347 0.442847 0.0877241
0.816602 0.511772 0.158038
0.0456092 0.536431 0.572854
0.334051 0.583413 0.540352
0.662654 0.599573 0.421836
0.844556 0.640497 0.322148
0.898054 0.686488 0.357427
0.222721 0.707225 0.721279
0.424964 0.770413 0.711391
0.712459 0.785962 0.615061
0.883986 0.815137 0.610559
0.918654 0.846113 0.633768
0.42565 0.849287 0.832944
0.559853 0.907835 0.838285
0.810269 0.919875 0.765774
0.952224 0.939513 0.729305
0.969238 0.960739 0.784756
0.00292973 0.0152438 0.234714
0.0855879 0.0811627 0.368048
0.431495 0.103319 0.371191
0.561791 0.246067 0.265141
0.651896 0.352941 0.260166
0.0319677 0.261646 0.550195
0.26334 0.340841 0.550393
0.555993 0.387411 0.508385
0.713802 0.477653 0.426093
0.778347 0.544686 0.459174
0.116182 0.535744 0.678462
0.3234 0.603159 0.703304
0.653025 0.620188 0.604013
0.817243 0.667826 0.551873
0.869535 0.713008 0.593713
0.325017 0.705669 0.802686
0.463218 0.78352 0.789883
0.689357 0.813977 0.742626
0.873457 0.835325 0.718532
0.917174 0.861631 0.740108
0.487327 0.854307 0.890837
0.591562 0.91603 0.884993
0.793072 0.942672 0.831952
0.937804 0.960983 0.840818
0.972671 0.975753 0.863111
0.0131685 0.0274357 0.432288
0.154269 0.0781262 0.514595
0.427039 0.108797 0.638727
0.572473 0.232609 0.589349
0.651438 0.367712 0.559655
0.0208133 0.312856 0.650767
0.306264 0.353994 0.659159
0.58912 0.36582 0.74168
0.709239 0.481346 0.686259
0.76669 0.553475 0.681117
0.155688 0.556298 0.757366
0.376181 0.614633 0.782025
0.634745 0.646708 0.761532
0.80354 0.685969 0.753613
0.870359 0.727016 0.76318
0.372396 0.722362 0.852903
0.501411 0.791684 0.877607
0.701122 0.81886 0.859403
0.873716 0.852323 0.833707
0.918105 0.883665 0.862486
0.57377 0.850492 0.935714
0.641932 0.924254 0.942519
0.828779 0.943008 0.925643
0.947768 0.968139 0.921813
0.96939 0.973877 0.941283
0.00918593 0.0547341 0.478065
0.19173 0.120012 0.547906
0.466697 0.150088 0.663691
0.595315 0.275319 0.655818
0.657008 0.392157 0.671687
0.0698558 0.341314 0.658808
0.372976 0.365057 0.743465
0.601556 0.412177 0.802014
0.741726 0.486381 0.80975
0.778973 0.578363 0.791318
0.203906 0.584558 0.781399
0.43238 0.633036 0.815244
0.653971 0.660899 0.841062
0.82327 0.695766 0.85095
0.873365 0.742077 0.863783
0.424781 0.737652 0.887556
0.545083 0.803937 0.916152
0.739452 0.831571 0.915724
0.871214 0.87509 0.897765
0.911864 0.902052 0.921904
0.636072 0.859846 0.942367
0.712337 0.918929 0.963623
0.851896 0.950317 0.968719
0.956832 0.976394 0.972793
0.986221 0.995041 0.983001
