creative/lut-reed.cube
TITLE "Generated by Resolve"
LUT_3D_SIZE 33
0 0 0
0.0256962 0.00144961 0.0018616
0.0534676 0.00236515 0.00321965
0.0820783 0.00303655 0.00436408
0.111269 0.00354009 0.00535592
0.140871 0.00393683 0.00624094
0.17084 0.00422675 0.00703441
0.201114 0.00447089 0.0077821
0.231632 0.00460822 0.00842298
0.262379 0.00469978 0.00903334
0.293339 0.0047303 0.00958267
0.324483 0.00469978 0.0100862
0.355779 0.00463874 0.0105592
0.387243 0.00453193 0.0109712
0.418845 0.0043946 0.011368
0.450599 0.00421149 0.0117189
0.48246 0.0039826 0.0120394
0.514443 0.00373846 0.0123445
0.546563 0.0034638 0.012604
0.578759 0.00314336 0.0128481
0.611063 0.00282292 0.0130617
0.643488 0.0024567 0.0132448
0.675975 0.00205997 0.0134127
0.708568 0.00166323 0.0135653
0.741238 0.00122072 0.0136873
0.773999 0.000762951 0.0137789
0.806851 0.000274662 0.0138552
0.83975 0 0.0139315
0.87274 0 0.013962
0.905806 0 0.0140078
0.938933 0 0.0140078
0.972107 0 0.0139925
1 0 0.0139773
0.00047303 0.0315709 0
0.0250858 0.0330053 0.000518807
0.0528267 0.0339055 0.00199893
0.0814679 0.0345617 0.00321965
0.110658 0.03505 0.00430304
0.140307 0.0354314 0.00526436
0.170291 0.0357061 0.00616464
0.200595 0.0359197 0.00697337
0.231159 0.0360571 0.00772107
0.261952 0.0361181 0.00842298
0.292912 0.0361334 0.00906386
0.324086 0.0360876 0.00965896
0.355444 0.0360113 0.0102235
0.386938 0.0359045 0.0107271
0.41857 0.0357214 0.0112154
0.450355 0.0355383 0.0116579
0.482261 0.0352941 0.0120699
0.51429 0.0350347 0.0124514
0.54641 0.0347295 0.0128176
0.578668 0.0343938 0.0131533
0.611017 0.0340429 0.0134432
0.643442 0.0336614 0.0137331
0.67599 0.0332494 0.0140078
0.708614 0.0328069 0.0142367
0.741329 0.0323491 0.0144503
0.774121 0.0318761 0.0146639
0.806989 0.0313725 0.0148318
0.839933 0.0308537 0.0149844
0.872953 0.0303197 0.0151369
0.90605 0.0297551 0.015259
0.939223 0.0291752 0.0154421
0.972442 0.0285954 0.0159915
1 0.0279698 0.016556
0.0009308 0.0629892 0
0.0249638 0.0644236 0
0.0526741 0.0653086 0.000991836
0.081239 0.0659648 0.00225834
0.11043 0.0664836 0.00335698
0.140047 0.066865 0.00434882
0.170031 0.067155 0.00521859
0.20032 0.0673533 0.00604257
0.230884 0.0674907 0.00679026
0.261646 0.0675517 0.00749218
0.292638 0.0675669 0.0081178
0.323812 0.0675364 0.00872816
0.355138 0.0674449 0.00927749
0.386633 0.0673228 0.00979629
0.41828 0.067155 0.0102693
0.450065 0.0669566 0.0107118
0.481956 0.0667277 0.0111391
0.51397 0.066453 0.0115206
0.54612 0.0661631 0.0118715
0.578363 0.0658274 0.0122072
0.610697 0.0654612 0.0125277
0.643153 0.065095 0.0128023
0.675685 0.064683 0.0130617
0.708309 0.0642405 0.0133211
0.741009 0.0637827 0.0135195
0.773816 0.0633097 0.0137179
0.806699 0.0628214 0.013901
0.839643 0.0622873 0.0140688
0.872663 0.0617533 0.0141909
0.905745 0.0611887 0.0145571
0.938903 0.0606088 0.0151064
0.972122 0.0600137 0.0156863
1 0.0594034 0.0162509
0.00140383 0.0943465 0
0.024979 0.0957656 0
0.0526894 0.0966506 3.0518e-05
0.081239 0.0973068 0.00140383
0.110369 0.0978256 0.00254826
0.139986 0.0982071 0.00355535
0.169955 0.0985122 0.00444038
0.200229 0.0987106 0.00526436
0.230762 0.0988479 0.00601205
0.26154 0.098909 0.00671397
0.292515 0.0989395 0.00735485
0.323674 0.098909 0.00794995
0.355016 0.0988022 0.00851453
0.386511 0.0986954 0.00901808
0.418143 0.0985275 0.00950637
0.449912 0.0983291 0.00994888
0.481819 0.0981003 0.0103609
0.513848 0.0978256 0.0107576
0.545968 0.0975204 0.0111086
0.578225 0.0972 0.0114443
0.610559 0.0968338 0.0117647
0.643 0.0964675 0.0120394
0.675547 0.0960555 0.0122988
0.708171 0.095613 0.0125429
0.740887 0.0951553 0.0127565
0.773678 0.094667 0.0129549
0.806546 0.0941787 0.013138
0.83949 0.0936599 0.0132906
0.872511 0.0931258 0.0136873
0.905592 0.0925612 0.0142519
0.938766 0.0919814 0.0148165
0.971969 0.0914015 0.0153506
1 0.0907759 0.0159457
0.0018616 0.125658 0
0.0250858 0.127077 0
0.0528115 0.127947 0
0.0813611 0.128618 0.000564584
0.110491 0.129122 0.00177005
0.140063 0.129519 0.00282292
0.170001 0.129809 0.00375372
0.200259 0.130007 0.00457771
0.230793 0.130159 0.00534066
0.26154 0.130236 0.00602731
0.292515 0.130251 0.00666819
0.323674 0.13022 0.00727855
0.355001 0.130144 0.00782788
0.386481 0.130007 0.00836194
0.418128 0.129854 0.00883497
0.449897 0.129656 0.00929274
0.481788 0.129412 0.00970474
0.513802 0.129152 0.0100862
0.545953 0.128847 0.0104524
0.57818 0.128527 0.0107881
0.610529 0.128161 0.0110781
0.642985 0.127779 0.0113832
0.675502 0.127382 0.0116274
0.708141 0.12694 0.0118715
0.740841 0.126482 0.0120851
0.773632 0.126009 0.0122683
0.806516 0.125505 0.0124514
0.839445 0.125002 0.0128176
0.872465 0.124453 0.0133669
0.905547 0.123888 0.0139315
0.938704 0.123308 0.0144961
0.971923 0.122728 0.0150454
1 0.122118 0.0156252
0.00233463 0.156939 0
0.0252537 0.158358 0
0.0529946 0.159228 0
0.0815595 0.159884 0
0.110674 0.160388 0.00103761
0.14023 0.160784 0.002121
0.170153 0.161074 0.00308232
0.200397 0.161303 0.00393683
0.2309 0.161425 0.00471504
0.261646 0.161517 0.00543221
0.292607 0.161532 0.00607309
0.323751 0.161501 0.00668345
0.355077 0.161425 0.00724804
0.386572 0.161288 0.00776684
0.418189 0.161135 0.00823987
0.449958 0.160937 0.00869764
0.481865 0.160723 0.00910964
0.513878 0.160433 0.00949111
0.545998 0.160143 0.00985733
0.578256 0.159823 0.010193
0.61059 0.159457 0.0104982
0.643015 0.159091 0.0107881
0.675563 0.158663 0.0110323
0.708171 0.158236 0.0112612
0.740887 0.157794 0.01149
0.773678 0.157305 0.0117037
0.806546 0.156802 0.0119478
0.83949 0.156298 0.0124971
0.872496 0.155764 0.0130617
0.905577 0.1552 0.013611
0.938735 0.15462 0.0141909
0.971954 0.15404 0.0147402
1 0.153414 0.0153048
0.0027924 0.188205 0
0.0255131 0.189624 0
0.053254 0.190494 0
0.0818189 0.191135 0
0.110933 0.191623 0.000320439
0.140475 0.192035 0.00146487
0.170397 0.192325 0.0024567
0.20061 0.192538 0.00334173
0.231113 0.192676 0.0041352
0.26183 0.192767 0.00485237
0.29279 0.192782 0.00550851
0.323934 0.192752 0.00613413
0.35523 0.192676 0.00668345
0.386709 0.192554 0.00721752
0.418341 0.192401 0.00770581
0.450095 0.192203 0.00814832
0.481987 0.191974 0.00856031
0.514 0.191699 0.00895705
0.546136 0.191409 0.00932326
0.578363 0.191073 0.0096437
0.610697 0.190738 0.00996414
0.643137 0.190341 0.0102388
0.675669 0.189944 0.0104982
0.708278 0.189517 0.0107424
0.740993 0.189059 0.0109712
0.773785 0.188571 0.0111696
0.806653 0.188083 0.0116426
0.839582 0.187564 0.012192
0.872602 0.187015 0.0127565
0.905684 0.186481 0.0133059
0.938842 0.185901 0.0138705
0.972045 0.18529 0.0144503
1 0.184695 0.0149996
0.00326543 0.219455 0
0.0257877 0.220874 0
0.0535439 0.221729 0
0.0821241 0.222354 0
0.111238 0.222873 0
0.14078 0.223239 0.000808728
0.170687 0.223545 0.00184634
0.2009 0.223758 0.00276188
0.231373 0.223911 0.00358587
0.262089 0.224002 0.00433356
0.293019 0.224018 0.00500496
0.324147 0.224002 0.00561532
0.355459 0.223926 0.00619516
0.386923 0.223804 0.00672923
0.418524 0.223651 0.00721752
0.450294 0.223453 0.00766003
0.482185 0.223224 0.00808728
0.514183 0.22295 0.00846876
0.546304 0.22266 0.00883497
0.578546 0.222339 0.00917067
0.61088 0.221973 0.00947585
0.643305 0.221607 0.00976577
0.675837 0.221195 0.0100252
0.708461 0.220752 0.0102693
0.741161 0.22031 0.0104829
0.773953 0.219837 0.0107729
0.806806 0.219333 0.0113222
0.839734 0.218814 0.0118868
0.872755 0.21828 0.0124514
0.905821 0.217731 0.0130007
0.938979 0.217151 0.0135653
0.972198 0.216556 0.0141299
1 0.215946 0.0146792
0.0037232 0.250675 0
0.0261387 0.252094 0
0.0538949 0.252934 0
0.0824598 0.25359 0
0.111589 0.254078 0
0.141131 0.254459 0.000183108
0.171023 0.254749 0.00123598
0.201236 0.254978 0.0021973
0.231708 0.255116 0.00303655
0.262409 0.255207 0.00381476
0.293324 0.255222 0.00450141
0.324437 0.255207 0.00514229
0.355718 0.255131 0.00572213
0.387182 0.255024 0.0062562
0.418799 0.254871 0.00674449
0.450538 0.254673 0.00720226
0.482414 0.254444 0.00762951
0.514412 0.25417 0.00801099
0.546548 0.25388 0.00839246
0.578759 0.253559 0.0087129
0.611093 0.253208 0.00903334
0.643534 0.252827 0.009308
0.676051 0.252415 0.00958267
0.708659 0.252003 0.00982681
0.741375 0.251545 0.0100404
0.774151 0.251057 0.0104677
0.807019 0.250568 0.011017
0.839948 0.25005 0.0115816
0.872953 0.249516 0.0121462
0.906035 0.248966 0.0126955
0.939193 0.248386 0.0132601
0.972396 0.247791 0.0138094
1 0.247181 0.0143893
0.00419623 0.28188 0
0.0265049 0.283299 0
0.0542611 0.284153 0
0.0828412 0.284779 0
0.111955 0.285283 0
0.141512 0.285649 0
0.17142 0.285954 0.000656138
0.201617 0.286168 0.00163272
0.232059 0.28632 0.00251774
0.26276 0.286397 0.00331121
0.293675 0.286427 0.00402838
0.324773 0.286412 0.00466926
0.356054 0.286351 0.00526436
0.387503 0.286229 0.00581369
0.419089 0.286061 0.00631724
0.450828 0.285878 0.00677501
0.482704 0.285649 0.00720226
0.514702 0.285389 0.00759899
0.546807 0.2851 0.00796521
0.579049 0.284779 0.00831617
0.611368 0.284413 0.00863661
0.643793 0.284047 0.00891127
0.67631 0.283635 0.00917067
0.708934 0.283207 0.00943008
0.741634 0.28275 0.00962844
0.774411 0.282292 0.0101625
0.807263 0.281788 0.0107118
0.840192 0.28127 0.0112612
0.873198 0.280735 0.0118257
0.906264 0.280171 0.0123903
0.939437 0.279606 0.0129549
0.972641 0.279011 0.0135195
1 0.278386 0.0140841
0.004654 0.313085 0
0.0269169 0.314488 0
0.0546731 0.315358 0
0.0832532 0.315984 0
0.112367 0.316472 0
0.141924 0.316854 0
0.171832 0.317128 9.15541e-05
0.202029 0.317357 0.00109865
0.232471 0.317479 0.00201419
0.263172 0.317571 0.00282292
0.294072 0.317601 0.00355535
0.325154 0.317586 0.00422675
0.356435 0.31751 0.00483711
0.387869 0.317403 0.00540169
0.419455 0.31725 0.0059205
0.451179 0.317052 0.00637827
0.483055 0.316838 0.00682078
0.515038 0.316579 0.00721752
0.547127 0.316274 0.00758373
0.579355 0.315953 0.00793469
0.611673 0.315618 0.00825513
0.644099 0.315236 0.00852979
0.676631 0.314824 0.00880446
0.709224 0.314412 0.0090486
0.741924 0.313954 0.00927749
0.774701 0.313481 0.00984207
0.807538 0.312978 0.0104067
0.840482 0.312474 0.0109712
0.873487 0.311925 0.0115206
0.906554 0.311391 0.0120699
0.939712 0.310811 0.0126497
0.972915 0.310216 0.0131991
1 0.309606 0.0137636
0.00511177 0.344274 0
0.0273289 0.345678 0
0.0550851 0.346532 0
0.0836957 0.347173 0
0.112825 0.347646 0
0.142367 0.348028 0
0.172274 0.348302 0
0.202472 0.348516 0.000579843
0.232914 0.348653 0.00151064
0.2636 0.348745 0.00234989
0.294499 0.348775 0.00311284
0.325567 0.34876 0.0037995
0.356847 0.348684 0.00442512
0.388266 0.348577 0.00500496
0.419837 0.348424 0.00552377
0.45156 0.348241 0.0059968
0.483421 0.348013 0.00643931
0.515404 0.347753 0.0068513
0.547494 0.347463 0.00723278
0.579721 0.347143 0.00756847
0.612024 0.346807 0.00788891
0.644434 0.346426 0.00817884
0.676966 0.346014 0.0084535
0.70956 0.345602 0.00868238
0.74226 0.345129 0.0089723
0.775021 0.344671 0.00953689
0.807874 0.344182 0.0100862
0.840818 0.343664 0.0106508
0.873808 0.343114 0.0112154
0.906874 0.342565 0.01178
0.940017 0.341985 0.0123445
0.973236 0.341405 0.0129091
1 0.340795 0.0134737
0.0055848 0.375433 0
0.0278019 0.376852 0
0.0555581 0.377722 0
0.0841382 0.378332 0
0.113283 0.37882 0
0.142855 0.379187 0
0.172747 0.379461 0
0.202945 0.37969 6.10361e-05
0.233387 0.379812 0.00102235
0.264057 0.379904 0.00187686
0.294957 0.379934 0.00267033
0.32604 0.379904 0.0033875
0.35729 0.379843 0.00401312
0.388708 0.379736 0.00460822
0.420279 0.379583 0.00514229
0.451987 0.3794 0.00564584
0.483833 0.379171 0.00608835
0.515816 0.378912 0.0065156
0.547906 0.378622 0.00689708
0.580102 0.378302 0.00724804
0.612421 0.377966 0.00755322
0.644831 0.377584 0.0078584
0.677333 0.377188 0.00813306
0.709941 0.376761 0.0083772
0.742626 0.376318 0.00865187
0.775402 0.375845 0.00921645
0.80824 0.375357 0.00978103
0.841154 0.374838 0.0103304
0.874159 0.374304 0.0108949
0.907225 0.373754 0.0114595
0.940368 0.37319 0.0120241
0.973587 0.37258 0.0125887
1 0.371969 0.0131533
0.00604257 0.406607 0
0.028275 0.408026 0
0.0560311 0.408865 0
0.0846418 0.409491 0
0.113771 0.409979 0
0.143343 0.410346 0
0.173251 0.410636 0
0.203449 0.410834 0
0.23389 0.410971 0.000549325
0.264561 0.411063 0.00143435
0.295445 0.411078 0.00222782
0.326513 0.411063 0.00296025
0.357763 0.411002 0.00363165
0.389181 0.410895 0.00422675
0.420737 0.410727 0.00479133
0.452445 0.410559 0.00527962
0.484291 0.41033 0.00575265
0.516258 0.410071 0.00616464
0.548333 0.409796 0.00656138
0.58053 0.409476 0.00691234
0.612848 0.409125 0.00724804
0.645228 0.408759 0.00753796
0.677745 0.408347 0.00782788
0.710338 0.407919 0.00805676
0.743023 0.407477 0.00833143
0.775784 0.407019 0.00889601
0.808621 0.406516 0.00946059
0.84155 0.405997 0.0100252
0.874556 0.405478 0.0105898
0.907607 0.404913 0.0111543
0.940734 0.404349 0.0117037
0.973968 0.403754 0.0122835
1 0.403159 0.0128328
0.00650034 0.437751 0
0.0287785 0.439185 0
0.0565499 0.440024 0
0.0851453 0.44065 0
0.11429 0.441138 0
0.143862 0.441489 0
0.173754 0.441779 0
0.203952 0.441978 0
0.234409 0.442115 7.62951e-05
0.26508 0.442191 0.000976577
0.295949 0.442237 0.00181582
0.327031 0.442206 0.00256352
0.358282 0.44213 0.00325017
0.389685 0.442023 0.00386053
0.421225 0.441871 0.00442512
0.452934 0.441703 0.00494392
0.484749 0.441474 0.00541695
0.516732 0.441215 0.00585946
0.548806 0.44094 0.0062562
0.580987 0.44062 0.00660716
0.613291 0.440269 0.00694286
0.645685 0.439902 0.00724804
0.678187 0.439506 0.00753796
0.710781 0.439078 0.0077821
0.743465 0.438621 0.00801099
0.776211 0.438148 0.00857557
0.809049 0.437675 0.00914015
0.841962 0.437156 0.00970474
0.874937 0.436637 0.0102693
0.908019 0.436072 0.0108339
0.941146 0.435508 0.0113985
0.974365 0.434913 0.0119631
1 0.434302 0.0125429
0.00697337 0.46891 0
0.0293126 0.470329 0
0.0570687 0.471168 0
0.0856794 0.471794 0
0.114824 0.472282 0
0.144396 0.472648 0
0.174304 0.472923 0
0.204486 0.473106 0
0.234943 0.473259 0
0.265629 0.473335 0.000549325
0.296483 0.473365 0.00138857
0.327565 0.473335 0.00216678
0.358801 0.473274 0.00285344
0.390204 0.473152 0.00349432
0.421744 0.473014 0.00408942
0.453437 0.472831 0.00460822
0.485267 0.472602 0.00509651
0.51722 0.472343 0.00553903
0.549294 0.472068 0.00595102
0.581476 0.471748 0.00631724
0.613764 0.471397 0.00665293
0.646159 0.471031 0.00697337
0.67866 0.470634 0.00726329
0.711238 0.470207 0.00750744
0.743908 0.469764 0.00775158
0.776669 0.469306 0.00825513
0.809491 0.468818 0.00881971
0.842405 0.468299 0.0093843
0.875395 0.467765 0.00996414
0.908461 0.467216 0.0105135
0.941573 0.466651 0.0110781
0.974792 0.466056 0.0116579
1 0.465461 0.0122225
0.00743114 0.500053 0
0.0298619 0.501472 0
0.0576333 0.502312 0
0.0862287 0.502922 0
0.115373 0.50341 0
0.14493 0.503761 0
0.174853 0.504051 0
0.205051 0.50425 0
0.235508 0.504387 0
0.266178 0.504463 0.000122072
0.297063 0.504479 0.000976577
0.32813 0.504463 0.00177005
0.35935 0.504402 0.00248722
0.390753 0.50428 0.0031281
0.422309 0.504143 0.00373846
0.453986 0.503944 0.00427253
0.485801 0.503731 0.00477607
0.517739 0.503471 0.00523384
0.549813 0.503197 0.00564584
0.581994 0.502876 0.00602731
0.614267 0.502525 0.00639353
0.646662 0.502174 0.00669871
0.679149 0.501762 0.00698863
0.711711 0.501335 0.00726329
0.744396 0.500893 0.00750744
0.777127 0.500435 0.00791943
0.809979 0.499947 0.00848402
0.842893 0.499428 0.00906386
0.875853 0.498909 0.00962844
0.908934 0.49836 0.0102083
0.942046 0.49778 0.0107576
0.97525 0.4972 0.0113375
1 0.496605 0.0119173
0.00788891 0.531182 0
0.0304265 0.532586 0
0.0581826 0.53344 0
0.0867933 0.534066 0
0.115938 0.534539 0
0.14551 0.534905 0
0.175418 0.53518 0
0.205631 0.535363 0
0.236072 0.5355 0
0.266758 0.535576 0
0.297627 0.535607 0.000579843
0.328695 0.535576 0.00138857
0.35993 0.5355 0.002121
0.391333 0.535393 0.0027924
0.422858 0.535256 0.00340276
0.454536 0.535058 0.00396735
0.486366 0.534844 0.00447089
0.518303 0.534585 0.00494392
0.550347 0.53431 0.00537118
0.582528 0.533989 0.00576791
0.614801 0.533654 0.00611887
0.647181 0.533288 0.00645457
0.679667 0.532891 0.00674449
0.712245 0.532479 0.00700389
0.7449 0.532036 0.00724804
0.777646 0.531563 0.00758373
0.810468 0.531075 0.00816358
0.843366 0.530571 0.00872816
0.876356 0.530037 0.009308
0.909407 0.529473 0.00987259
0.942519 0.528908 0.0104372
0.975723 0.528328 0.011017
1 0.527718 0.0115969
0.00836194 0.56231 0
0.0310063 0.563714 0
0.0587625 0.564569 0
0.0873732 0.565194 0
0.116518 0.565667 0
0.14609 0.566033 0
0.175998 0.566293 0
0.20621 0.566491 0
0.236667 0.566629 0
0.267338 0.56669 0
0.298222 0.56672 0.000198367
0.32929 0.56669 0.0010071
0.360525 0.566613 0.00175479
0.391913 0.566506 0.0024567
0.423453 0.566354 0.00306706
0.455131 0.566171 0.00366217
0.486931 0.565957 0.00418097
0.518868 0.565698 0.00466926
0.550912 0.565423 0.00509651
0.583078 0.565103 0.00550851
0.615366 0.564767 0.00585946
0.647745 0.564385 0.00621042
0.680201 0.564004 0.00650034
0.712779 0.563592 0.00677501
0.745434 0.563134 0.00703441
0.77818 0.562676 0.00724804
0.810987 0.562188 0.00782788
0.843885 0.561685 0.00840772
0.876875 0.561151 0.0089723
0.909911 0.560601 0.00955215
0.943038 0.560021 0.010132
0.976226 0.559442 0.0106966
1 0.558846 0.0112764
0.00881971 0.593423 0
0.0316014 0.594842 0
0.0593729 0.595682 0
0.0879683 0.596307 0
0.117128 0.59678 0
0.146685 0.597147 0
0.176608 0.597421 0
0.206821 0.597604 0
0.237278 0.597742 0
0.267948 0.597803 0
0.298833 0.597833 0
0.3299 0.597787 0.000640879
0.36112 0.597711 0.00140383
0.392508 0.59762 0.002121
0.424063 0.597452 0.00274662
0.455726 0.597284 0.00334173
0.487526 0.597055 0.00389105
0.519448 0.596811 0.00437934
0.551507 0.596521 0.00483711
0.583673 0.596216 0.0052491
0.61593 0.595865 0.00561532
0.64831 0.595499 0.00596628
0.680766 0.595117 0.00627146
0.713344 0.59469 0.00656138
0.745983 0.594247 0.00680552
0.778729 0.593774 0.00703441
0.811551 0.593301 0.00749218
0.844434 0.592782 0.00805676
0.877409 0.592264 0.00865187
0.910445 0.591714 0.00921645
0.943572 0.59115 0.00979629
0.976745 0.59057 0.0103761
1 0.58996 0.0109407
0.00927749 0.624537 0
0.0322271 0.625956 0
0.0599985 0.626795 0
0.0885786 0.62742 0
0.117739 0.627894 0
0.147311 0.628244 0
0.177234 0.628519 0
0.207446 0.628717 0
0.237888 0.62884 0
0.268574 0.628901 0
0.299458 0.628931 0
0.330526 0.628901 0.000274662
0.361746 0.628824 0.00105287
0.393133 0.628717 0.00177005
0.424689 0.62855 0.00244144
0.456336 0.628382 0.00303655
0.488136 0.628153 0.00358587
0.520073 0.627909 0.00410468
0.552117 0.627619 0.00456245
0.584268 0.627314 0.0049897
0.616526 0.626963 0.00538643
0.64889 0.626612 0.00572213
0.681346 0.626215 0.00604257
0.713909 0.625788 0.00634775
0.746563 0.625345 0.00660716
0.779293 0.624887 0.00683604
0.812116 0.624399 0.00714122
0.844999 0.62388 0.00772107
0.877974 0.623362 0.00830091
0.911025 0.622812 0.00889601
0.944121 0.622263 0.00946059
0.977295 0.621668 0.0100404
1 0.621057 0.0106203
0.00975052 0.65565 0
0.0328527 0.657053 0
0.0606241 0.657908 0
0.0892042 0.658534 0
0.118349 0.658991 0
0.147936 0.659358 0
0.177859 0.659617 0
0.208072 0.659815 0
0.238514 0.659937 0
0.269215 0.659998 0
0.300099 0.660014 0
0.331151 0.659983 0
0.362387 0.659907 0.000717174
0.393774 0.6598 0.00144961
0.425299 0.659648 0.00213626
0.456977 0.659464 0.00274662
0.488777 0.659236 0.00331121
0.520699 0.658991 0.00383001
0.552728 0.658701 0.00430304
0.584894 0.658396 0.00474556
0.617151 0.658061 0.00514229
0.6495 0.657679 0.00549325
0.681971 0.657298 0.00582895
0.714504 0.656886 0.00613413
0.747158 0.656443 0.00639353
0.779873 0.65597 0.00663767
0.812696 0.655482 0.0068513
0.845579 0.654994 0.00737011
0.878553 0.654459 0.00796521
0.911574 0.653925 0.00854505
0.944686 0.653361 0.0091249
0.977874 0.652766 0.00972
1 0.652155 0.0102998
0.0102083 0.686748 0
0.0334783 0.688167 0
0.0612497 0.689006 0
0.0898604 0.689616 0
0.119005 0.690105 0
0.148577 0.690455 0
0.1785 0.69073 0
0.208713 0.690913 0
0.23917 0.691035 0
0.269856 0.691112 0
0.30074 0.691127 0
0.331807 0.691081 0
0.363043 0.69102 0.000396735
0.39443 0.690898 0.00114443
0.425956 0.69073 0.00183108
0.457618 0.690562 0.0024567
0.489433 0.690333 0.00303655
0.521355 0.690074 0.00357061
0.553384 0.689799 0.0040589
0.585534 0.689479 0.00450141
0.617777 0.689143 0.00491341
0.650141 0.688777 0.00527962
0.682597 0.688396 0.00563058
0.715129 0.687968 0.0059205
0.747768 0.687526 0.00619516
0.780484 0.687083 0.00645457
0.813291 0.686595 0.00668345
0.846174 0.686076 0.00701915
0.879133 0.685557 0.00761425
0.912184 0.685008 0.00820935
0.945281 0.684443 0.0087892
0.978454 0.683864 0.0093843
1 0.683253 0.00996414
0.0106661 0.71783 0
0.0341497 0.719249 0
0.0619211 0.720104 0
0.0905013 0.720714 0
0.119661 0.721202 0
0.149233 0.721553 0
0.179156 0.721813 0
0.209369 0.721996 0
0.239841 0.722133 0
0.270527 0.722179 0
0.301411 0.72221 0
0.332479 0.722179 0
0.363699 0.722103 6.10361e-05
0.395087 0.721981 0.000823987
0.426627 0.721813 0.0015259
0.458305 0.72163 0.00216678
0.490089 0.721416 0.00276188
0.521996 0.721157 0.00329595
0.55404 0.720882 0.0037995
0.586175 0.720562 0.00427253
0.618418 0.720226 0.00468452
0.650782 0.71986 0.005066
0.683223 0.719478 0.00540169
0.71577 0.719051 0.00573739
0.748409 0.718608 0.00601205
0.781125 0.718151 0.00627146
0.813916 0.717678 0.00648508
0.846799 0.717159 0.00669871
0.879759 0.71664 0.00726329
0.912795 0.716091 0.0078584
0.945891 0.715526 0.0084535
0.979049 0.714946 0.00903334
1 0.714336 0.00962844
0.0111391 0.748928 0
0.0348058 0.750332 0
0.062562 0.751202 0
0.0911727 0.751812 0
0.120317 0.752285 0
0.149905 0.752636 0
0.179812 0.752895 0
0.210025 0.753094 0
0.240497 0.753216 0
0.271199 0.753277 0
0.302083 0.753277 0
0.33315 0.753246 0
0.364385 0.75317 0
0.395773 0.753048 0.000518807
0.427298 0.752895 0.00122072
0.458961 0.752712 0.00189212
0.490745 0.752483 0.00250248
0.522683 0.752224 0.0030518
0.554696 0.751949 0.00357061
0.586847 0.751644 0.00402838
0.619089 0.751308 0.00445563
0.651438 0.750927 0.00485237
0.683894 0.75053 0.00521859
0.716426 0.750134 0.00553903
0.74905 0.749691 0.00582895
0.781765 0.749218 0.00610361
0.814557 0.748745 0.00633249
0.84744 0.748241 0.00653086
0.880385 0.747707 0.00689708
0.91342 0.747173 0.00750744
0.946502 0.746609 0.00808728
0.97969 0.746014 0.00869764
1 0.745418 0.00929274
0.0115969 0.780011 0
0.0354772 0.78143 0
0.0632486 0.782284 0
0.0918441 0.782895 0
0.120989 0.783383 0
0.150576 0.783719 0
0.180514 0.783993 0
0.210727 0.784176 0
0.241184 0.784298 0
0.271885 0.78436 0
0.302754 0.784375 0
0.333822 0.784344 0
0.365072 0.784253 0
0.39646 0.784131 0.000228885
0.427985 0.783963 0.000946059
0.459648 0.78378 0.00161746
0.491447 0.783566 0.00222782
0.523354 0.783307 0.00280766
0.555383 0.783032 0.00332647
0.587533 0.782712 0.0037995
0.619776 0.782361 0.00424201
0.65211 0.78201 0.004654
0.684565 0.781613 0.00502022
0.717083 0.781201 0.00534066
0.749706 0.780758 0.00564584
0.782422 0.780301 0.0059205
0.815213 0.779812 0.00616464
0.848096 0.779309 0.00639353
0.881056 0.77879 0.00657664
0.914061 0.778241 0.00714122
0.947143 0.777676 0.00773632
0.980316 0.777096 0.00834669
1 0.776486 0.00894179
0.0120546 0.811109 0
0.0361791 0.812512 0
0.0639353 0.813367 0
0.0925307 0.813977 0
0.121691 0.81445 0
0.151263 0.814801 0
0.181201 0.815076 0
0.211429 0.815259 0
0.241886 0.815381 0
0.272572 0.815442 0
0.303456 0.815442 0
0.334539 0.815412 0
0.365774 0.815335 0
0.397162 0.815213 0
0.428672 0.815045 0.000671397
0.460349 0.814862 0.00134279
0.492149 0.814633 0.00196841
0.524056 0.814374 0.00254826
0.556085 0.814099 0.00309758
0.58822 0.813779 0.00358587
0.620462 0.813428 0.00402838
0.652796 0.813077 0.00444038
0.685252 0.81268 0.00482185
0.717784 0.812253 0.00515755
0.750408 0.811826 0.00547799
0.783108 0.811368 0.00575265
0.815885 0.81088 0.00601205
0.848768 0.810376 0.00624094
0.881727 0.809857 0.00643931
0.914733 0.809308 0.00677501
0.947799 0.808743 0.00737011
0.980972 0.808179 0.00798047
1 0.807568 0.00859083
0.0125124 0.842176 0
0.0368811 0.843595 0
0.0646372 0.844434 0
0.0932174 0.84506 0
0.122393 0.845518 0
0.15198 0.845884 0
0.181903 0.846143 0
0.212116 0.846326 0
0.242588 0.846448 0
