creative/lut-summer-dream.cube
TITLE "Generated by Resolve"
LUT_3D_SIZE 33
0.00273136 0 0.00273136
0.0203403 0.00137331 0.00273136
0.0379339 0.00273136 0.00273136
0.0678416 0.00410468 0.00273136
0.0977493 0.00546273 0.00273136
0.13312 0.00410468 0.00137331
0.16849 0.00273136 0
0.210697 0.00137331 0.00137331
0.252903 0 0.00273136
0.299199 0.00137331 0.00137331
0.34551 0.00273136 0
0.387717 0.00273136 0
0.429923 0.00273136 0
0.476219 0.00273136 0.00137331
0.52253 0.00273136 0.00273136
0.564721 0.00410468 0.00273136
0.606928 0.00546273 0.00273136
0.647776 0.00546273 0.00410468
0.688609 0.00546273 0.00546273
0.722606 0.00683604 0.00546273
0.756619 0.00819409 0.00546273
0.793347 0.00819409 0.00546273
0.830091 0.00819409 0.00546273
0.857267 0.00819409 0.00546273
0.884428 0.00819409 0.00546273
0.902037 0.0109255 0.00683604
0.919646 0.0136721 0.00819409
0.930419 0.0300603 0.00819409
0.941192 0.0464637 0.00819409
0.949233 0.0819867 0.00819409
0.957275 0.117525 0.00819409
0.968048 0.140749 0.00819409
0.978821 0.163989 0.00819409
0.00137331 0.018967 0.00683604
0.0169223 0.0216983 0.00683604
0.0324712 0.0244297 0.00683604
0.0637522 0.025803 0.00546273
0.0950179 0.0271611 0.00410468
0.131762 0.0244297 0.00273136
0.16849 0.0216983 0.00137331
0.210697 0.0175937 0.00273136
0.252903 0.0135042 0.00410468
0.299199 0.0121309 0.00273136
0.34551 0.0107729 0.00137331
0.389075 0.0107729 0.000686656
0.432654 0.0107729 0
0.478264 0.0107729 0.000686656
0.523888 0.0107729 0.00137331
0.565408 0.0114443 0.00137331
0.606928 0.0121309 0.00137331
0.647776 0.0121309 0.00204471
0.688609 0.0121309 0.00273136
0.72398 0.0128176 0.00273136
0.75935 0.0135042 0.00273136
0.796765 0.0135042 0.00273136
0.834195 0.0135042 0.00273136
0.86273 0.0135042 0.00273136
0.891264 0.0135042 0.00273136
0.90956 0.0148623 0.00341802
0.92784 0.0162356 0.00410468
0.938613 0.0428779 0.00410468
0.949386 0.0695354 0.00410468
0.958114 0.10164 0.00410468
0.966842 0.133761 0.00410468
0.976928 0.155627 0.00410468
0.987015 0.177493 0.00410468
0 0.0379339 0.0109255
0.0135042 0.0420386 0.0109255
0.0270085 0.0461433 0.0109255
0.0596475 0.0475013 0.00819409
0.0922866 0.0488746 0.00546273
0.130388 0.04477 0.00410468
0.16849 0.0406806 0.00273136
0.210697 0.0338445 0.00410468
0.252903 0.0270085 0.00546273
0.299199 0.0229038 0.00410468
0.34551 0.0188144 0.00273136
0.390448 0.0188144 0.00137331
0.435386 0.0188144 0
0.480323 0.0188144 0
0.525261 0.0188144 0
0.566094 0.0188144 0
0.606928 0.0188144 0
0.647776 0.0188144 0
0.688609 0.0188144 0
0.725338 0.0188144 0
0.762081 0.0188144 0
0.800183 0.0188144 0
0.838285 0.0188144 0
0.868193 0.0188144 0
0.8981 0.0188144 0
0.917067 0.0188144 0
0.936049 0.0188144 0
0.946822 0.0557107 0
0.957595 0.092607 0
0.966995 0.121294 0
0.97641 0.149996 0
0.985809 0.170504 0
0.995224 0.190997 0
0.00137331 0.0692149 0.0204929
0.0121309 0.0719463 0.0191348
0.0229038 0.0746777 0.0177615
0.0507668 0.077409 0.0150301
0.0786145 0.0801404 0.0122988
0.122194 0.077409 0.0102541
0.165759 0.0746777 0.00819409
0.209323 0.0692149 0.00888075
0.252903 0.0637522 0.00956741
0.298528 0.0562295 0.0075227
0.344137 0.0487068 0.00546273
0.391135 0.039826 0.00410468
0.438117 0.0309453 0.00273136
0.481682 0.0295872 0.00137331
0.525261 0.0282139 0
0.566094 0.0289006 0
0.606928 0.0295872 0
0.647776 0.0289006 0
0.688609 0.0282139 0
0.726024 0.0282139 0
0.763455 0.0282139 0
0.800183 0.0282139 0
0.836927 0.0282139 0
0.867506 0.0282139 0
0.8981 0.0282139 0
0.917067 0.0439307 0
0.936049 0.0596475 0
0.946136 0.0897078 0
0.956222 0.119768 0
0.966308 0.147112 0
0.97641 0.174441 0
0.985809 0.194934 0
0.995224 0.215442 0
0.00273136 0.100481 0.0300603
0.0107729 0.101854 0.0273289
0.0188144 0.103212 0.0245975
0.041886 0.107317 0.0218662
0.0649577 0.111421 0.0191348
0.113985 0.110048 0.0164034
0.163027 0.10869 0.0136721
0.207965 0.104585 0.0136721
0.252903 0.100481 0.0136721
0.297841 0.0895552 0.0109255
0.342779 0.0786145 0.00819409
0.391806 0.060853 0.00683604
0.440848 0.0430915 0.00546273
0.483055 0.0403601 0.00273136
0.525261 0.0376135 0
0.566094 0.0389868 0
0.606928 0.0403601 0
0.647776 0.0389868 0
0.688609 0.0376135 0
0.726711 0.0376135 0
0.764813 0.0376135 0
0.800183 0.0376135 0
0.835554 0.0376135 0
0.866835 0.0376135 0
0.8981 0.0376135 0
0.917067 0.0690471 0
0.936049 0.100481 0
0.945449 0.12372 0
0.954864 0.146944 0
0.965637 0.172915 0
0.97641 0.198871 0
0.985809 0.219379 0
0.995224 0.239872 0
0.00273136 0.134493 0.034165
0.0114443 0.135851 0.0327916
0.0201724 0.137224 0.0314336
0.0357366 0.139956 0.0293736
0.0512856 0.142687 0.0273289
0.09691 0.14406 0.0232242
0.142535 0.145418 0.0191348
0.19498 0.14406 0.0157168
0.24744 0.142687 0.0122988
0.297154 0.133806 0.0109255
0.346868 0.124926 0.00956741
0.393179 0.111254 0.0075227
0.439475 0.0975967 0.00546273
0.483055 0.0921187 0.00341802
0.526619 0.086656 0.00137331
0.568139 0.0852979 0.000686656
0.609659 0.0839246 0
0.649821 0.0811933 0
0.689967 0.0784619 0
0.728084 0.0791485 0
0.766186 0.0798199 0
0.799496 0.0818799 0
0.832822 0.0839246 0
0.865461 0.090074 0.000686656
0.8981 0.0962234 0.00137331
0.917067 0.118776 0.000686656
0.936049 0.141314 0
0.946136 0.161822 0
0.956222 0.182315 0
0.966308 0.203494 0
0.97641 0.224674 0
0.985809 0.243137 0
0.995224 0.261585 0
0.00273136 0.16849 0.0382696
0.0121309 0.169863 0.0382696
0.0215457 0.171221 0.0382696
0.0295872 0.172595 0.0368963
0.0376135 0.173953 0.0355383
0.0798199 0.178058 0.0300603
0.122026 0.182162 0.0245975
0.181994 0.18352 0.0177615
0.241962 0.184894 0.0109255
0.296468 0.178058 0.0109255
0.350973 0.171221 0.0109255
0.394553 0.161654 0.00819409
0.438117 0.152087 0.00546273
0.483055 0.143893 0.00410468
0.527993 0.135698 0.00273136
0.570199 0.131594 0.00137331
0.612406 0.127489 0
0.651865 0.1234 0
0.691341 0.119295 0
0.729442 0.120668 0
0.767544 0.122026 0
0.798825 0.126131 0
0.830091 0.130236 0
0.864103 0.142535 0.00137331
0.8981 0.154833 0.00273136
0.917067 0.16849 0.00137331
0.936049 0.182162 0
0.946822 0.199924 0
0.957595 0.217685 0
0.966995 0.234089 0
0.97641 0.250492 0
0.985809 0.26688 0
0.995224 0.283284 0
0.00410468 0.203861 0.0491951
0.0121309 0.205234 0.0464637
0.0201724 0.206592 0.0437324
0.0289006 0.207965 0.0437324
0.0376135 0.209323 0.0437324
0.0647898 0.211383 0.0382696
0.0919661 0.213428 0.0327916
0.15877 0.216846 0.0252842
0.225574 0.220264 0.0177615
0.287587 0.217533 0.0129854
0.349615 0.214801 0.00819409
0.395224 0.207279 0.00614939
0.440848 0.199771 0.00410468
0.48716 0.192248 0.00341802
0.533455 0.184726 0.00273136
0.574289 0.17995 0.00137331
0.615137 0.175158 0
0.654597 0.172427 0.000686656
0.694072 0.169696 0.00137331
0.730816 0.170382 0.000686656
0.767544 0.171069 0
0.802243 0.176532 0
0.836927 0.181994 0
0.868193 0.191562 0.000686656
0.899474 0.201129 0.00137331
0.918441 0.211383 0.00137331
0.937407 0.221622 0.00137331
0.946822 0.236667 0.000686656
0.956222 0.251698 0
0.966308 0.266041 0
0.97641 0.280385 0
0.985809 0.294743 0
0.995224 0.309087 0
0.00546273 0.239231 0.0601358
0.0121309 0.240604 0.0546578
0.0188144 0.241962 0.0491951
0.0282139 0.243336 0.0505684
0.0376135 0.244694 0.0519265
0.0497597 0.244694 0.0464637
0.0619059 0.244694 0.041001
0.135531 0.250172 0.0327916
0.209171 0.255634 0.0245975
0.278706 0.257008 0.0150301
0.348241 0.258366 0.00546273
0.395911 0.252903 0.00410468
0.44358 0.24744 0.00273136
0.491249 0.240604 0.00273136
0.538918 0.233768 0.00273136
0.578393 0.228305 0.00137331
0.617868 0.222843 0
0.657328 0.221469 0.00137331
0.696803 0.220096 0.00273136
0.732174 0.220096 0.00137331
0.767544 0.220096 0
0.805646 0.226932 0
0.843763 0.233768 0
0.872297 0.240604 0
0.900832 0.24744 0
0.919814 0.254261 0.00137331
0.938781 0.261097 0.00273136
0.946822 0.273396 0.00137331
0.954864 0.285695 0
0.965637 0.297993 0
0.97641 0.310292 0
0.985809 0.322591 0
0.995224 0.33489 0
0.00683604 0.278706 0.0710613
0.0128176 0.278019 0.0649119
0.0188144 0.277333 0.0587625
0.0282139 0.278019 0.0587625
0.0376135 0.278706 0.0587625
0.049073 0.279393 0.0560311
0.0605325 0.280079 0.0532998
0.117082 0.286229 0.0471504
0.173632 0.292378 0.041001
0.247272 0.29305 0.0280156
0.320912 0.293736 0.0150301
0.38088 0.293736 0.00888075
0.440848 0.293736 0.00273136
0.487831 0.288273 0.00204471
0.534829 0.282811 0.00137331
0.576349 0.277333 0.00137331
0.617868 0.27187 0.00137331
0.658015 0.269825 0.00137331
0.698177 0.267781 0.00137331
0.733547 0.267094 0.00137331
0.768917 0.266407 0.00137331
0.804974 0.270512 0.000686656
0.841031 0.274601 0
0.870924 0.280751 0
0.900832 0.2869 0
0.919127 0.29305 0.000686656
0.937407 0.299199 0.00137331
0.946822 0.31014 0.000686656
0.956222 0.321065 0
0.966308 0.332006 0
0.97641 0.342931 0
0.985809 0.353872 0
0.995224 0.364797 0
0.00819409 0.318181 0.0819867
0.0135042 0.31545 0.0751659
0.0188144 0.312703 0.0683299
0.0282139 0.312703 0.0669566
0.0376135 0.312703 0.0655985
0.0483864 0.314076 0.0655985
0.0591745 0.31545 0.0655985
0.0986343 0.322271 0.0614939
0.138109 0.329107 0.0573892
0.215839 0.329107 0.041001
0.293584 0.329107 0.0245975
0.36585 0.334569 0.0136721
0.438117 0.340047 0.00273136
0.484413 0.335943 0.00137331
0.530724 0.331838 0
0.574289 0.326375 0.00137331
0.617868 0.320912 0.00273136
0.658701 0.318181 0.00137331
0.699535 0.31545 0
0.734905 0.314076 0.00137331
0.770275 0.312703 0.00273136
0.804288 0.314076 0.00137331
0.838285 0.31545 0
0.869566 0.320912 0
0.900832 0.326375 0
0.918441 0.331838 0
0.936049 0.337316 0
0.946822 0.346868 0
0.957595 0.356435 0
0.966995 0.366003 0
0.97641 0.37557 0
0.985809 0.385138 0
0.995224 0.394705 0
0.00819409 0.349447 0.0888228
0.0135042 0.349447 0.0847334
0.0188144 0.349447 0.0806287
0.0282139 0.34876 0.0772106
0.0376135 0.348089 0.0737926
0.047715 0.350134 0.0744793
0.0578012 0.352178 0.0751659
0.0829175 0.355596 0.0717479
0.108049 0.359014 0.0683299
0.190555 0.361746 0.0560311
0.273075 0.364477 0.0437324
0.343984 0.370626 0.0314336
0.414878 0.376776 0.0191348
0.470756 0.376089 0.0102541
0.526619 0.375418 0.00137331
0.570871 0.370626 0.00137331
0.615137 0.36585 0.00137331
0.656657 0.363119 0.00137331
0.698177 0.360388 0.00137331
0.734234 0.359014 0.00137331
0.770275 0.357641 0.00137331
0.804288 0.358328 0.00137331
0.838285 0.359014 0.00137331
0.867506 0.361059 0.000686656
0.896727 0.363119 0
0.917067 0.369268 0.000686656
0.937407 0.375418 0.00137331
0.947509 0.382239 0.000686656
0.957595 0.389075 0
0.966995 0.398642 0
0.97641 0.408209 0
0.985809 0.41709 0
0.995224 0.425971 0
0.00819409 0.380713 0.0956588
0.0135042 0.383459 0.0943008
0.0188144 0.386191 0.0929274
0.0282139 0.384817 0.0874647
0.0376135 0.383459 0.0819867
0.0470283 0.386191 0.08336
0.0564279 0.388922 0.0847334
0.0672007 0.388922 0.0819867
0.0779736 0.388922 0.0792554
0.165286 0.394385 0.0710613
0.252583 0.399847 0.0628672
0.322118 0.406683 0.0491951
0.391653 0.41352 0.0355383
0.457084 0.416251 0.0191348
0.52253 0.418982 0.00273136
0.567468 0.414878 0.00137331
0.612406 0.410788 0
0.654597 0.408057 0.00137331
0.696803 0.405325 0.00273136
0.733547 0.403952 0.00137331
0.770275 0.402579 0
0.804288 0.402579 0.00137331
0.838285 0.402579 0.00273136
0.865461 0.401221 0.00137331
0.892638 0.399847 0
0.915709 0.406683 0.00137331
0.938781 0.41352 0.00273136
0.94818 0.417624 0.00137331
0.957595 0.421714 0
0.966995 0.431281 0
0.97641 0.440848 0
0.985809 0.449042 0
0.995224 0.457252 0
0.00956741 0.417456 0.1066
0.0141909 0.41883 0.103853
0.0188144 0.420188 0.101122
0.0282139 0.419501 0.0963455
0.0376135 0.41883 0.0915541
0.047715 0.421561 0.0908827
0.0578012 0.424292 0.0901961
0.0672007 0.423606 0.0881361
0.0766155 0.422919 0.0860914
0.155718 0.42771 0.0806287
0.234821 0.432486 0.0751659
0.30367 0.437949 0.0649119
0.372519 0.443427 0.0546578
0.439323 0.448203 0.0348516
0.506127 0.452995 0.0150301
0.558572 0.454353 0.00819409
0.611032 0.455726 0.00137331
0.653239 0.452308 0.00137331
0.695445 0.44889 0.00137331
0.731487 0.446845 0.000686656
0.767544 0.444785 0
0.802243 0.444099 0.000686656
0.836927 0.443427 0.00137331
0.865461 0.443427 0.00137331
0.893996 0.443427 0.00137331
0.915709 0.446159 0.00137331
0.937407 0.44889 0.00137331
0.947509 0.452995 0.000686656
0.957595 0.457084 0
0.966995 0.465293 0
0.97641 0.473487 0
0.985809 0.481682 0
0.995224 0.489891 0
0.0109255 0.4542 0.117525
0.0148623 0.4542 0.11342
0.0188144 0.4542 0.109331
0.0282139 0.4542 0.105226
0.0376135 0.4542 0.101122
0.0483864 0.456931 0.0983902
0.0591745 0.459663 0.0956588
0.0672007 0.458289 0.0943008
0.0752422 0.456931 0.0929274
0.146151 0.461021 0.0901961
0.217044 0.465126 0.0874647
0.285222 0.46923 0.0806287
0.353384 0.47332 0.0737926
0.421561 0.480156 0.0505684
0.489723 0.486992 0.0273289
0.549691 0.493828 0.0150301
0.609659 0.500664 0.00273136
0.651865 0.496559 0.00137331
0.694072 0.492454 0
0.729442 0.489723 0
0.764813 0.486992 0
0.800183 0.485634 0
0.835554 0.48426 0
0.865461 0.485634 0.00137331
0.895369 0.486992 0.00273136
0.915709 0.485634 0.00137331
0.936049 0.48426 0
0.946822 0.488365 0
0.957595 0.492454 0
0.966995 0.49929 0
0.97641 0.506127 0
0.985809 0.514321 0
0.995224 0.52253 0
0.0109255 0.48957 0.127092
0.0148623 0.48957 0.122301
0.0188144 0.48957 0.117525
0.0282139 0.48957 0.11342
0.0376135 0.48957 0.109331
0.047715 0.492302 0.1066
0.0578012 0.495033 0.103853
0.0665293 0.494347 0.102495
0.0752422 0.49366 0.101122
0.138628 0.496406 0.0997635
0.202014 0.499138 0.0983902
0.270191 0.501183 0.0915541
0.338354 0.503227 0.0847334
0.403113 0.510063 0.0683299
0.467857 0.516899 0.0519265
0.526467 0.522362 0.0362097
0.585061 0.527825 0.0204929
0.637522 0.530556 0.0109255
0.689967 0.533303 0.00137331
0.727398 0.532616 0.00137331
0.764813 0.531929 0.00137331
0.798825 0.528511 0.000686656
0.832822 0.525093 0
0.86273 0.525093 0.00137331
0.892638 0.525093 0.00273136
0.915022 0.524407 0.00137331
0.937407 0.523735 0
0.946822 0.527153 0
0.956222 0.530556 0
0.965637 0.533974 0
0.975036 0.537392 0
0.984451 0.543542 0
0.993851 0.549691 0
0.0109255 0.524941 0.13666
0.0148623 0.524941 0.131197
0.0188144 0.524941 0.125719
0.0282139 0.524941 0.12163
0.0376135 0.524941 0.117525
0.0470283 0.527672 0.114794
0.0564279 0.530404 0.112062
0.0658427 0.530404 0.110689
0.0752422 0.530404 0.109331
0.131121 0.531777 0.109331
0.186984 0.533135 0.109331
0.255161 0.533135 0.102495
0.323323 0.533135 0.0956588
0.384665 0.539971 0.0860914
0.445991 0.546807 0.076524
0.503227 0.550896 0.0573892
0.560464 0.555001 0.0382696
0.623178 0.564569 0.0204929
0.685878 0.574136 0.00273136
0.725338 0.575494 0.00273136
0.764813 0.576867 0.00273136
0.797452 0.571405 0.00137331
0.830091 0.565942 0
0.859998 0.564569 0.00137331
0.889906 0.563195 0.00273136
0.914336 0.563195 0.00137331
0.938781 0.563195 0
0.946822 0.565942 0
0.954864 0.568673 0
0.964263 0.568673 0
0.973678 0.568673 0
0.983078 0.572763 0
0.992477 0.576867 0
0.0122988 0.558938 0.146227
0.0155489 0.559625 0.141436
0.0188144 0.560311 0.13666
0.0289006 0.560998 0.133928
0.0389868 0.561669 0.131197
0.047715 0.563043 0.125719
0.0564279 0.564416 0.120256
0.0658427 0.564416 0.11957
0.0752422 0.564416 0.118898
0.123598 0.565087 0.118212
0.171954 0.565774 0.117525
0.239445 0.566461 0.11342
0.30692 0.567147 0.109331
0.368948 0.573297 0.101122
0.430961 0.579446 0.0929274
0.486152 0.582864 0.0772106
0.541329 0.586267 0.0614939
0.601312 0.59379 0.0430457
0.66128 0.601312 0.0245975
0.708263 0.605402 0.0136721
0.755245 0.609506 0.00273136
0.790616 0.607462 0.00137331
0.825986 0.605402 0
0.855894 0.603357 0.00137331
0.885801 0.601312 0.00273136
0.910246 0.600626 0.00137331
0.934676 0.599939 0
0.945449 0.601312 0
0.956222 0.60267 0
0.965637 0.603357 0
0.975036 0.604044 0
0.984451 0.606088 0
0.993851 0.608133 0
0.0136721 0.59295 0.155795
0.0162356 0.594308 0.15169
0.0188144 0.595682 0.147585
0.0295872 0.59704 0.146227
0.0403601 0.598413 0.144854
0.0483864 0.598413 0.13666
0.0564279 0.598413 0.12845
0.0658427 0.598413 0.12845
0.0752422 0.598413 0.12845
0.116091 0.598413 0.127092
0.156924 0.598413 0.125719
0.223728 0.599786 0.124361
0.290532 0.601144 0.122988
0.353231 0.606607 0.116152
0.41593 0.612085 0.109331
0.469062 0.614816 0.0970321
0.52221 0.617548 0.0847334
0.579446 0.623011 0.0655985
0.636683 0.628473 0.0464637
0.691173 0.635309 0.0245975
0.745678 0.642145 0.00273136
0.783795 0.643503 0.00137331
0.821897 0.644877 0
0.851804 0.642145 0.00137331
0.881697 0.639414 0.00273136
0.906142 0.638041 0.00137331
0.930587 0.636683 0
0.944091 0.636683 0
0.957595 0.636683 0
0.966995 0.638041 0
0.97641 0.639414 0
0.985809 0.639414 0
0.995224 0.639414 0
0.0136721 0.625589 0.168093
0.0162356 0.626947 0.164675
0.0188144 0.628321 0.161257
0.0295872 0.629679 0.160571
0.0403601 0.631052 0.159884
0.049073 0.631739 0.151003
0.0578012 0.632425 0.142123
0.0672007 0.632425 0.142123
0.0766155 0.632425 0.142123
0.109255 0.632425 0.140749
0.141894 0.632425 0.139391
0.213474 0.633097 0.138018
0.285054 0.633783 0.13666
0.346395 0.637201 0.131197
0.407736 0.64062 0.125719
0.462242 0.644724 0.11548
0.516732 0.648814 0.105226
0.57261 0.652918 0.0901961
0.628473 0.657023 0.0751659
0.680247 0.661112 0.0560311
0.732021 0.665217 0.0368963
0.772854 0.669322 0.0225528
0.813687 0.673411 0.00819409
0.846326 0.672724 0.00614939
0.878965 0.672053 0.00410468
0.905455 0.669993 0.00341802
0.931945 0.667948 0.00273136
0.944762 0.667948 0.00137331
0.957595 0.667948 0
0.966995 0.669322 0.000686656
0.97641 0.67068 0.00137331
0.985809 0.67068 0.00137331
0.995224 0.67068 0.00137331
0.0136721 0.658228 0.180392
0.0162356 0.659586 0.177661
0.0188144 0.66096 0.174914
0.0295872 0.662318 0.174914
0.0403601 0.663691 0.174914
0.0497597 0.665049 0.165362
0.0591745 0.666423 0.155795
0.068574 0.666423 0.155795
0.0779736 0.666423 0.155795
0.102419 0.666423 0.154421
0.126864 0.666423 0.153063
0.20322 0.666423 0.15169
0.279591 0.666423 0.150317
0.339559 0.667796 0.146227
0.399527 0.669154 0.142123
0.455406 0.674617 0.133928
0.511269 0.680095 0.125719
0.565774 0.682826 0.114794
0.620279 0.685557 0.103853
0.669322 0.686915 0.0874647
0.718349 0.688289 0.0710613
0.761929 0.695125 0.0437324
0.805493 0.701961 0.0164034
0.840864 0.703319 0.0109255
0.876234 0.704692 0.00546273
0.904768 0.701961 0.00546273
0.933318 0.699214 0.00546273
0.945449 0.699214 0.00273136
0.957595 0.699214 0
0.966995 0.700587 0.00137331
0.97641 0.701961 0.00273136
0.985809 0.701961 0.00273136
0.995224 0.701961 0.00273136
0.0150301 0.690867 0.199512
0.0169223 0.692226 0.196109
0.0188144 0.693599 0.192691
0.0289006 0.694957 0.191318
0.0389868 0.69633 0.18996
0.0483864 0.697688 0.181064
0.0578012 0.699062 0.172183
0.0672007 0.698375 0.170825
0.0766155 0.697688 0.169451
0.105837 0.698375 0.168765
0.135058 0.699062 0.168093
0.211429 0.699062 0.167407
0.2878 0.699062 0.16672
0.340932 0.699748 0.163302
0.394064 0.70042 0.159884
0.447883 0.703838 0.153735
0.501701 0.707256 0.147585
0.554849 0.709316 0.140078
0.60798 0.71136 0.132555
0.65565 0.714092 0.120256
0.703319 0.716823 0.107958
0.748943 0.720928 0.0888228
0.794568 0.725032 0.069688
0.83061 0.727764 0.0587625
0.866667 0.730495 0.047837
0.896574 0.730495 0.0416876
0.926482 0.730495 0.0355383
0.942031 0.729809 0.0327916
0.957595 0.729122 0.0300603
0.966308 0.729809 0.0293736
0.975036 0.730495 0.0287022
0.984451 0.730495 0.0287022
0.993851 0.730495 0.0287022
0.0164034 0.723507 0.218647
0.0175937 0.724865 0.214557
0.0188144 0.726238 0.210452
0.0282139 0.727596 0.207721
0.0376135 0.728969 0.20499
0.0470283 0.730327 0.19678
0.0564279 0.731701 0.188586
0.0658427 0.730327 0.185855
0.0752422 0.728969 0.183124
0.109255 0.730327 0.183124
0.143252 0.731701 0.183124
0.219623 0.731701 0.183124
0.295995 0.731701 0.183124
0.34229 0.731701 0.180392
0.388602 0.731701 0.177661
0.440375 0.733059 0.173556
0.492134 0.734432 0.169451
0.543908 0.735805 0.165362
0.595682 0.737163 0.161257
0.641978 0.741268 0.153063
0.688289 0.745357 0.144854
0.735958 0.746731 0.133928
0.783627 0.748104 0.122988
0.820371 0.752194 0.1066
0.857099 0.756298 0.0901961
0.88838 0.75903 0.0778973
0.919646 0.761761 0.0655985
0.938613 0.760403 0.0628672
0.957595 0.75903 0.0601358
0.965637 0.75903 0.0573892
0.973678 0.75903 0.0546578
0.983078 0.75903 0.0546578
0.992477 0.75903 0.0546578
0.0177615 0.753399 0.237781
0.0196536 0.754772 0.234363
0.0215457 0.75613 0.230945
0.0302586 0.756817 0.228214
0.0389868 0.757504 0.225483
0.049073 0.75819 0.217288
0.0591745 0.758877 0.209079
0.068574 0.758877 0.205661
0.0779736 0.758877 0.202258
0.124971 0.758877 0.202258
0.171954 0.758877 0.202258
0.239445 0.759548 0.20293
0.30692 0.760235 0.203616
0.353231 0.760235 0.201572
0.399527 0.760235 0.199512
0.446525 0.760922 0.197467
0.493507 0.761608 0.195422
0.54049 0.76228 0.190631
0.587488 0.762966 0.185855
0.63447 0.766384 0.179019
0.681453 0.769802 0.172183
0.72639 0.770489 0.163302
0.771328 0.771176 0.154421
0.808743 0.775265 0.142123
0.846174 0.77937 0.129824
0.878813 0.781415 0.118898
0.911452 0.783475 0.107958
0.933837 0.784833 0.103182
0.956222 0.786206 0.0983902
0.965637 0.785519 0.0956588
0.975036 0.784833 0.0929274
0.984451 0.784833 0.0929274
0.993851 0.784833 0.0929274
0.0191348 0.783307 0.256916
0.0216983 0.78468 0.254185
0.0242771 0.786038 0.251453
0.0323186 0.786038 0.248722
0.0403601 0.786038 0.245975
0.051133 0.786038 0.237781
0.0619059 0.786038 0.229587
0.0713054 0.787411 0.225483
0.0807202 0.788769 0.221378
0.140688 0.787411 0.221378
0.200656 0.786038 0.221378
0.259251 0.787411 0.222751
0.317861 0.788769 0.224125
0.364157 0.788769 0.222751
0.410468 0.788769 0.221378
0.452674 0.788769 0.221378
0.494881 0.788769 0.221378
0.537072 0.788769 0.215915
0.579278 0.788769 0.210452
0.626947 0.791516 0.20499
0.674617 0.794247 0.199512
0.716823 0.794247 0.192691
0.75903 0.794247 0.185855
0.797131 0.798337 0.177661
0.835233 0.802441 0.169451
0.869245 0.803815 0.159884
0.903243 0.805173 0.150317
0.929046 0.809277 0.143496
0.954864 0.813367 0.13666
0.965637 0.812009 0.133928
0.97641 0.810636 0.131197
0.985809 0.810636 0.131197
0.995224 0.810636 0.131197
0.0601358 0.80911 0.28014
0.064744 0.810483 0.277409
0.0693675 0.811841 0.274678
0.0787823 0.812528 0.271946
0.0881819 0.813214 0.269215
0.0982681 0.813214 0.263066
0.10837 0.813214 0.256916
0.122545 0.813901 0.252811
0.136736 0.814588 0.248722
0.190555 0.813901 0.247349
0.244388 0.813214 0.245975
0.292729 0.813901 0.245304
0.341085 0.814588 0.244617
0.382605 0.814588 0.244617
0.424125 0.814588 0.244617
0.4636 0.814588 0.243931
0.503075 0.814588 0.243244
0.543908 0.813901 0.240513
0.584741 0.813214 0.237781
0.629007 0.815946 0.23505
0.673259 0.818677 0.232319
0.712047 0.818677 0.224796
0.750835 0.818677 0.217288
0.788251 0.821408 0.211826
0.825666 0.82414 0.206348
0.859678 0.824826 0.197467
0.893675 0.825513 0.188586
0.921538 0.829618 0.182437
0.949386 0.833707 0.176287
0.962905 0.835081 0.169451
0.97641 0.836439 0.162615
0.985809 0.836439 0.162615
0.995224 0.836439 0.162615
0.101122 0.834913 0.30338
0.10779 0.836286 0.300649
0.114473 0.837659 0.297917
0.125246 0.839017 0.295186
0.136019 0.840391 0.292439
0.145418 0.840391 0.28835
0.154833 0.840391 0.284245
0.1738 0.840391 0.28014
0.192767 0.840391 0.276051
0.240436 0.840391 0.27332
0.288106 0.840391 0.270588
0.326223 0.840391 0.267842
0.364324 0.840391 0.26511
0.401053 0.840391 0.266484
0.437797 0.840391 0.267842
0.47454 0.840391 0.266484
0.511269 0.840391 0.26511
0.550744 0.839017 0.26511
0.590219 0.837659 0.26511
0.631052 0.840391 0.26511
0.671885 0.843122 0.26511
0.707256 0.843122 0.256916
0.742626 0.843122 0.248722
0.77937 0.84448 0.245975
0.816114 0.845853 0.243244
0.850111 0.845853 0.23505
0.884123 0.845853 0.226856
0.914015 0.849958 0.221378
0.943923 0.854047 0.215915
0.960159 0.858152 0.20499
0.97641 0.862257 0.194049
0.985809 0.862257 0.194049
0.995224 0.862257 0.194049
0.169451 0.860731 0.330709
0.177493 0.861402 0.327977
0.185534 0.862089 0.325246
0.195621 0.862776 0.323186
0.205707 0.863462 0.321141
0.21648 0.863462 0.317037
0.227253 0.863462 0.312947
0.24213 0.863462 0.308843
0.257008 0.863462 0.304738
