creative/lut-ricoh-film.cube
TITLE "Generated by Resolve"
LUT_3D_SIZE 9
0 0.0115358 0.0131838
0.0762341 0.0153201 0.0137331
0.185153 0.0202945 0.0165103
0.314763 0.0163729 0.0154726
0.46479 0.00706493 0.00953689
0.612924 0.00961318 0.00285344
0.746731 0.0116426 0.00215152
0.867796 0.0142214 0.00161746
0.969375 0.0460365 9.15541e-05
0.00256352 0.11397 0.0354467
0.0703746 0.117494 0.0304723
0.193896 0.124239 0.019852
0.339757 0.127321 0.0074464
0.491661 0.123384 0.00318914
0.634607 0.115419 0.00198367
0.761837 0.125795 0.00164797
0.878859 0.156115 0.000946059
0.97203 0.188281 0
0.00389105 0.241306 0.0545663
0.0708019 0.242893 0.0565042
0.201175 0.244556 0.0477913
0.354986 0.254566 0.0254673
0.516579 0.267475 0.00454719
0.657542 0.283543 0.00387579
0.783001 0.29604 0.00199893
0.891508 0.306859 0.00114443
0.973968 0.321202 0
0.00393683 0.390295 0.0780804
0.0711376 0.391867 0.0842145
0.213916 0.389731 0.0813306
0.371756 0.39472 0.0642557
0.512078 0.398306 0.0238804
0.655818 0.413397 0.00360113
0.785611 0.431846 0.00210575
0.901076 0.446784 0.00180056
0.976501 0.457542 0.000747692
0.0068513 0.530007 0.104967
0.0677195 0.533227 0.11368
0.246998 0.531975 0.111666
0.401679 0.530343 0.104097
0.52726 0.531807 0.0822614
0.651087 0.534585 0.0344396
0.779034 0.546136 0.00457771
0.896971 0.561624 0
0.978424 0.576425 0
0.00923171 0.656672 0.140108
0.0882124 0.658686 0.148394
0.286 0.6598 0.152499
0.426413 0.65597 0.147784
0.550637 0.655451 0.134463
0.661692 0.657374 0.10898
0.771496 0.659846 0.0698558
0.890669 0.671641 0.0120699
0.980423 0.681331 0.00108339
0.0985733 0.771328 0.188312
0.180072 0.774197 0.19321
0.331853 0.773724 0.201175
0.455436 0.77232 0.199207
0.573022 0.772091 0.194751
0.677195 0.771695 0.179416
0.781018 0.77322 0.153933
0.883238 0.776165 0.123598
0.98201 0.782666 0.0867628
0.204562 0.87538 0.24622
0.257816 0.877577 0.24686
0.383963 0.878035 0.260914
0.494545 0.879057 0.259785
0.597559 0.878676 0.257496
0.697337 0.878798 0.252613
0.793362 0.881071 0.237247
0.889113 0.884352 0.21976
0.983536 0.887236 0.191669
0.283619 0.972366 0.307958
0.324742 0.973938 0.309514
0.434028 0.978836 0.319707
0.536492 0.979065 0.32253
0.63006 0.980743 0.325475
0.721141 0.980591 0.324147
0.810437 0.983078 0.323919
0.89601 0.985245 0.317494
0.982055 0.98996 0.309514
0.00944533 0.0166323 0.110903
0.0763256 0.0203708 0.108873
0.190158 0.0273747 0.103548
0.323842 0.0289921 0.0965591
0.474601 0.0182498 0.0861677
0.62121 0.0165103 0.0690623
0.749249 0.021973 0.0687572
0.871153 0.0413367 0.0674449
0.96939 0.0785992 0.0646525
0.0100404 0.122011 0.127214
0.0716869 0.124697 0.127199
0.203387 0.130526 0.12192
0.350652 0.134661 0.108339
0.49865 0.133776 0.0873884
0.641398 0.142428 0.0707561
0.76788 0.162402 0.0699321
0.883406 0.180667 0.0688334
0.972244 0.201175 0.0662394
0.0121767 0.249165 0.144564
0.0708934 0.25362 0.14902
0.211795 0.253666 0.144732
0.363424 0.26331 0.126406
0.521874 0.273304 0.093904
0.6607 0.28661 0.0726635
0.782162 0.30106 0.0713054
0.893767 0.31725 0.0691386
0.97438 0.328862 0.0676127
0.0122988 0.39472 0.164599
0.0700542 0.399588 0.169162
0.230076 0.397024 0.170397
0.378408 0.398474 0.155261
0.521675 0.404196 0.128771
0.66273 0.417639 0.0817731
0.790494 0.434531 0.0715953
0.902846 0.44921 0.0692302
0.97673 0.46006 0.0675822
0.01178 0.532311 0.186694
0.0675517 0.537758 0.193454
0.252491 0.536858 0.198154
0.404608 0.534951 0.190433
0.531838 0.536507 0.17319
0.653391 0.538003 0.138766
0.779446 0.549386 0.0869001
0.897551 0.56585 0.068513
0.978714 0.577523 0.0664683
0.0113069 0.659449 0.218326
0.0787213 0.661936 0.223514
0.288518 0.660594 0.233173
0.430579 0.658488 0.230076
0.553185 0.658366 0.218402
0.664347 0.659464 0.1944
0.774334 0.662577 0.1626
0.889632 0.672847 0.109453
0.979812 0.682795 0.0711376
0.0928817 0.773175 0.259159
0.170397 0.775097 0.262425
0.333989 0.774685 0.275395
0.458976 0.773754 0.274418
0.574624 0.772274 0.269673
0.680308 0.772412 0.253132
0.782223 0.774472 0.227802
0.885405 0.777874 0.196979
0.981582 0.785138 0.161852
0.202579 0.877028 0.309102
0.255787 0.878798 0.312428
0.383597 0.880018 0.325826
0.494957 0.879911 0.328496
0.598718 0.88014 0.324987
0.698848 0.880339 0.321248
0.7944 0.882033 0.306905
0.888991 0.88484 0.284398
0.982284 0.889509 0.257801
0.280446 0.973938 0.364477
0.321447 0.975509 0.366537
0.432731 0.979416 0.377493
0.537987 0.979538 0.382742
0.628565 0.981338 0.382254
0.721019 0.980835 0.383474
0.810575 0.98381 0.38323
0.896559 0.987488 0.372686
0.980652 0.990539 0.364355
0.00613413 0.0237278 0.226444
0.0706493 0.0283207 0.225589
0.200778 0.027985 0.216876
0.345892 0.0209506 0.207141
0.481895 0.013962 0.198306
0.626017 0.0124208 0.181613
0.757488 0.0364691 0.158175
0.877317 0.0835737 0.138949
0.971023 0.115892 0.137377
0.00753796 0.129396 0.238361
0.0709392 0.134005 0.242313
0.214633 0.136446 0.237583
0.361227 0.136599 0.224704
0.50193 0.135454 0.21387
0.641978 0.141802 0.194751
0.769619 0.165698 0.163943
0.885039 0.195026 0.140581
0.972244 0.221347 0.139422
0.0087129 0.258366 0.258656
0.0708629 0.2645 0.26041
0.224964 0.269902 0.260243
0.383429 0.272374 0.247761
0.531365 0.279103 0.233387
0.662699 0.286534 0.207233
0.785306 0.301152 0.174533
0.896361 0.318456 0.142016
0.974975 0.336294 0.141482
0.0103456 0.406378 0.279179
0.0702525 0.409003 0.280354
0.224445 0.412512 0.281041
0.395865 0.410712 0.274815
0.533043 0.417929 0.256275
0.670771 0.430594 0.233555
0.792874 0.439368 0.200504
0.901793 0.449775 0.144625
0.976562 0.460716 0.142718
0.010956 0.540719 0.299153
0.0679484 0.545525 0.304097
0.249348 0.546548 0.304158
0.420478 0.540566 0.303807
0.542382 0.542443 0.289799
0.662654 0.546242 0.269413
0.787488 0.558145 0.240848
0.901106 0.571542 0.197421
0.979263 0.579675 0.145907
0.0124056 0.663661 0.328634
0.0897231 0.665125 0.330922
0.282383 0.667842 0.33196
0.437217 0.665843 0.337407
0.557824 0.664881 0.330922
0.668452 0.665293 0.313741
0.777249 0.668467 0.287617
0.890135 0.675944 0.259403
0.98117 0.68687 0.217777
0.116243 0.775448 0.358587
0.184726 0.778149 0.364538
0.324269 0.778775 0.368719
0.46482 0.778164 0.376501
0.577386 0.776028 0.372213
0.683604 0.77615 0.361807
0.784268 0.779171 0.341588
0.885756 0.780087 0.316457
0.982498 0.787778 0.290089
0.201053 0.879057 0.400885
0.253285 0.881193 0.404334
0.372885 0.882063 0.412421
0.497536 0.882902 0.422889
0.601144 0.882933 0.42446
0.699977 0.881773 0.417258
0.796613 0.883894 0.407431
0.891646 0.887892 0.387427
0.982528 0.890639 0.363668
0.278996 0.976333 0.452171
0.320027 0.97789 0.454398
0.423865 0.980346 0.460746
0.537179 0.97995 0.473106
0.631357 0.981918 0.475319
0.722652 0.982727 0.474327
0.810498 0.985153 0.474983
0.897993 0.987869 0.469612
0.982162 0.988998 0.457908
0.000183108 0.0348058 0.350057
0.0685435 0.0359197 0.351812
0.204471 0.035462 0.350332
0.372564 0.0174105 0.339513
0.517052 0.0093843 0.323903
0.63473 0.0104829 0.308568
0.757931 0.0142519 0.294514
0.876036 0.0650492 0.26334
0.970184 0.116075 0.224414
0.00241093 0.139025 0.362325
0.0712291 0.142748 0.367147
0.22504 0.144091 0.366125
0.389288 0.140002 0.356085
0.529305 0.132708 0.338933
0.647471 0.136492 0.32401
0.768277 0.157458 0.304799
0.885588 0.189487 0.279057
0.973022 0.217411 0.231785
0.00260929 0.270939 0.379156
0.070573 0.276387 0.381201
0.233051 0.278508 0.381918
0.401846 0.281102 0.376516
0.538018 0.284627 0.36202
0.659861 0.288457 0.345739
0.780514 0.299992 0.328298
0.893828 0.31693 0.295323
0.975052 0.331853 0.245365
0.0027924 0.416022 0.400427
0.0696117 0.418662 0.401236
0.243122 0.423331 0.4038
0.415351 0.427466 0.400809
0.550896 0.429633 0.388022
0.677241 0.436652 0.374395
0.791714 0.442222 0.353796
0.902388 0.450996 0.324208
0.977508 0.457191 0.269322
0.0028687 0.550362 0.422522
0.0680247 0.553048 0.423941
0.260578 0.556924 0.421988
0.423484 0.557092 0.423331
0.554879 0.555535 0.415915
0.670802 0.559548 0.400732
0.790188 0.56997 0.38497
0.902846 0.578531 0.364218
0.979583 0.584375 0.318883
0.0325017 0.6692 0.442512
0.129809 0.671427 0.444755
0.295277 0.673457 0.446097
0.438987 0.674083 0.445136
0.568414 0.671061 0.447166
0.674006 0.670665 0.431159
0.781933 0.6748 0.414572
0.894423 0.68368 0.396551
0.980911 0.691249 0.372091
0.12929 0.777707 0.466423
0.194781 0.779934 0.467842
0.326726 0.783566 0.470848
0.459022 0.783123 0.476799
0.581872 0.781933 0.480003
0.6851 0.780423 0.473182
0.785992 0.783444 0.456657
0.88603 0.784207 0.436301
0.980911 0.791531 0.416251
0.20061 0.88217 0.498054
0.251774 0.883391 0.499443
0.368933 0.885298 0.503822
0.490181 0.885176 0.51191
0.601892 0.886107 0.519524
0.701823 0.885069 0.515816
0.79675 0.88661 0.507195
0.890288 0.889357 0.491539
0.980377 0.891997 0.471748
0.271244 0.978347 0.539025
0.312016 0.980026 0.541344
0.416846 0.980331 0.546944
0.529641 0.981277 0.554253
0.634516 0.981659 0.564813
0.724208 0.982391 0.564401
0.812268 0.984039 0.564584
0.89633 0.986389 0.5608
0.97789 0.988846 0.550622
0.0122225 0.0437629 0.476814
0.069276 0.0476387 0.482612
0.202792 0.0459144 0.482506
0.388159 0.0281834 0.482628
0.5411 0.0101015 0.467597
0.678477 0.0121309 0.444144
0.774731 0.0150912 0.424613
0.876997 0.0491188 0.408576
0.971008 0.100603 0.381277
0.0119783 0.15172 0.488106
0.0697642 0.15407 0.495033
0.231189 0.156298 0.495277
0.403265 0.152453 0.494285
0.553338 0.147173 0.482109
0.681422 0.147814 0.45922
0.777722 0.162524 0.439475
0.883803 0.183749 0.422873
0.97232 0.208545 0.394553
0.0103914 0.28368 0.50013
0.0703899 0.285298 0.505104
0.24741 0.288838 0.509285
0.417105 0.293294 0.509239
0.560845 0.296483 0.497673
0.679545 0.299962 0.478111
0.782086 0.304006 0.459236
0.88896 0.313741 0.440208
0.975525 0.326848 0.412024
0.00984207 0.422599 0.520623
0.0694896 0.425452 0.519417
0.259434 0.430152 0.524193
0.420172 0.434501 0.523384
0.562371 0.440116 0.520104
0.677317 0.441871 0.503838
0.784039 0.443549 0.48661
0.895979 0.447211 0.467124
0.977813 0.453407 0.43064
0.00836194 0.55523 0.536629
0.093431 0.559152 0.540124
0.281254 0.561898 0.542138
0.431159 0.565805 0.543374
0.566964 0.569833 0.542855
0.68101 0.572015 0.531121
0.793896 0.577096 0.518181
0.899657 0.578622 0.498604
0.979583 0.580636 0.465675
0.0725567 0.673961 0.555459
0.159045 0.678218 0.559579
0.304128 0.679271 0.56228
0.438987 0.68304 0.56112
0.569451 0.682765 0.561486
0.681819 0.681147 0.552987
0.786831 0.685573 0.541024
0.894865 0.69247 0.530129
0.980392 0.697017 0.511421
0.137179 0.782742 0.573693
0.198901 0.784939 0.576059
0.327214 0.787182 0.577981
0.455909 0.787518 0.579095
0.579568 0.787732 0.580118
0.691554 0.786023 0.579782
0.788952 0.786877 0.567391
0.88687 0.789761 0.552117
0.981567 0.794736 0.539193
0.187457 0.885374 0.591638
0.236851 0.886885 0.594186
0.353567 0.888243 0.597681
0.47715 0.889433 0.600671
0.595041 0.889067 0.606607
0.701885 0.88893 0.612055
0.796521 0.888243 0.604639
0.88957 0.892058 0.592462
0.979522 0.895842 0.577523
0.251408 0.979843 0.619562
0.291814 0.981186 0.621592
0.398108 0.982925 0.627283
0.516548 0.984344 0.634531
0.625574 0.982712 0.642618
0.725124 0.984665 0.65008
0.812329 0.985794 0.649653
0.897475 0.988022 0.64567
0.97818 0.987305 0.636942
0.00923171 0.059205 0.605295
0.0678721 0.0617227 0.608392
0.221637 0.0601358 0.609598
0.397925 0.0494087 0.610559
0.553109 0.0343481 0.609918
0.683482 0.0315557 0.59234
0.807294 0.0519417 0.571603
0.897932 0.0878614 0.546288
0.970764 0.112673 0.525704
0.0111391 0.164965 0.612802
0.068925 0.168475 0.618769
0.245121 0.169177 0.619425
0.411063 0.17145 0.620661
0.561868 0.171679 0.620279
0.691417 0.180011 0.606104
0.809186 0.191974 0.580606
0.899611 0.205646 0.557549
0.973648 0.21796 0.539483
0.0129854 0.296803 0.624063
0.0775769 0.295811 0.628214
0.265766 0.298726 0.630808
0.420874 0.304402 0.630594
0.565591 0.313344 0.631495
0.694194 0.320043 0.619089
0.804227 0.327581 0.596399
0.895994 0.328481 0.57583
0.975601 0.331991 0.556466
0.0153964 0.426703 0.631022
0.110506 0.431678 0.636347
0.285435 0.436759 0.637598
0.428702 0.442115 0.641932
0.568643 0.448859 0.644221
0.692073 0.45594 0.634653
0.796628 0.456596 0.615885
0.892271 0.453651 0.595911
0.97792 0.451911 0.571328
0.0460365 0.557397 0.645838
0.148882 0.562066 0.651041
0.296315 0.565698 0.650523
0.43595 0.56849 0.654261
0.565911 0.574228 0.656886
0.686854 0.581109 0.652491
0.791318 0.580438 0.639963
0.892103 0.576928 0.619989
0.979644 0.574731 0.595148
0.118593 0.676219 0.665064
0.190677 0.678813 0.666239
0.321523 0.683818 0.66807
0.447837 0.68571 0.6692
0.571145 0.689143 0.671031
0.688396 0.692866 0.670848
0.793408 0.695293 0.662715
0.896376 0.698222 0.652079
0.982025 0.697536 0.632364
0.162142 0.786892 0.678248
0.218372 0.78732 0.681483
0.336965 0.791318 0.685176
0.45623 0.79263 0.683162
0.574762 0.793744 0.683055
0.690349 0.793683 0.684947
0.791547 0.794278 0.679118
0.888182 0.795804 0.668086
0.983413 0.801923 0.660777
0.190845 0.88809 0.691173
0.239078 0.889662 0.69366
0.350652 0.891981 0.696742
0.467933 0.893263 0.695247
0.584329 0.89308 0.697932
0.69688 0.893172 0.702663
0.798199 0.892012 0.700755
0.890074 0.89424 0.693019
0.98088 0.897429 0.681208
0.229786 0.98233 0.704326
0.27013 0.983719 0.705989
0.374502 0.987274 0.710262
0.492332 0.988479 0.713497
0.608835 0.98912 0.718639
0.716365 0.988724 0.727749
0.812238 0.989044 0.73225
0.897139 0.989975 0.730556
0.98056 0.990295 0.722072
0.00262455 0.0789502 0.724773
0.0818952 0.0800183 0.728054
0.254002 0.0798352 0.728969
0.412253 0.0806744 0.731746
0.55787 0.0825666 0.733486
0.693721 0.0915389 0.731411
0.810941 0.110216 0.718822
0.902281 0.134798 0.690166
0.971664 0.156817 0.665736
0.0030518 0.182071 0.731609
0.108324 0.185733 0.737057
0.275517 0.188876 0.739147
0.422812 0.193362 0.7393
0.563439 0.200931 0.741863
0.695293 0.2121 0.740291
0.810101 0.224186 0.725521
0.904067 0.244312 0.701717
0.97406 0.258152 0.679683
0.0224918 0.305318 0.738323
0.141039 0.309758 0.742657
0.289113 0.312947 0.745388
0.430304 0.318456 0.747494
0.566842 0.329244 0.749065
0.696147 0.339666 0.747036
0.810086 0.350454 0.73492
0.906188 0.362402 0.712596
0.976455 0.36347 0.690959
0.0839399 0.438911 0.745617
0.179355 0.4439 0.748318
0.310201 0.44622 0.752758
0.437415 0.448615 0.754223
0.568536 0.457877 0.755825
0.693828 0.468101 0.755917
0.806821 0.475105 0.747341
0.904921 0.48098 0.728222
0.978225 0.475624 0.70811
0.108354 0.562188 0.755032
0.187945 0.563073 0.755596
0.318135 0.568978 0.756237
0.446693 0.57171 0.759136
0.568597 0.57789 0.761807
0.690105 0.588129 0.764904
0.801968 0.593194 0.758022
0.898405 0.590616 0.741604
0.980682 0.582956 0.72163
0.150881 0.680491 0.767483
0.21503 0.679896 0.76556
0.336324 0.684215 0.76968
0.454063 0.685847 0.76791
0.5729 0.68986 0.77026
0.688655 0.696834 0.773663
0.79794 0.700999 0.772
0.892531 0.699733 0.759289
0.981659 0.694575 0.742962
0.186023 0.786801 0.777295
0.242161 0.788708 0.77879
0.354543 0.791592 0.7794
0.467765 0.793988 0.782208
0.579019 0.796643 0.782544
0.689799 0.800336 0.784619
0.796338 0.80354 0.784878
0.892149 0.805402 0.780087
0.982605 0.807309 0.770626
0.212116 0.889342 0.788937
0.259403 0.891493 0.790997
0.365743 0.894438 0.793927
0.475471 0.897322 0.795041
0.582834 0.897597 0.793545
0.689891 0.898146 0.792813
0.796597 0.899672 0.796246
0.890394 0.899947 0.791257
0.980117 0.901686 0.784176
0.241886 0.985962 0.798871
0.282445 0.987289 0.800244
0.381262 0.990356 0.803952
0.490181 0.991409 0.803937
0.59411 0.992798 0.803845
0.700801 0.993591 0.80708
0.806104 0.990906 0.813291
0.896437 0.991608 0.814298
0.980804 0.99237 0.808225
0.060441 0.10396 0.835096
0.163119 0.107927 0.839521
0.295262 0.110124 0.840467
0.431632 0.116884 0.843076
0.563149 0.124697 0.844404
0.690654 0.141695 0.847501
0.810666 0.157168 0.843381
0.902495 0.176226 0.828565
0.97232 0.199817 0.802808
0.088716 0.206943 0.841978
0.183505 0.210254 0.844663
0.310903 0.215686 0.847211
0.44152 0.222065 0.848707
0.570306 0.233005 0.850217
0.694911 0.246937 0.850599
0.81355 0.261997 0.85037
0.904509 0.277424 0.836225
0.974105 0.293736 0.810925
0.109636 0.323507 0.847181
0.19971 0.327626 0.851316
0.322118 0.332998 0.852857
0.4495 0.339818 0.854459
0.573114 0.350027 0.854765
0.694408 0.363531 0.856138
0.810498 0.375998 0.853651
0.906676 0.38645 0.841611
0.975402 0.399039 0.821042
0.152926 0.455543 0.852003
0.227054 0.456504 0.853391
0.335531 0.458137 0.857801
0.454978 0.461677 0.85864
0.575601 0.470787 0.85977
0.693797 0.482231 0.85948
0.807141 0.492958 0.859236
0.9066 0.498955 0.850324
0.977996 0.506004 0.830961
0.154971 0.569863 0.85359
0.227909 0.572366 0.855634
0.344778 0.578134 0.859373
0.462272 0.581674 0.861143
0.575677 0.583398 0.864363
0.691035 0.593301 0.864927
0.802945 0.602243 0.866239
0.902419 0.606989 0.858335
0.979644 0.612146 0.843198
0.178622 0.680827 0.862287
0.241489 0.684352 0.865751
0.350149 0.686381 0.866453
0.463172 0.689601 0.866041
0.575296 0.692454 0.866621
0.688518 0.69778 0.868635
0.798932 0.706874 0.872145
0.899733 0.711116 0.867369
0.98175 0.710155 0.855772
0.209216 0.787457 0.870314
0.264012 0.789044 0.872312
0.368261 0.790219 0.871916
0.476646 0.794675 0.877104
0.583566 0.797284 0.875181
0.689906 0.79942 0.876158
0.793927 0.806683 0.877699
0.894499 0.81091 0.879164
0.980468 0.808484 0.868284
0.236805 0.888014 0.880583
0.28217 0.889693 0.88246
0.386313 0.893797 0.884474
0.490898 0.895216 0.885008
0.594369 0.897688 0.886625
0.696712 0.901045 0.888579
0.795804 0.903319 0.887251
0.893248 0.906218 0.88716
0.980255 0.908629 0.882338
0.263127 0.986954 0.891356
0.303822 0.988281 0.89279
0.398642 0.991043 0.89543
0.506142 0.992325 0.895277
0.602243 0.994141 0.894148
0.701991 0.995468 0.895201
0.799802 0.993683 0.89427
0.895048 0.994186 0.896834
0.981003 0.992996 0.895674
0.15523 0.145083 0.937682
0.231708 0.149813 0.942046
0.341329 0.155535 0.942321
0.456275 0.162692 0.943618
0.57644 0.174304 0.944442
0.695109 0.191897 0.947875
0.805966 0.213107 0.947616
0.901686 0.227512 0.944884
0.972229 0.243992 0.931136
0.16907 0.244663 0.943389
0.244358 0.248188 0.946227
0.351278 0.25359 0.946929
0.465446 0.26096 0.947982
0.581506 0.273884 0.950942
0.69395 0.286427 0.949889
0.80734 0.30721 0.952132
0.903609 0.31986 0.949615
0.974334 0.331884 0.93608
0.178622 0.353277 0.945693
0.255055 0.35639 0.950729
0.362188 0.362432 0.950713
0.474159 0.370367 0.953124
0.586007 0.379446 0.952789
0.698756 0.392325 0.954467
0.806058 0.40705 0.953979
0.905699 0.418158 0.952514
0.97641 0.428534 0.940734
0.198276 0.470298 0.949264
0.267628 0.473426 0.951614
0.372503 0.478218 0.954711
0.479026 0.484108 0.9561
0.588968 0.490791 0.957015
0.697978 0.501534 0.956939
0.803891 0.513085 0.957809
0.906584 0.521965 0.956329
0.978592 0.52639 0.945724
0.210742 0.583612 0.950927
0.275685 0.58735 0.953262
0.380591 0.590295 0.955718
0.484215 0.592813 0.958801
0.590036 0.597498 0.960327
0.696681 0.60528 0.960769
0.801633 0.615137 0.959442
0.902892 0.622965 0.960357
0.980606 0.625788 0.954116
0.220905 0.691325 0.956664
0.276951 0.692073 0.957046
0.378973 0.694881 0.960266
0.484443 0.697261 0.96199
0.589807 0.701244 0.965057
0.694163 0.705272 0.964141
0.799008 0.713481 0.965103
0.899107 0.721386 0.964034
0.982513 0.723903 0.958541
0.242664 0.789273 0.961105
0.293996 0.792447 0.962234
0.395834 0.795041 0.966415
0.495003 0.797971 0.968002
0.594614 0.799435 0.967193
0.693843 0.80296 0.967941
0.79588 0.807614 0.96611
0.895415 0.816388 0.969299
0.984207 0.82182 0.965896
0.268223 0.888167 0.966949
0.311162 0.889982 0.968795
0.411673 0.895384 0.97174
0.509896 0.89575 0.971786
0.608804 0.89839 0.97464
0.700877 0.900374 0.974044
0.798291 0.903716 0.975158
0.891981 0.909133 0.97464
0.981857 0.913375 0.973449
0.295735 0.981979 0.972808
0.336675 0.983307 0.973953
0.427085 0.986084 0.97554
0.530632 0.988998 0.97763
0.620386 0.992584 0.977996
0.712871 0.993347 0.980285
0.805234 0.994644 0.981109
0.894896 0.994705 0.979812
0.983413 0.99382 0.978836
