creative/lut-ricoh-film.cube
TITLE "Generated by Resolve"
LUT_3D_SIZE 33
0 0.0115358 0.0131838
0.0171359 0.0127413 0.0129091
0.034226 0.0139773 0.0125124
0.0545815 0.0146792 0.0130312
0.0762341 0.0153201 0.0137331
0.10045 0.0166323 0.0140536
0.127398 0.0186465 0.0142214
0.15523 0.0201419 0.0147707
0.185153 0.0202945 0.0165103
0.21529 0.0204623 0.0180362
0.247578 0.0201877 0.0172122
0.280034 0.0198215 0.0164187
0.314763 0.0163729 0.0154726
0.350195 0.0122377 0.0144808
0.387549 0.00972 0.0130007
0.426429 0.00814832 0.0111238
0.46479 0.00706493 0.00953689
0.502388 0.00743114 0.00863661
0.539895 0.0078584 0.00747692
0.576333 0.00877394 0.00511177
0.612924 0.00961318 0.00285344
0.646296 0.010132 0.00241093
0.679255 0.0106203 0.00222782
0.712795 0.0111238 0.002121
0.746731 0.0116426 0.00215152
0.779156 0.0122683 0.00230411
0.809186 0.0130312 0.00244144
0.838849 0.0137026 0.00234989
0.867796 0.0142214 0.00161746
0.896941 0.014725 0.000808728
0.923049 0.0225681 0.000564584
0.949416 0.0311131 0.000335698
0.969375 0.0460365 9.15541e-05
0.000320439 0.0367742 0.0180514
0.0174258 0.0376287 0.0177157
0.0345464 0.0384833 0.0174258
0.0548562 0.0394141 0.0163729
0.0761578 0.0403906 0.0149081
0.101061 0.0417334 0.0143282
0.128847 0.0433967 0.0144198
0.157626 0.0446326 0.0146639
0.188067 0.0451362 0.0153048
0.218814 0.0455024 0.0157015
0.252018 0.0445869 0.0152132
0.285283 0.0436103 0.014786
0.320607 0.0401617 0.0137179
0.356344 0.0364233 0.0124971
0.393469 0.0322576 0.0106355
0.43122 0.0275883 0.00840772
0.469047 0.0247349 0.00642405
0.507088 0.0247654 0.00479133
0.544839 0.0249485 0.00315862
0.581353 0.0254826 0.00189212
0.617868 0.0259709 0.000686656
0.650858 0.0264897 0.000320439
0.683803 0.0272526 0.000137331
0.717754 0.0281224 0.000518807
0.751934 0.0293278 0.00114443
0.78352 0.0312657 0.00144961
0.812665 0.034287 0.00154116
0.841871 0.0381476 0.00148013
0.871336 0.042771 0.000961318
0.900481 0.048661 0.000518807
0.926268 0.0593576 0.000320439
0.951843 0.0697642 4.57771e-05
0.970306 0.0842908 0
0.000686656 0.0619364 0.022858
0.0177615 0.062562 0.0225528
0.0348821 0.0631266 0.0222934
0.0549935 0.0643168 0.0197604
0.0757916 0.0655985 0.0166934
0.101335 0.0669413 0.0155337
0.129961 0.0684215 0.0155032
0.159579 0.0696269 0.0152743
0.190616 0.0704662 0.0149233
0.222309 0.0709697 0.014374
0.256519 0.0701762 0.0136263
0.290852 0.0694591 0.0126345
0.327062 0.066865 0.0112764
0.363348 0.0644236 0.00994888
0.400641 0.0605936 0.00807202
0.438315 0.0563058 0.00598154
0.476173 0.0541695 0.00445563
0.514092 0.0539101 0.00350958
0.551385 0.0532082 0.00270085
0.587381 0.0513313 0.00187686
0.62324 0.0489967 0.00105287
0.656199 0.0484627 0.000839246
0.689174 0.0476997 0.000579843
0.722255 0.0493629 0.000610361
0.755383 0.0517281 0.00062562
0.786007 0.0568856 0.000869764
0.815152 0.0642252 0.00134279
0.844602 0.0724956 0.00157168
0.874327 0.0813916 0.00141909
0.903349 0.090959 0.00123598
0.928389 0.100679 0.000671397
0.953262 0.110246 3.0518e-05
0.970932 0.12163 0
0.00166323 0.087953 0.0291752
0.0184634 0.0885176 0.0291752
0.0352789 0.0891585 0.0292058
0.0540017 0.0902876 0.026627
0.0730907 0.0915541 0.023682
0.0993973 0.0931868 0.0218509
0.129259 0.0950027 0.0203555
0.16022 0.0964065 0.0187991
0.19234 0.097261 0.0169985
0.225391 0.0978561 0.0149538
0.261006 0.098024 0.0121309
0.296803 0.0982071 0.00918593
0.33373 0.0968948 0.00827039
0.370825 0.0956741 0.00729381
0.408606 0.0930343 0.00572213
0.446601 0.0902113 0.00395209
0.484169 0.0880446 0.00325017
0.521309 0.0861372 0.00334173
0.55787 0.0830243 0.00315862
0.593164 0.0775158 0.00234989
0.628077 0.0720684 0.00155642
0.661021 0.0700389 0.00128176
0.694041 0.067689 0.0010071
0.726207 0.071458 0.000808728
0.758373 0.0766918 0.000564584
0.788464 0.0861067 0.000823987
0.817731 0.0968338 0.00129702
0.847211 0.107515 0.00158694
0.876753 0.117891 0.00143435
0.905013 0.127749 0.00112917
0.929717 0.136706 0.000534066
0.954238 0.145754 0
0.971481 0.154833 0
0.00256352 0.11397 0.0354467
0.019028 0.114443 0.0356451
0.035523 0.114992 0.0358434
0.0527962 0.116121 0.0333104
0.0703746 0.117494 0.0304723
0.0976577 0.119432 0.0278019
0.128679 0.121798 0.0252842
0.160708 0.123308 0.0226139
0.193896 0.124239 0.019852
0.22829 0.125216 0.0166018
0.265064 0.126284 0.0125124
0.302022 0.127382 0.00863661
0.339757 0.127321 0.0074464
0.377462 0.127459 0.00605783
0.415854 0.126146 0.00471504
0.454261 0.124758 0.0034638
0.491661 0.123384 0.00318914
0.528328 0.122026 0.00334173
0.56434 0.119936 0.00306706
0.599695 0.117311 0.00244144
0.634607 0.115419 0.00198367
0.667353 0.116548 0.00198367
0.700069 0.117922 0.00210575
0.731044 0.121828 0.00187686
0.761837 0.125795 0.00164797
0.791653 0.133028 0.00167849
0.82121 0.140826 0.00172427
0.850278 0.148409 0.00141909
0.878859 0.156115 0.000946059
0.906172 0.163821 0.000488289
0.930816 0.172625 0.000213626
0.954787 0.181399 0
0.97203 0.188281 0
0.00335698 0.144945 0.039704
0.019852 0.145815 0.0401617
0.036347 0.146777 0.0406348
0.053315 0.146929 0.03888
0.070634 0.146929 0.0369268
0.0977035 0.148287 0.0347906
0.127825 0.150164 0.0326543
0.16025 0.151614 0.0299077
0.19443 0.152789 0.0267185
0.229984 0.15436 0.0229191
0.267948 0.156497 0.0181125
0.305989 0.15848 0.0134585
0.344762 0.159442 0.00982681
0.38349 0.160479 0.00602731
0.422477 0.16054 0.00505074
0.461677 0.160678 0.00427253
0.498909 0.160708 0.00375372
0.535256 0.160754 0.00323491
0.57116 0.161288 0.0027924
0.606821 0.16231 0.00247196
0.641459 0.164019 0.00234989
0.673793 0.166812 0.00277714
0.705959 0.169955 0.00317388
0.735729 0.172595 0.00289921
0.765255 0.17525 0.00265507
0.794995 0.180163 0.00241093
0.824842 0.185138 0.00216678
0.853452 0.190005 0.00135805
0.881163 0.194583 0.000427253
0.907668 0.200793 0
0.932143 0.208789 0
0.955337 0.216358 0
0.97258 0.22153 0
0.0040589 0.17644 0.0437324
0.0205539 0.177539 0.0445106
0.0370642 0.178729 0.0453193
0.053666 0.17763 0.0443732
0.0708019 0.176287 0.0432898
0.0975662 0.177188 0.0417334
0.126909 0.178668 0.0399939
0.159945 0.180224 0.0371099
0.195239 0.18175 0.0335851
0.232105 0.183902 0.0292058
0.270848 0.186938 0.0237583
0.309728 0.189578 0.0183108
0.349233 0.191348 0.0129091
0.388632 0.193271 0.00761425
0.428641 0.194537 0.00637827
0.468513 0.195972 0.00497444
0.505821 0.197223 0.00399786
0.542489 0.198505 0.00318914
0.578347 0.200931 0.00289921
0.613672 0.2038 0.00294499
0.647745 0.206851 0.0030518
0.679744 0.209537 0.00317388
0.711574 0.212207 0.00311284
0.741756 0.21445 0.0027924
0.772015 0.216587 0.00242618
0.801007 0.22031 0.00207523
0.829725 0.224125 0.00169375
0.857511 0.22797 0.00109865
0.884886 0.23183 0.000350958
0.910491 0.237003 0
0.933989 0.243671 0
0.955886 0.249775 0
0.973129 0.25417 0
0.00407416 0.208774 0.0491035
0.020325 0.209979 0.0498054
0.0365301 0.21117 0.0504768
0.0533303 0.210468 0.050248
0.0708324 0.209522 0.049958
0.0979629 0.209949 0.0486305
0.127352 0.210651 0.046952
0.161608 0.21178 0.0441749
0.19826 0.213077 0.0407111
0.235676 0.215015 0.0361639
0.273793 0.217624 0.0304723
0.312398 0.220157 0.0247349
0.352224 0.222736 0.019028
0.392157 0.225254 0.0134279
0.433234 0.22768 0.00943008
0.474556 0.230091 0.00515755
0.512459 0.232547 0.00402838
0.54995 0.235203 0.00335698
0.585641 0.238865 0.00340276
0.620218 0.242893 0.00376898
0.653696 0.246494 0.00383001
0.685512 0.248997 0.00328069
0.717205 0.251591 0.00271611
0.748241 0.254398 0.00239567
0.7794 0.257252 0.00205997
0.807004 0.260258 0.00163272
0.834424 0.263233 0.00120546
0.861601 0.266255 0.000823987
0.88864 0.269306 0.000396735
0.913268 0.27361 0
0.935683 0.278813 1.5259e-05
0.95639 0.283421 0
0.973663 0.28719 0
0.00389105 0.241306 0.0545663
0.0198672 0.242573 0.0550851
0.0358129 0.243839 0.0556039
0.0528572 0.243427 0.0560159
0.0708019 0.242893 0.0565042
0.0982528 0.242832 0.0554208
0.127581 0.242695 0.0538643
0.16318 0.243336 0.0511025
0.201175 0.244556 0.0477913
0.239033 0.246326 0.0431525
0.276692 0.248676 0.0371862
0.314977 0.25127 0.0313115
0.354986 0.254566 0.0254673
0.395056 0.257679 0.0195315
0.436851 0.260838 0.0127871
0.478614 0.263996 0.00578317
0.516579 0.267475 0.00454719
0.554421 0.271 0.00360113
0.589746 0.275257 0.00364691
0.624323 0.279789 0.00404364
0.657542 0.283543 0.00387579
0.689464 0.286564 0.00323491
0.721233 0.289754 0.00267033
0.752194 0.292943 0.00234989
0.783001 0.29604 0.00199893
0.8103 0.298894 0.00164797
0.837659 0.301656 0.0012665
0.86453 0.304402 0.00115969
0.891508 0.306859 0.00114443
0.915084 0.31014 0.000717174
0.936477 0.313939 0.000213626
0.956329 0.317632 0
0.973968 0.321202 0
0.00387579 0.27808 0.0603647
0.0200198 0.278752 0.0614939
0.0361791 0.279377 0.0626688
0.0530251 0.279469 0.0632334
0.0708019 0.279545 0.0637675
0.0971695 0.279591 0.0624552
0.125216 0.279622 0.0606851
0.162844 0.280507 0.0581674
0.204456 0.281834 0.0554513
0.243198 0.282887 0.0510262
0.279835 0.283864 0.0453498
0.317433 0.285435 0.0397192
0.356405 0.288014 0.0341497
0.395682 0.290639 0.0276799
0.436805 0.293706 0.0179446
0.477913 0.296864 0.00798047
0.515846 0.300923 0.00593576
0.553628 0.305013 0.00390631
0.589822 0.309438 0.00355535
0.625574 0.314031 0.00358587
0.659586 0.318379 0.00340276
0.692256 0.322744 0.00311284
0.724163 0.326863 0.0027924
0.754894 0.330556 0.00242618
0.785214 0.334295 0.00204471
0.812879 0.337255 0.00173953
0.840589 0.340078 0.00138857
0.867506 0.342382 0.0016022
0.894377 0.344518 0.00190738
0.916823 0.346777 0.00129702
0.937163 0.349187 0.000381476
0.956344 0.352041 0
0.974304 0.355612 0
0.0037995 0.315984 0.0660868
0.0202335 0.315724 0.0680095
0.0367437 0.315435 0.0699321
0.053254 0.315831 0.0705425
0.0707561 0.316548 0.070985
0.0958267 0.316732 0.0694285
0.122454 0.316823 0.0673838
0.162676 0.3178 0.0652323
0.207675 0.319081 0.0629892
0.247181 0.319326 0.0588235
0.283055 0.318959 0.0535286
0.320073 0.319722 0.048249
0.358038 0.32166 0.0429084
0.396628 0.323934 0.0359045
0.436957 0.32694 0.0239414
0.476921 0.329809 0.0124056
0.514839 0.334051 0.00877394
0.552666 0.338338 0.00488289
0.589242 0.342687 0.00393683
0.625544 0.347021 0.0034638
0.659876 0.351705 0.00318914
0.693095 0.356649 0.00303655
0.725231 0.361135 0.0027924
0.755856 0.364981 0.00242618
0.786084 0.368917 0.00207523
0.814664 0.372168 0.00181582
0.843381 0.375494 0.00151064
0.870253 0.377859 0.00183108
0.897185 0.380209 0.00218204
0.918776 0.382239 0.00140383
0.938704 0.383917 0.000335698
0.957427 0.386648 0.000183108
0.975143 0.390112 0.000534066
0.00386053 0.353384 0.0720989
0.0201724 0.353628 0.0744945
0.0364538 0.353948 0.0768597
0.0531014 0.354086 0.0774701
0.0709392 0.354101 0.0777142
0.0939345 0.354009 0.0764935
0.117952 0.353918 0.0749218
0.161166 0.354147 0.0734722
0.210727 0.354528 0.0721752
0.253086 0.355016 0.0686656
0.291035 0.355749 0.0639658
0.328481 0.356909 0.0589914
0.365011 0.358251 0.0536202
0.40174 0.35964 0.0464179
0.438605 0.360922 0.0351568
0.475486 0.362371 0.0242618
0.513039 0.366064 0.0160067
0.550622 0.369818 0.0075227
0.586908 0.373846 0.00543221
0.62298 0.377951 0.00389105
0.65774 0.382666 0.00328069
0.691829 0.387625 0.00300603
0.724498 0.39237 0.00271611
0.755489 0.396689 0.00242618
0.786221 0.400977 0.002121
0.816251 0.405234 0.00189212
0.846082 0.409567 0.00161746
0.873045 0.412558 0.00196841
0.899931 0.415656 0.00225834
0.920775 0.417273 0.00138857
0.940352 0.418631 0.000289921
0.958602 0.421271 0.000411994
0.975921 0.424826 0.00111391
0.00393683 0.390295 0.0780804
0.0199435 0.391592 0.080827
0.0359808 0.39295 0.0835584
0.052781 0.392782 0.0842145
0.0711376 0.391867 0.0842145
0.0918746 0.391455 0.0834669
0.113069 0.391119 0.0824598
0.159136 0.390509 0.0818341
0.213916 0.389731 0.0813306
0.258946 0.390661 0.0784466
0.299001 0.392599 0.0742962
0.336507 0.394049 0.0696117
0.371756 0.39472 0.0642557
0.406424 0.395117 0.0570687
0.440452 0.394888 0.0465248
0.474861 0.395239 0.0359045
0.512078 0.398306 0.0238804
0.548943 0.401495 0.0121462
0.585 0.405188 0.00859083
0.620905 0.408865 0.00488289
0.655818 0.413397 0.00360113
0.690288 0.418296 0.0030518
0.723079 0.422934 0.00262455
0.754421 0.427314 0.00234989
0.785611 0.431846 0.00210575
0.81648 0.4365 0.00183108
0.846922 0.441032 0.00158694
0.873945 0.443915 0.00169375
0.901076 0.446784 0.00180056
0.921462 0.448981 0.000946059
0.941207 0.451225 0.00015259
0.959228 0.454292 0.000320439
0.976501 0.457542 0.000747692
0.00457771 0.426642 0.0845502
0.019913 0.427939 0.0868849
0.0356756 0.42916 0.0892653
0.0521706 0.429206 0.0903792
0.0703899 0.428641 0.0910964
0.0932326 0.427985 0.0906081
0.117845 0.427405 0.0894789
0.165545 0.426398 0.0888533
0.220752 0.425223 0.0883955
0.266377 0.42594 0.0863203
0.306996 0.427665 0.0835737
0.344259 0.428641 0.0796063
0.378744 0.429084 0.0746014
0.413031 0.429435 0.0678874
0.447257 0.429374 0.0585489
0.481498 0.429877 0.0489052
0.51545 0.432074 0.0376898
0.549081 0.434211 0.0266117
0.584405 0.436851 0.0171511
0.619684 0.439399 0.00712596
0.65391 0.443656 0.00436408
0.687938 0.448218 0.00326543
0.720653 0.452522 0.00265507
0.75259 0.456596 0.00227359
0.784237 0.461006 0.00195315
0.815625 0.465965 0.00167849
0.846372 0.470588 0.00138857
0.873915 0.473106 0.0011902
0.901442 0.475624 0.000961318
0.921706 0.479408 0.000366217
0.941772 0.483406 3.0518e-05
0.959747 0.48687 7.62951e-05
0.97702 0.49012 0.000167849
0.00541695 0.462562 0.0911574
0.0199588 0.463447 0.0927596
0.0354162 0.464347 0.0945449
0.0514839 0.464744 0.0960861
0.069337 0.46482 0.0978714
0.0949111 0.464317 0.0977035
0.124407 0.463539 0.0962997
0.1729 0.462333 0.0955673
0.228153 0.460838 0.095079
0.273762 0.46125 0.0940566
0.3149 0.462531 0.0927443
0.351843 0.463218 0.0895552
0.385443 0.463447 0.0849317
0.419532 0.463737 0.0787671
0.454078 0.46392 0.0706188
0.487617 0.464424 0.0619974
0.518578 0.46569 0.0515908
0.549722 0.466911 0.041001
0.58439 0.468513 0.0264897
0.61883 0.470115 0.0121462
0.652399 0.473945 0.00799573
0.685664 0.478019 0.00483711
0.718334 0.481895 0.00321965
0.750805 0.485542 0.00247196
0.782849 0.48983 0.00187686
0.814435 0.494774 0.00151064
0.844953 0.499092 0.00117494
0.87303 0.501732 0.000808728
0.900664 0.504494 0.000427253
0.921233 0.508919 3.0518e-05
0.941878 0.513481 0
0.95993 0.516823 0
0.977447 0.519905 0
0.00616464 0.49691 0.0979934
0.019852 0.497841 0.0996872
0.0348974 0.498894 0.101823
0.0507362 0.499428 0.103685
0.0684825 0.499336 0.105486
0.0978561 0.49897 0.105776
0.135164 0.498619 0.104692
0.184024 0.497612 0.103929
0.237476 0.496376 0.103243
0.282414 0.496254 0.102449
0.323354 0.49659 0.101518
0.35993 0.496757 0.0986801
0.393561 0.496941 0.0945754
0.426993 0.497032 0.0891737
0.459998 0.497108 0.0825666
0.492378 0.497581 0.075349
0.522972 0.498711 0.0667735
0.553811 0.499886 0.0578622
0.58674 0.500618 0.04477
0.619547 0.501274 0.0317388
0.651606 0.50425 0.0209506
0.683513 0.507317 0.00978103
0.716152 0.510582 0.00515755
0.749157 0.51397 0.00297551
0.781277 0.517906 0.00175479
0.812253 0.522454 0.00131228
0.842542 0.526619 0.000946059
0.87126 0.529946 0.000579843
0.899138 0.533379 0.000198367
0.920424 0.53785 0
0.941772 0.542428 0
0.95996 0.545571 0
0.977829 0.548653 0
0.0068513 0.530007 0.104967
0.0196841 0.531289 0.107042
0.0344244 0.532937 0.110124
0.0498512 0.53373 0.112444
0.0677195 0.533227 0.11368
0.100206 0.532998 0.114137
0.146471 0.533242 0.113542
0.196216 0.532769 0.112688
0.246998 0.531975 0.111666
0.29102 0.531273 0.110903
0.33167 0.530648 0.110292
0.368048 0.530343 0.10779
0.401679 0.530343 0.104097
0.434333 0.530343 0.0996872
0.465919 0.530343 0.0944991
0.496925 0.5308 0.0889296
0.52726 0.531807 0.0822614
0.55758 0.532631 0.0748302
0.588983 0.532479 0.0629587
0.620401 0.532479 0.0512703
0.651087 0.534585 0.0344396
0.681651 0.53666 0.0176394
0.71429 0.539483 0.0112001
0.747433 0.542458 0.00721752
0.779034 0.546136 0.00457771
0.809659 0.550179 0.00271611
0.839719 0.554147 0.0011902
0.868925 0.557824 0.000549325
0.896971 0.561624 0
0.919692 0.566064 0
0.942535 0.570489 0
0.960601 0.573495 0
0.978424 0.576425 0
0.00732433 0.562921 0.112734
0.0193179 0.563989 0.114702
0.0336461 0.565393 0.118151
0.0487984 0.566323 0.121019
0.0679789 0.566247 0.122393
0.102373 0.566155 0.123201
0.155398 0.565988 0.122667
0.206058 0.565591 0.122057
0.254536 0.565011 0.121401
0.297734 0.564019 0.120851
0.338155 0.562768 0.120302
0.374533 0.562234 0.118273
0.408438 0.562158 0.115358
0.440879 0.562341 0.111788
0.47187 0.562814 0.107561
0.502434 0.563226 0.102495
0.532067 0.563149 0.0959029
0.561852 0.563241 0.0888075
0.592645 0.563882 0.0795758
0.623407 0.564675 0.0704509
0.652873 0.565682 0.0562448
0.682048 0.566537 0.0422065
0.713176 0.568963 0.0320287
0.744686 0.571542 0.021912
0.775616 0.574655 0.0137484
0.80621 0.578073 0.00669871
0.836316 0.581582 0.00205997
0.865888 0.585184 0.00077821
0.894362 0.589059 0
0.919173 0.593469 0
0.94406 0.597818 0
0.961547 0.600824 0
0.979004 0.603769 0
0.00755322 0.595728 0.121477
0.0187228 0.596338 0.122896
0.032639 0.596704 0.126131
0.0471351 0.597177 0.129244
0.0686351 0.59855 0.131243
0.103197 0.599298 0.132738
0.162646 0.597971 0.131853
0.214878 0.597269 0.131518
0.261738 0.597009 0.131487
0.304097 0.595956 0.131151
0.343984 0.59443 0.130617
0.380529 0.59379 0.129061
0.414939 0.593698 0.126879
0.447333 0.594202 0.124056
0.477775 0.595376 0.120699
0.507698 0.595621 0.11603
0.536767 0.59443 0.109468
0.566064 0.593896 0.102937
0.596353 0.595315 0.0964065
0.62649 0.596689 0.0894789
0.654566 0.596521 0.0778515
0.682612 0.59646 0.0663615
0.712459 0.598398 0.0518502
0.742245 0.600519 0.0371557
0.772641 0.603082 0.0252384
0.803311 0.605798 0.0146181
0.833585 0.608957 0.00756847
0.8636 0.612787 0.00373846
0.892622 0.616678 0.000518807
0.918761 0.620829 0.000274662
0.944289 0.624781 0
0.961822 0.627497 0
0.979446 0.630198 0
0.00814832 0.627161 0.130587
0.0185855 0.627543 0.131456
0.0322881 0.627405 0.134371
0.046067 0.627268 0.137209
0.076997 0.629282 0.140002
0.118379 0.630976 0.142519
0.177661 0.629419 0.14197
0.228641 0.628672 0.141817
0.272663 0.628504 0.141939
0.312963 0.627283 0.141466
0.350393 0.625528 0.140703
0.38616 0.624826 0.139315
0.420783 0.624918 0.137499
0.453483 0.625162 0.13521
0.484596 0.625513 0.132433
0.514809 0.625467 0.128267
0.543648 0.624949 0.122042
0.572549 0.624979 0.115953
0.601587 0.626017 0.110033
0.630365 0.626917 0.103639
0.658137 0.626932 0.0934462
0.685939 0.626841 0.0831617
0.714107 0.628199 0.0711528
0.742092 0.629572 0.059205
0.771847 0.631434 0.0473182
0.802152 0.633448 0.0357519
0.832547 0.636591 0.0237583
0.86302 0.640726 0.0108644
0.891966 0.644678 0.00183108
0.918166 0.648051 0.000869764
0.943252 0.651301 0
0.961563 0.65362 0
0.97995 0.65597 0
0.00923171 0.656672 0.140108
0.0189822 0.657252 0.140581
0.0325475 0.65713 0.142885
0.0462196 0.656916 0.145098
0.0882124 0.658686 0.148394
0.145922 0.661219 0.152316
0.198657 0.66041 0.152575
0.244953 0.659983 0.152712
0.286 0.6598 0.152499
0.323064 0.658503 0.151781
0.357153 0.656245 0.150576
0.391516 0.655573 0.149248
0.426413 0.65597 0.147784
0.459556 0.655848 0.146014
0.491646 0.655207 0.143923
0.522057 0.655009 0.140215
0.550637 0.655451 0.134463
0.578973 0.656092 0.128786
0.606592 0.656779 0.123568
0.634226 0.657343 0.117784
0.661692 0.657374 0.10898
0.689006 0.657282 0.100252
0.715648 0.657969 0.090837
0.742306 0.658564 0.0815747
0.771496 0.659846 0.0698558
0.801282 0.661295 0.0575113
0.831434 0.664317 0.0416114
0.861997 0.668284 0.0234073
0.890669 0.671641 0.0120699
0.916976 0.674327 0.00988785
0.941756 0.676921 0.0074464
0.961074 0.679088 0.00457771
0.980423 0.681331 0.00108339
0.016434 0.686351 0.150652
0.0266728 0.686839 0.150942
0.0427863 0.686931 0.152453
0.0608988 0.686915 0.154269
0.103807 0.687953 0.157412
0.166979 0.689738 0.161624
0.216739 0.689754 0.163302
0.259617 0.689677 0.164157
0.297551 0.689708 0.163882
0.332494 0.688716 0.163012
0.365469 0.686915 0.161807
0.399145 0.686229 0.160525
0.433478 0.686244 0.159243
0.466148 0.685908 0.157763
0.497337 0.685313 0.1561
0.527413 0.68513 0.153094
0.556085 0.68545 0.148547
0.584131 0.685756 0.143908
0.611002 0.686137 0.138933
0.637919 0.686412 0.133532
0.665049 0.686717 0.126711
0.692149 0.686976 0.120043
0.719493 0.687312 0.110964
0.746868 0.687541 0.101808
0.774273 0.688807 0.0917067
0.801526 0.690242 0.0815595
0.830213 0.692149 0.0687572
0.859617 0.694301 0.054963
0.8878 0.696483 0.0440528
0.914412 0.698802 0.0361334
0.939544 0.701198 0.0270848
0.96025 0.703731 0.0152438
0.980896 0.706218 0.0033875
0.0354314 0.715984 0.162524
0.0457465 0.716548 0.16286
0.065568 0.716899 0.164019
0.0924086 0.717235 0.165835
0.129625 0.717433 0.16817
0.18204 0.717266 0.171267
0.231052 0.717617 0.174258
0.273136 0.718029 0.176135
0.30753 0.71841 0.175631
0.341192 0.718334 0.174884
0.37438 0.717632 0.173663
0.407721 0.716976 0.172396
0.44094 0.716304 0.171176
0.472724 0.715816 0.169833
0.502892 0.715663 0.168582
0.532387 0.71545 0.166415
0.561227 0.715404 0.163424
0.589075 0.715434 0.159915
0.61532 0.715343 0.155077
0.641611 0.715404 0.15021
0.66836 0.716075 0.145373
0.695232 0.716655 0.140322
0.723308 0.716548 0.131167
0.751415 0.716457 0.122011
0.776806 0.717601 0.113542
0.801831 0.718975 0.105333
0.829358 0.719844 0.0956283
0.857664 0.720485 0.0854658
0.885206 0.721843 0.0742504
0.912047 0.723873 0.0620432
0.937392 0.726131 0.0485695
0.959594 0.728862 0.0322881
0.981292 0.731426 0.0179446
0.0596475 0.744778 0.174807
0.0705272 0.745251 0.175189
0.0894026 0.745769 0.176135
0.120409 0.746303 0.177905
0.156237 0.746609 0.180087
0.198749 0.745617 0.182635
0.245014 0.745495 0.18613
0.28658 0.745754 0.188891
0.319051 0.746395 0.188403
0.351431 0.746761 0.187793
0.384329 0.746715 0.186984
0.416663 0.746014 0.185992
0.448249 0.744762 0.184878
0.479072 0.744152 0.183856
0.509071 0.744213 0.183001
0.538491 0.744167 0.18146
0.566995 0.743969 0.179126
0.59443 0.743679 0.175982
0.620157 0.74316 0.171374
0.645975 0.742992 0.166857
0.672801 0.743893 0.162387
0.699641 0.744808 0.157671
0.726375 0.74464 0.149462
0.753002 0.744472 0.141329
0.778851 0.745418 0.13373
0.80473 0.746441 0.126177
0.831189 0.747097 0.117586
0.857832 0.747738 0.108782
0.884169 0.748974 0.0988479
0.910292 0.750652 0.0880903
0.935393 0.752575 0.0769207
0.959106 0.754894 0.0647746
0.981659 0.757137 0.0540322
0.0985733 0.771328 0.188312
0.109285 0.771725 0.188632
0.122698 0.772274 0.189242
0.149645 0.773144 0.191028
0.180072 0.774197 0.19321
0.217105 0.774182 0.195743
0.259632 0.7738 0.198901
0.300023 0.773083 0.201694
0.331853 0.773724 0.201175
0.363195 0.774273 0.200885
0.395239 0.774655 0.2009
0.425956 0.774075 0.200397
0.455436 0.77232 0.199207
0.485191 0.771695 0.198367
0.515435 0.772137 0.197894
0.544656 0.77229 0.196735
0.573022 0.772091 0.194751
0.59997 0.771634 0.191928
0.624887 0.770764 0.187716
0.650309 0.770413 0.183536
0.677195 0.771695 0.179416
0.703929 0.772839 0.174945
0.729274 0.772747 0.16788
0.754513 0.77258 0.160815
0.781018 0.77322 0.153933
0.807538 0.773816 0.147097
0.832914 0.774472 0.139757
0.857847 0.775067 0.132235
0.883238 0.776165 0.123598
0.908919 0.777508 0.114321
0.934249 0.779095 0.105226
0.958968 0.780957 0.0962539
0.98201 0.782666 0.0867628
0.134813 0.797787 0.20206
0.14522 0.798199 0.202426
0.155718 0.798672 0.202853
0.177676 0.799649 0.204288
0.203204 0.800931 0.206104
0.235431 0.801602 0.209003
0.273533 0.801495 0.212345
0.312825 0.800168 0.215061
0.344503 0.800687 0.215122
0.375204 0.801297 0.215198
0.406134 0.801846 0.215244
0.435538 0.801526 0.214878
0.463554 0.800031 0.213901
0.492226 0.799344 0.213138
0.521645 0.799405 0.212543
0.550286 0.799313 0.211704
0.578302 0.799054 0.210636
0.605386 0.798733 0.208835
0.631144 0.798321 0.205905
0.656825 0.79826 0.202655
0.682338 0.798978 0.198337
0.70753 0.799695 0.193866
0.732509 0.800153 0.187823
0.757412 0.800671 0.181888
0.783307 0.801251 0.175723
0.809171 0.801923 0.169696
0.834302 0.802518 0.162387
0.859297 0.803189 0.15491
0.884764 0.804013 0.147478
0.910445 0.805005 0.140352
0.935592 0.805905 0.131945
0.959991 0.806683 0.121859
0.982467 0.807691 0.112444
0.160037 0.824186 0.217029
0.170535 0.824659 0.217456
0.181033 0.825132 0.217884
0.198459 0.825727 0.218326
0.222019 0.826581 0.218906
0.25153 0.827283 0.222187
0.287037 0.827649 0.226886
