creative/lut-icy-blue.cube
TITLE "Generated by Resolve"
LUT_3D_SIZE 9
0.00178531 0.00178531 0.0446021
0.0703441 0.00178531 0.0446021
0.152743 0.00357061 0.0450599
0.263035 0.00579843 0.0570993
0.384009 0.0133822 0.0767224
0.502098 0.0256504 0.0959029
0.604578 0.0374762 0.112856
0.696788 0.0575418 0.130709
0.75555 0.0963455 0.157015
0.00334173 0.0759289 0.0472877
0.07364 0.0770123 0.0497139
0.158267 0.082002 0.0536355
0.269047 0.084184 0.0587167
0.393835 0.0935378 0.078172
0.505135 0.107683 0.0999161
0.605295 0.121538 0.117159
0.698543 0.144671 0.139147
0.760449 0.173388 0.159472
0.0102541 0.167025 0.0588846
0.0755932 0.170138 0.0623941
0.158328 0.177172 0.0647898
0.282048 0.202762 0.0888228
0.405875 0.213199 0.104829
0.515938 0.220279 0.122728
0.612161 0.233707 0.137057
0.700298 0.248157 0.153399
0.766262 0.274083 0.172625
0.0289921 0.288014 0.0883192
0.0936904 0.289967 0.0897383
0.174716 0.293523 0.0928969
0.279332 0.312932 0.107088
0.410117 0.341878 0.138949
0.521538 0.352972 0.155291
0.617182 0.357702 0.164263
0.702647 0.363088 0.177234
0.773175 0.378561 0.196277
0.0597696 0.415244 0.12668
0.118746 0.418036 0.127581
0.196246 0.415686 0.125566
0.294255 0.429404 0.141176
0.401419 0.444236 0.15613
0.519722 0.46833 0.18323
0.617288 0.477028 0.196048
0.706828 0.477806 0.201846
0.7832 0.490181 0.215015
0.0932326 0.531548 0.16817
0.149691 0.5364 0.170794
0.222721 0.530938 0.165499
0.307332 0.533303 0.171679
0.407767 0.543587 0.186343
0.510353 0.557839 0.20116
0.618235 0.581674 0.222431
0.716579 0.595911 0.231296
0.800153 0.604257 0.240436
0.128923 0.638483 0.211887
0.184604 0.643381 0.21445
0.25803 0.640604 0.213107
0.33373 0.637079 0.211551
0.421714 0.645396 0.218585
0.51989 0.656596 0.233188
0.621088 0.672709 0.251255
0.722545 0.694133 0.268757
0.810864 0.709407 0.282811
0.163928 0.74786 0.26006
0.223819 0.752132 0.262776
0.293431 0.749203 0.261845
0.367636 0.748989 0.260655
0.453712 0.749432 0.262287
0.544167 0.761166 0.27158
0.635966 0.7738 0.285496
0.726955 0.784634 0.29865
0.813535 0.79939 0.314046
0.206973 0.860822 0.321172
0.267735 0.86595 0.322744
0.342779 0.866178 0.324742
0.414466 0.867292 0.326528
0.491081 0.867964 0.329213
0.57615 0.875105 0.339025
0.660777 0.882231 0.345708
0.744518 0.889372 0.35552
0.826917 0.894728 0.367575
0 0.00178531 0.124544
0.0700999 0.00292973 0.126558
0.152804 0.000228885 0.129122
0.261967 0.00691234 0.132937
0.381338 0.013489 0.153094
0.499672 0.0251469 0.1682
0.60235 0.0375219 0.182712
0.696986 0.0577401 0.202579
0.759121 0.0963455 0.232273
0.0031281 0.0788586 0.128588
0.0688945 0.0772412 0.128527
0.156619 0.0801862 0.135393
0.268437 0.0821241 0.141176
0.391592 0.0853742 0.154894
0.502724 0.0983597 0.169329
0.600687 0.119738 0.188525
0.696956 0.144457 0.20705
0.758953 0.177905 0.234394
0.0104829 0.176226 0.141726
0.0758068 0.175311 0.14258
0.163058 0.180682 0.147417
0.286671 0.200443 0.161196
0.406821 0.208347 0.170352
0.513542 0.21738 0.188769
0.609461 0.229923 0.205158
0.698543 0.246387 0.219745
0.762356 0.272404 0.243091
0.0314488 0.298268 0.172503
0.094667 0.299168 0.172778
0.177981 0.30071 0.175677
0.283543 0.316274 0.187518
0.412634 0.345113 0.211505
0.522118 0.352132 0.222217
0.616663 0.355642 0.23122
0.704768 0.361654 0.244984
0.770123 0.377752 0.263645
0.0637827 0.422827 0.211978
0.121935 0.425559 0.211444
0.199954 0.421286 0.211109
0.295552 0.431739 0.221149
0.400748 0.447639 0.235508
0.518532 0.467857 0.257618
0.616953 0.4748 0.265614
0.709072 0.477989 0.272648
0.782986 0.488502 0.282689
0.0920577 0.534051 0.247745
0.1523 0.538659 0.250996
0.227802 0.534463 0.249714
0.312062 0.534051 0.250675
0.408896 0.546929 0.265415
0.507805 0.558618 0.279088
0.619471 0.585138 0.303975
0.716716 0.594766 0.307652
0.795758 0.602747 0.31017
0.125124 0.638254 0.287251
0.18381 0.643992 0.290532
0.257053 0.644022 0.291417
0.333135 0.640223 0.287602
0.420432 0.642908 0.293858
0.516121 0.65481 0.307301
0.616388 0.672007 0.322194
0.721767 0.694057 0.344411
0.810758 0.7084 0.354833
0.1617 0.746303 0.333761
0.223819 0.751522 0.338811
0.292973 0.750271 0.338491
0.370459 0.749828 0.333333
0.448585 0.752865 0.332631
0.543786 0.764767 0.349783
0.635706 0.774685 0.359579
0.723125 0.783566 0.372869
0.815076 0.799191 0.394736
0.208759 0.861051 0.397772
0.268544 0.864591 0.398413
0.338033 0.864668 0.401053
0.416342 0.867155 0.399191
0.493645 0.867857 0.399893
0.576715 0.875242 0.410376
0.658778 0.881849 0.417838
0.744549 0.889403 0.428351
0.827146 0.894942 0.435904
0.00134279 0.00357061 0.233494
0.0707866 0.00363165 0.233936
0.144167 0.00512703 0.237385
0.262699 0.00808728 0.248432
0.388251 0.0171817 0.263157
0.499977 0.0263218 0.274861
0.596429 0.0379187 0.287358
0.691493 0.060441 0.303853
0.750637 0.0999161 0.332525
0.00485237 0.0790417 0.234775
0.0681163 0.0803388 0.239124
0.14696 0.0850385 0.244907
0.27361 0.0901503 0.258808
0.390768 0.086244 0.259327
0.497627 0.0959182 0.270115
0.598306 0.119432 0.290394
0.692241 0.145785 0.308598
0.757336 0.181262 0.337697
0.00669871 0.186877 0.250889
0.0708476 0.188403 0.256748
0.161471 0.191608 0.26154
0.27837 0.196353 0.265568
0.40058 0.203662 0.276982
0.505287 0.215045 0.288762
0.601404 0.231006 0.303639
0.693416 0.247868 0.319707
0.757778 0.275196 0.345785
0.0223087 0.315892 0.279942
0.0919661 0.318608 0.286824
0.182025 0.315114 0.288121
0.289021 0.324697 0.295155
0.412085 0.343603 0.313085
0.51783 0.347066 0.319738
0.610941 0.351064 0.326314
0.700313 0.362402 0.339605
0.764248 0.380621 0.357717
0.0666819 0.438209 0.317128
0.128115 0.440894 0.320226
0.208225 0.435767 0.318639
0.297429 0.436454 0.31783
0.403418 0.453162 0.335424
0.516091 0.471061 0.356405
0.613886 0.476738 0.362356
0.704479 0.478416 0.366552
0.777859 0.488182 0.378012
0.100984 0.541527 0.349462
0.156725 0.548669 0.354101
0.232761 0.545235 0.349477
0.31133 0.537453 0.342947
0.407965 0.547692 0.355825
0.508522 0.561959 0.374029
0.614206 0.584085 0.395285
0.714183 0.596674 0.401785
0.795758 0.605371 0.408911
0.125353 0.643946 0.381918
0.185138 0.648081 0.387579
0.258854 0.64625 0.382361
0.334295 0.641566 0.377737
0.421592 0.645167 0.3832
0.51754 0.657389 0.396582
0.616205 0.675669 0.412589
0.721263 0.698634 0.433753
0.807965 0.711299 0.442359
0.164385 0.750591 0.423133
0.221912 0.753353 0.424536
0.293324 0.753155 0.424018
0.368994 0.752087 0.418921
0.445243 0.751766 0.416571
0.539117 0.76286 0.429358
0.633021 0.773098 0.443793
0.724086 0.786557 0.455848
0.816663 0.802686 0.472084
0.205203 0.860822 0.474372
0.267903 0.866239 0.476493
0.341878 0.866957 0.477943
0.416709 0.868238 0.476051
0.492638 0.87042 0.475929
0.575036 0.875761 0.484855
0.66067 0.882567 0.492332
0.744793 0.891325 0.502251
0.825589 0.894286 0.510063
0 0.0118257 0.397742
0.0687877 0.0101778 0.399313
0.137194 0.0132143 0.407279
0.237858 0.0169223 0.410681
0.384802 0.0266575 0.420386
0.500511 0.0468452 0.428916
0.593362 0.0608835 0.431205
0.683543 0.0764782 0.431617
0.741497 0.106386 0.459297
0.00370794 0.0893111 0.392081
0.0681163 0.0909743 0.396994
0.13637 0.097261 0.404852
0.245396 0.105333 0.412985
0.385626 0.115984 0.422629
0.497856 0.133333 0.430701
0.593637 0.143511 0.432532
0.685618 0.160555 0.437613
0.747127 0.185855 0.465156
0.00764477 0.193729 0.394903
0.0681163 0.197757 0.400259
0.136416 0.205844 0.407431
0.261631 0.21593 0.422065
0.393713 0.230167 0.435416
0.497749 0.23534 0.433661
0.595178 0.241642 0.436057
0.68455 0.255833 0.444389
0.750759 0.279438 0.468162
0.0128023 0.334432 0.420935
0.0686046 0.338857 0.426932
0.154559 0.340841 0.430945
0.282551 0.339284 0.436347
0.396109 0.343862 0.441535
0.499413 0.349798 0.446571
0.596887 0.355016 0.450324
0.68864 0.365759 0.460655
0.751095 0.384619 0.477928
0.0516365 0.45594 0.444694
0.120943 0.459525 0.451972
0.207248 0.456809 0.456077
0.299809 0.45153 0.451759
0.40058 0.458183 0.457237
0.508339 0.473045 0.472602
0.605219 0.474708 0.474784
0.694926 0.479942 0.478889
0.767819 0.493187 0.48986
0.101488 0.5561 0.470848
0.159365 0.5617 0.479576
0.237232 0.561288 0.477089
0.313497 0.553033 0.466331
0.401862 0.553491 0.466316
0.501442 0.567468 0.481788
0.609903 0.586618 0.498375
0.710643 0.599481 0.50518
0.789197 0.6047 0.508797
0.127352 0.652644 0.491417
0.185534 0.657252 0.497871
0.261265 0.654734 0.492927
0.333333 0.653407 0.484092
0.411704 0.646647 0.477592
0.508919 0.660533 0.494438
0.611582 0.679515 0.51252
0.718349 0.699168 0.52958
0.806073 0.708171 0.538033
0.164523 0.756649 0.513787
0.222705 0.76144 0.519753
0.29456 0.761807 0.518639
0.3682 0.760235 0.517082
0.447944 0.757504 0.508431
0.534905 0.763577 0.515007
0.628428 0.776638 0.52871
0.720851 0.788083 0.543404
0.814939 0.803937 0.557977
0.208103 0.865507 0.557
0.265904 0.868803 0.560784
0.340383 0.86952 0.560952
0.413977 0.87042 0.560571
0.487846 0.872755 0.557885
0.572717 0.875486 0.564126
0.65861 0.883848 0.571542
0.741115 0.891218 0.579126
0.824475 0.897627 0.588449
0 0.0258793 0.543709
0.0699016 0.024094 0.54316
0.136461 0.0294347 0.549294
0.209049 0.0373541 0.556878
0.354574 0.0517433 0.564233
0.479133 0.0685893 0.565011
0.586069 0.106615 0.573816
0.677394 0.127016 0.58085
0.737713 0.143633 0.603479
0.0027924 0.106142 0.539803
0.0698253 0.107057 0.543816
0.137911 0.112718 0.549645
0.210452 0.12369 0.553323
0.361212 0.139986 0.563729
0.481437 0.157061 0.569207
0.58497 0.190509 0.579004
0.674968 0.205402 0.580972
0.741054 0.219791 0.603937
0.00535592 0.208515 0.535683
0.0681163 0.212604 0.545129
0.13669 0.222171 0.554635
0.227649 0.234852 0.560098
0.368521 0.248325 0.567239
0.483558 0.264775 0.576883
0.584558 0.285847 0.583642
0.674983 0.290257 0.584772
0.73994 0.303075 0.596353
0.0133822 0.330617 0.546944
0.0687419 0.340002 0.555413
0.136248 0.34229 0.556313
0.254826 0.353841 0.567681
0.381231 0.366354 0.576547
0.48838 0.376852 0.58468
0.581827 0.380102 0.585275
0.674189 0.380789 0.584482
0.739605 0.39173 0.594568
0.0178378 0.465644 0.570916
0.0758068 0.471901 0.579843
0.173053 0.47335 0.583185
0.287175 0.472053 0.583139
0.390036 0.472343 0.585641
0.489281 0.474464 0.588159
0.586847 0.47892 0.590997
0.679728 0.480537 0.590997
0.751095 0.494636 0.600809
0.0945754 0.569574 0.585412
0.153353 0.576226 0.593088
0.235218 0.574807 0.595819
0.317586 0.572564 0.595239
0.399634 0.564614 0.590265
0.494682 0.573007 0.594278
0.605386 0.591562 0.608087
0.705318 0.59942 0.610559
0.782086 0.6056 0.614191
0.132708 0.663676 0.597681
0.188418 0.672862 0.607385
0.263706 0.671046 0.607172
0.338582 0.670436 0.604318
0.415793 0.662898 0.596017
0.500938 0.664439 0.591882
0.608423 0.683818 0.609903
0.71368 0.702235 0.627665
0.79971 0.711864 0.633158
0.169406 0.766491 0.618769
0.227192 0.771023 0.625208
0.297505 0.771817 0.624475
0.371237 0.767117 0.617502
0.447868 0.76672 0.612741
0.52842 0.763287 0.606119
0.62295 0.775631 0.617868
0.716731 0.789105 0.631022
0.811978 0.80853 0.648096
0.206973 0.869749 0.641855
0.26952 0.873426 0.647196
0.335637 0.873976 0.645411
0.412024 0.874205 0.645747
0.48661 0.874205 0.643641
0.569467 0.877211 0.642405
0.653651 0.884016 0.651209
0.739284 0.889708 0.659022
0.825132 0.898299 0.669505
0 0.0417029 0.663355
0.0687877 0.0433509 0.663142
0.137407 0.0491188 0.668376
0.206607 0.0588846 0.673152
0.325139 0.0837568 0.679759
0.458366 0.102159 0.683406
0.566598 0.122118 0.686336
0.661768 0.155734 0.693156
0.735256 0.185122 0.730053
0.00184634 0.125658 0.659037
0.0682383 0.126268 0.663066
0.137804 0.132692 0.666972
0.205127 0.14519 0.670985
0.329351 0.16846 0.68101
0.46038 0.186221 0.685695
0.565988 0.204486 0.687144
0.661143 0.23592 0.695354
0.735897 0.26096 0.727153
0.00508125 0.230137 0.657389
0.0691081 0.234913 0.666957
0.139986 0.240726 0.670344
0.214176 0.252598 0.674678
0.345815 0.270375 0.683406
0.466957 0.288365 0.692393
0.566018 0.299977 0.692164
0.663935 0.327916 0.704189
0.736751 0.346181 0.72224
0.00894179 0.341314 0.659846
0.0686351 0.349798 0.670344
0.138155 0.357458 0.675975
0.2336 0.365682 0.680568
0.367468 0.379736 0.688121
0.472358 0.392676 0.694759
0.571725 0.404013 0.701137
0.671 0.422507 0.712215
0.743755 0.434745 0.724361
0.0158389 0.462196 0.674739
0.0685588 0.468956 0.682841
0.146258 0.471107 0.684764
0.261173 0.472206 0.68716
0.378332 0.480095 0.691066
0.481392 0.491768 0.700084
0.584329 0.503502 0.70808
0.678492 0.508827 0.709026
0.746853 0.51516 0.714885
0.0590982 0.573999 0.690379
0.119173 0.582238 0.700847
0.207507 0.582345 0.703334
0.305745 0.585077 0.702281
0.398062 0.584146 0.702495
0.494118 0.587259 0.70399
0.591501 0.591913 0.705058
0.688197 0.596811 0.706432
0.767788 0.604944 0.714076
0.140185 0.679469 0.704952
0.200092 0.688579 0.713161
0.275044 0.687663 0.715114
0.353384 0.686564 0.715679
0.434089 0.686564 0.714214
0.507134 0.677699 0.703151
0.603525 0.688701 0.70988
0.711666 0.70425 0.722103
0.795972 0.710964 0.727535
0.178286 0.776867 0.711788
0.232898 0.782528 0.719615
0.302159 0.783459 0.719661
0.378729 0.781415 0.721187
0.456016 0.780758 0.716762
0.529702 0.773297 0.707713
0.613275 0.777218 0.709331
0.715724 0.791516 0.722347
0.810056 0.807202 0.7337
0.206531 0.874647 0.729152
0.265904 0.878218 0.736126
0.340887 0.87866 0.735729
0.415305 0.88043 0.736095
0.48661 0.882231 0.733166
0.567224 0.880034 0.73138
0.648295 0.882689 0.731777
0.738216 0.890074 0.740978
0.823133 0.898299 0.744549
0.000885023 0.0682536 0.769177
0.0681163 0.0709239 0.770962
0.136248 0.078294 0.771298
0.205982 0.0909438 0.777935
0.295018 0.11107 0.778775
0.446906 0.139895 0.786023
0.553719 0.159579 0.793378
0.647059 0.168948 0.791592
0.727001 0.20029 0.829404
0.00189212 0.155322 0.769345
0.0683452 0.155367 0.77145
0.136339 0.161593 0.771267
0.20444 0.17705 0.775677
0.304387 0.194659 0.779553
0.449653 0.219211 0.788296
0.553445 0.235889 0.792874
0.649454 0.246311 0.794919
0.731517 0.279225 0.826337
0.00691234 0.256794 0.767727
0.0683452 0.261448 0.77435
0.139178 0.268223 0.777234
0.209232 0.275944 0.776898
0.329152 0.294484 0.782727
0.455161 0.313161 0.79115
0.556924 0.327474 0.796979
0.653346 0.333455 0.796536
0.734356 0.365301 0.820813
0.00886549 0.364904 0.767681
0.0686961 0.373709 0.779538
0.136278 0.37554 0.780407
0.230274 0.386175 0.783551
0.355154 0.397742 0.788251
0.46537 0.411002 0.79469
0.564843 0.424094 0.799207
0.662867 0.431693 0.802563
0.747127 0.459022 0.823651
0.0153964 0.462745 0.768963
0.0691997 0.470893 0.782757
0.141817 0.474235 0.783062
0.2533 0.482734 0.790616
0.369406 0.492195 0.792828
0.477928 0.505455 0.79823
0.580545 0.516442 0.801465
0.680507 0.528008 0.808713
0.757549 0.550622 0.823606
0.034287 0.574762 0.781003
0.0927596 0.580148 0.793179
0.183154 0.581018 0.793988
0.284016 0.58175 0.795712
0.382513 0.584405 0.79266
0.49276 0.597513 0.800656
0.597635 0.610285 0.807752
0.692729 0.61886 0.813169
0.768826 0.630747 0.818479
0.114199 0.680751 0.795834
0.171084 0.689799 0.804929
0.253193 0.688945 0.805478
0.33994 0.693904 0.808316
0.431296 0.698024 0.811048
0.518914 0.69839 0.808698
0.608011 0.699901 0.807599
0.699763 0.703944 0.811032
0.78265 0.706615 0.813001
0.187076 0.78706 0.812116
0.244266 0.795163 0.815473
0.31931 0.792874 0.816098
0.392538 0.794675 0.816114
0.469886 0.795316 0.815381
0.54403 0.794018 0.813077
0.616007 0.785763 0.805142
0.711101 0.79443 0.812284
0.808347 0.809094 0.82237
0.215457 0.882231 0.816464
0.273533 0.883406 0.821042
0.340215 0.884016 0.823484
0.417151 0.883131 0.823606
0.490623 0.885359 0.823148
0.57203 0.887358 0.825391
0.648188 0.884459 0.818357
0.733028 0.891768 0.821042
0.821118 0.901869 0.825833
0 0.114641 0.87187
0.0681468 0.115145 0.871702
0.137087 0.124727 0.870649
0.204364 0.135027 0.874556
0.310857 0.152331 0.876783
0.438651 0.172412 0.878264
0.544686 0.193713 0.882643
0.638941 0.203586 0.883192
0.717861 0.220142 0.915816
0.00250248 0.196002 0.867445
0.0681163 0.200259 0.873045
0.138659 0.205478 0.873457
0.204364 0.218311 0.876051
0.320653 0.230854 0.879698
0.442756 0.248249 0.882414
0.546578 0.268879 0.887053
0.648173 0.2813 0.889296
0.722148 0.294697 0.913359
0.00859083 0.291814 0.869932
0.0681773 0.296651 0.874708
0.137224 0.299565 0.875685
0.208682 0.308324 0.874769
0.336339 0.321508 0.880629
0.452445 0.337621 0.88452
0.552331 0.353109 0.886793
0.653498 0.365072 0.890822
0.728008 0.376898 0.909957
0.0112917 0.392844 0.867048
0.0682383 0.397101 0.876097
0.136629 0.399832 0.878676
0.235843 0.408026 0.882109
0.356512 0.414755 0.883818
0.463844 0.425071 0.885222
0.568673 0.444556 0.889525
0.665507 0.454429 0.892805
0.739651 0.467552 0.908629
0.0191806 0.484276 0.870878
0.0712596 0.490043 0.880003
0.145556 0.494621 0.882109
0.261097 0.498558 0.886397
0.372976 0.504509 0.883528
0.480964 0.51809 0.887495
0.586343 0.534127 0.89276
0.679194 0.543587 0.89691
0.749523 0.553857 0.905669
0.0302434 0.575067 0.87335
0.0808118 0.582483 0.884092
0.159945 0.581964 0.882979
0.269337 0.585184 0.88368
0.38349 0.594369 0.885679
0.492866 0.60911 0.892363
0.598489 0.623026 0.897414
0.693278 0.633371 0.903426
0.770748 0.644038 0.913664
0.0997024 0.679789 0.879408
0.155688 0.685649 0.889693
0.236759 0.690562 0.893767
0.324331 0.6916 0.894789
0.418524 0.694072 0.895048
0.5066 0.695766 0.892256
0.610071 0.710414 0.901045
0.707591 0.722042 0.907958
0.78677 0.727245 0.911299
0.164828 0.78706 0.895933
0.223148 0.791775 0.902525
0.300206 0.794934 0.903929
0.378958 0.797147 0.905104
0.46157 0.79794 0.904616
0.547112 0.801419 0.906447
0.63183 0.803403 0.906615
0.71783 0.805661 0.905043
0.798962 0.809842 0.904631
0.219242 0.88246 0.903319
0.281147 0.887587 0.908675
0.353262 0.888762 0.904768
0.428824 0.890486 0.911543
0.499107 0.892943 0.907118
0.578378 0.89366 0.909438
0.652033 0.894835 0.91548
0.730861 0.891829 0.907485
0.818006 0.901869 0.912245
0 0.171298 0.962524
0.0681163 0.176196 0.962753
0.138918 0.177981 0.963867
0.219989 0.186679 0.964981
0.334051 0.198062 0.965209
0.444999 0.210773 0.968551
0.551049 0.225711 0.973678
0.649287 0.245121 0.97702
0.71986 0.260517 0.998215
0.00468452 0.251011 0.965209
0.0683146 0.253468 0.964096
0.144045 0.25536 0.964706
0.226429 0.262211 0.967071
0.343084 0.272312 0.968887
0.452247 0.283436 0.970336
0.556008 0.299794 0.973953
0.651041 0.316548 0.972534
0.72343 0.332647 0.995987
0.00669871 0.337865 0.963424
0.0746471 0.340322 0.968719
0.154192 0.341772 0.967437
0.242512 0.345113 0.966934
0.353231 0.355047 0.96878
0.460456 0.365301 0.969055
0.565316 0.380362 0.973007
0.662501 0.397925 0.977752
0.731014 0.411475 0.993759
0.0267643 0.423392 0.96231
0.0947738 0.427131 0.967437
0.17673 0.430304 0.971725
0.268101 0.432792 0.972396
0.373083 0.440909 0.972015
0.477516 0.452415 0.975906
0.577813 0.464652 0.980545
0.670024 0.477592 0.980148
0.743954 0.490532 0.992645
0.0526436 0.508919 0.964309
0.114168 0.514046 0.972122
0.196246 0.515831 0.975021
0.289006 0.518959 0.974243
0.392935 0.525872 0.975021
0.492073 0.536355 0.977691
0.58851 0.547951 0.980819
0.682521 0.560098 0.983825
0.753765 0.571374 0.991974
0.0644541 0.589761 0.963867
0.124132 0.597116 0.975998
0.209461 0.598962 0.976806
0.304158 0.604257 0.976104
0.405203 0.614298 0.979034
0.505699 0.623209 0.979706
0.601846 0.633692 0.983383
0.695598 0.645289 0.985138
0.76759 0.654444 0.991073
0.105714 0.684871 0.966995
0.161578 0.692058 0.977356
0.244755 0.693675 0.981262
0.329717 0.696239 0.981048
0.414801 0.697368 0.978363
0.515648 0.706554 0.981994
0.613504 0.717998 0.98584
0.706096 0.728252 0.986282
0.786328 0.737057 0.993301
0.159701 0.790021 0.974578
0.220676 0.79649 0.986847
0.299001 0.797665 0.990295
0.372259 0.79646 0.987869
0.454826 0.798611 0.986847
0.540017 0.79939 0.988571
0.62565 0.801846 0.985443
0.716472 0.812772 0.99147
0.798825 0.820584 0.993759
0.205203 0.882231 0.987503
0.264622 0.887816 0.991745
0.337423 0.888029 0.989288
0.412467 0.890715 0.991745
0.493751 0.893828 0.993759
0.570581 0.895842 0.993973
0.655879 0.901869 0.998215
0.733822 0.903197 0.997986
0.814435 0.903655 0.992859
