creative/lut-icy-blue.cube
TITLE "Generated by Resolve"
LUT_3D_SIZE 33
0.00178531 0.00178531 0.0446021
0.0222019 0.00172427 0.0445563
0.0410773 0.0034638 0.0462806
0.0564431 0.00178531 0.0446021
0.0703441 0.00178531 0.0446021
0.0914473 0.00329595 0.0461128
0.112215 0.00357061 0.0463874
0.130922 0.00317388 0.0460059
0.152743 0.00357061 0.0450599
0.178531 0.00228885 0.0463874
0.204318 0.00300603 0.0494087
0.232441 0.00357061 0.0540932
0.263035 0.00579843 0.0570993
0.294499 0.00640879 0.0610056
0.323522 0.00892653 0.0670176
0.352987 0.0124971 0.0732738
0.384009 0.0133822 0.0767224
0.416831 0.0168917 0.0819715
0.445518 0.0196231 0.0882124
0.472084 0.0221408 0.0910048
0.502098 0.0256504 0.0959029
0.526665 0.0273747 0.0993668
0.553674 0.0326696 0.105837
0.57879 0.0344091 0.10985
0.604578 0.0374762 0.112856
0.629587 0.0414282 0.11458
0.650462 0.0452735 0.118441
0.67274 0.0505226 0.123674
0.696788 0.0575418 0.130709
0.720516 0.064744 0.137392
0.73933 0.0715953 0.139284
0.759991 0.0785687 0.144579
0.75555 0.0963455 0.157015
0.0302739 0.0170291 0.0392004
0.0221561 0.0188144 0.0446021
0.0393072 0.0188144 0.0446174
0.0579995 0.0203708 0.0461738
0.0751965 0.0205386 0.0463417
0.0923323 0.0205386 0.0463417
0.112459 0.0208133 0.0466163
0.13164 0.0223087 0.0481117
0.150072 0.0223697 0.0455024
0.175494 0.0223239 0.0476234
0.203037 0.0223239 0.051133
0.235294 0.0223697 0.0534676
0.265797 0.0223545 0.0563668
0.295201 0.0241398 0.0617075
0.324773 0.0261845 0.0652628
0.353826 0.0311894 0.0704814
0.385779 0.0338598 0.0758068
0.416876 0.0331121 0.0776989
0.445457 0.0374304 0.0846723
0.473564 0.038468 0.0889143
0.500786 0.0415351 0.0941024
0.526192 0.0450446 0.0987716
0.553689 0.0479133 0.102861
0.578851 0.0509346 0.107576
0.604974 0.0570993 0.11458
0.624659 0.0615854 0.118151
0.646876 0.0640726 0.12134
0.669764 0.0699168 0.124361
0.694789 0.0783551 0.132036
0.715541 0.0851148 0.134142
0.739437 0.092134 0.140963
0.761776 0.0974289 0.146258
0.757275 0.11516 0.158526
0.0253147 0.0340581 0.037583
0.019028 0.0358434 0.0446021
0.0360571 0.0358434 0.0446021
0.0532082 0.0359503 0.0447242
0.0719158 0.0405432 0.0463874
0.0904402 0.041062 0.0463874
0.112245 0.0413062 0.0480659
0.130022 0.0410773 0.0481727
0.154086 0.044007 0.0497597
0.180285 0.0415961 0.049897
0.207401 0.0401465 0.0523232
0.238911 0.0411231 0.0557412
0.26627 0.0399634 0.0567788
0.296178 0.042237 0.0605173
0.327718 0.0447089 0.0651865
0.358846 0.0456703 0.0704814
0.387533 0.0483864 0.0749371
0.417777 0.0518959 0.0793469
0.446235 0.0552987 0.08542
0.473274 0.0572518 0.0899825
0.501015 0.0586252 0.0947433
0.526162 0.0610056 0.0987869
0.552041 0.0649882 0.104005
0.578759 0.068452 0.109636
0.60351 0.0728618 0.113054
0.624918 0.0789654 0.115114
0.650126 0.0849775 0.121538
0.672999 0.0930037 0.125536
0.696971 0.100511 0.13257
0.719158 0.109224 0.139162
0.740902 0.114351 0.140856
0.758419 0.119478 0.144472
0.759121 0.13576 0.157015
0.0265965 0.0510872 0.0407111
0.0188144 0.0561074 0.0462196
0.0373541 0.0545815 0.0462196
0.0546578 0.0546578 0.0463874
0.0732433 0.0576333 0.04654
0.0920272 0.0597238 0.0479438
0.11397 0.0603037 0.047303
0.133227 0.061265 0.048127
0.158862 0.0616312 0.0508125
0.185 0.0600748 0.0529793
0.210788 0.061677 0.056199
0.239918 0.0656443 0.0602731
0.269551 0.0620584 0.061387
0.299351 0.0616312 0.0630045
0.330404 0.0643168 0.0677653
0.361563 0.0652781 0.073106
0.390265 0.06804 0.0776226
0.420401 0.0714733 0.0818952
0.44741 0.0740978 0.0872358
0.472038 0.0773785 0.0907607
0.503761 0.082826 0.0986954
0.529885 0.0853742 0.102876
0.554223 0.0886702 0.107454
0.578378 0.0935683 0.112749
0.602304 0.0932937 0.114031
0.628275 0.102922 0.120027
0.653559 0.108385 0.126223
0.676112 0.113954 0.128862
0.698405 0.119905 0.134066
0.7205 0.12784 0.137713
0.74258 0.133639 0.142962
0.761608 0.140185 0.147982
0.758785 0.156024 0.16025
0.00334173 0.0759289 0.0472877
0.020264 0.0750744 0.0479591
0.0376135 0.0752422 0.0479591
0.0560769 0.0766766 0.0493629
0.07364 0.0770123 0.0497139
0.090486 0.0767987 0.0481727
0.112444 0.0799115 0.0512245
0.134203 0.0802167 0.0529641
0.158267 0.082002 0.0536355
0.187228 0.0826123 0.0541238
0.212741 0.0838788 0.0569619
0.241443 0.0849775 0.058732
0.269047 0.084184 0.0587167
0.303044 0.0867628 0.0640269
0.334569 0.0888838 0.0696117
0.364202 0.0907607 0.0744488
0.393835 0.0935378 0.078172
0.421118 0.0969558 0.0823072
0.450065 0.10103 0.0888991
0.477302 0.103853 0.0942397
0.505135 0.107683 0.0999161
0.527718 0.107988 0.102358
0.553674 0.112032 0.107347
0.57734 0.11812 0.110613
0.605295 0.121538 0.117159
0.628183 0.126726 0.124575
0.652461 0.131014 0.130251
0.675837 0.137591 0.136095
0.698543 0.144671 0.139147
0.720485 0.150454 0.143908
0.742794 0.158572 0.147784
0.7635 0.162249 0.151446
0.760449 0.173388 0.159472
0.0247044 0.0851453 0.0404822
0.0187533 0.0958877 0.0484321
0.0358434 0.0958572 0.0484627
0.0528725 0.0958572 0.0484627
0.0719005 0.0971237 0.0497139
0.0907759 0.0988632 0.0514687
0.111986 0.100374 0.0505226
0.134279 0.102647 0.0529793
0.162524 0.103838 0.0548257
0.191821 0.104219 0.0578164
0.21709 0.108736 0.0610513
0.245212 0.11075 0.0646982
0.275059 0.112291 0.0674601
0.306935 0.113588 0.070985
0.337545 0.116426 0.0763561
0.367315 0.118593 0.0819104
0.397391 0.12047 0.08748
0.42504 0.12163 0.0921187
0.453086 0.125856 0.0988632
0.481788 0.128023 0.102205
0.507408 0.132036 0.105776
0.531212 0.136339 0.110689
0.556863 0.138399 0.114672
0.582879 0.143694 0.120226
0.606485 0.148714 0.12314
0.628367 0.152514 0.126253
0.652415 0.156527 0.12932
0.674525 0.161593 0.134386
0.69575 0.165805 0.138582
0.720516 0.173892 0.146502
0.739452 0.179294 0.150256
0.761776 0.184573 0.155016
0.757885 0.201129 0.166217
0.0293278 0.106523 0.0489509
0.0217136 0.117891 0.0543221
0.0387427 0.117906 0.0543069
0.0560769 0.118212 0.054612
0.0728466 0.119219 0.0530861
0.0931716 0.119692 0.0547036
0.113039 0.121416 0.0561532
0.136828 0.124651 0.0604105
0.161761 0.127687 0.0580758
0.188998 0.131029 0.06009
0.221393 0.13463 0.0647898
0.251789 0.137316 0.0693675
0.279988 0.140673 0.0738079
0.307973 0.142214 0.0757305
0.339773 0.14403 0.0805219
0.371313 0.146838 0.0878004
0.400458 0.148852 0.0928359
0.429694 0.150454 0.0972915
0.456474 0.15375 0.102449
0.484169 0.155962 0.106462
0.511009 0.159487 0.108965
0.532692 0.162173 0.110231
0.557794 0.166522 0.114855
0.581628 0.171511 0.119341
0.606027 0.176837 0.124987
0.626947 0.183062 0.131502
0.650858 0.185641 0.135271
0.672587 0.188891 0.13901
0.697902 0.19292 0.143862
0.717983 0.199954 0.148241
0.744152 0.205127 0.155032
0.765087 0.208957 0.158907
0.762356 0.226413 0.169848
0.0285496 0.130526 0.0491798
0.0236515 0.140276 0.0567025
0.0408331 0.140261 0.056733
0.0590982 0.141497 0.057969
0.0766003 0.142306 0.0577554
0.0951858 0.142733 0.0556954
0.116472 0.143877 0.057847
0.137591 0.14667 0.0612802
0.158801 0.153689 0.0601816
0.18584 0.158083 0.0617227
0.216648 0.164172 0.0684977
0.246204 0.169436 0.0758831
0.27805 0.16968 0.0787823
0.31284 0.173632 0.0834669
0.342931 0.175921 0.0878309
0.376028 0.180056 0.0939956
0.403449 0.180407 0.0961624
0.431403 0.183398 0.101411
0.458167 0.186404 0.106493
0.484413 0.188632 0.110185
0.510353 0.18999 0.114504
0.536797 0.19324 0.118898
0.561059 0.195453 0.12163
0.583535 0.2009 0.127474
0.608652 0.204135 0.131106
0.630838 0.209049 0.134295
0.652247 0.212314 0.137728
0.674525 0.216739 0.141512
0.696956 0.222141 0.146929
0.719066 0.227085 0.15227
0.740215 0.229953 0.158923
0.760815 0.233494 0.162478
0.760906 0.252872 0.175479
0.0102541 0.167025 0.0588846
0.0223392 0.168856 0.0606699
0.0394141 0.168811 0.0606699
0.0564431 0.168811 0.0606699
0.0755932 0.170138 0.0623941
0.0961166 0.17052 0.0628214
0.117479 0.172122 0.062623
0.140246 0.173526 0.0649882
0.158328 0.177172 0.0647898
0.185672 0.183032 0.0673533
0.218204 0.19089 0.076051
0.249836 0.197589 0.0833753
0.282048 0.202762 0.0888228
0.315648 0.206439 0.093492
0.345693 0.208759 0.0952163
0.374823 0.2094 0.0986648
0.405875 0.213199 0.104829
0.435859 0.215198 0.109911
0.46305 0.215839 0.11339
0.489036 0.216999 0.117327
0.515938 0.220279 0.122728
0.539864 0.224002 0.12639
0.5626 0.227359 0.128298
0.586114 0.229526 0.131701
0.612161 0.233707 0.137057
0.631403 0.237354 0.140459
0.656062 0.241962 0.145754
0.679362 0.244236 0.149477
0.700298 0.248157 0.153399
0.723232 0.254047 0.159289
0.741314 0.2551 0.160174
0.763104 0.259861 0.162432
0.766262 0.274083 0.172625
0.0326238 0.186954 0.0588846
0.0246586 0.198169 0.0660258
0.0424201 0.19649 0.0643473
0.0612497 0.198108 0.06598
0.0787671 0.197726 0.0660258
0.100221 0.199863 0.0684672
0.1196 0.199939 0.0664988
0.143236 0.203128 0.0702068
0.164034 0.204334 0.0691386
0.190158 0.208362 0.0729381
0.219135 0.216175 0.0817426
0.250797 0.224979 0.0897078
0.281636 0.231525 0.0946975
0.31284 0.236194 0.0981308
0.344442 0.237858 0.102586
0.377386 0.243214 0.111025
0.410025 0.246479 0.116014
0.438819 0.247715 0.117189
0.46453 0.24947 0.120668
0.491402 0.249607 0.124331
0.517861 0.252338 0.129717
0.54049 0.255268 0.13344
0.56405 0.256062 0.134768
0.589853 0.261173 0.139315
0.614084 0.263157 0.143771
0.634928 0.266743 0.147707
0.657267 0.269688 0.149126
0.678996 0.272953 0.153002
0.701762 0.275776 0.157229
0.720684 0.279911 0.163699
0.741299 0.283253 0.168032
0.76437 0.285634 0.171664
0.760403 0.300145 0.181003
0.0351263 0.21503 0.0661326
0.0277104 0.227497 0.0738079
0.0447242 0.226429 0.0709697
0.061799 0.226398 0.0708171
0.0809644 0.22533 0.0708171
0.100847 0.226764 0.0724041
0.12015 0.226963 0.0721447
0.144533 0.230579 0.0766155
0.166491 0.235538 0.0781415
0.190585 0.239796 0.0816815
0.217136 0.242557 0.0844587
0.250523 0.249851 0.0907454
0.279744 0.258442 0.0967575
0.31191 0.266712 0.104219
0.346563 0.273243 0.113054
0.375982 0.276402 0.119387
0.407767 0.279316 0.12105
0.438056 0.280781 0.121508
0.467521 0.28513 0.128557
0.49221 0.285008 0.132753
0.519524 0.286854 0.138521
0.54432 0.287449 0.141817
0.568231 0.289021 0.145373
0.590539 0.2916 0.148592
0.614282 0.291783 0.150774
0.633799 0.295705 0.152209
0.658595 0.298558 0.15613
0.680537 0.301991 0.160021
0.701762 0.303471 0.161456
0.721584 0.308537 0.165545
0.745449 0.31075 0.169146
0.765927 0.311437 0.1738
0.761456 0.324422 0.18323
0.0433814 0.247333 0.0772869
0.0348058 0.25922 0.0814527
0.0512093 0.256382 0.0796826
0.0694285 0.256321 0.0802319
0.0876173 0.257359 0.0792859
0.106096 0.25626 0.0784161
0.128618 0.257923 0.0811322
0.151156 0.261219 0.0841688
0.170886 0.263981 0.0858625
0.197665 0.268742 0.0912184
0.222156 0.271763 0.0929274
0.248356 0.27863 0.0966964
0.28014 0.286305 0.102708
0.313985 0.294057 0.111604
0.345403 0.301183 0.120058
0.377798 0.309285 0.12845
0.411032 0.310369 0.132006
0.443046 0.311559 0.1355
0.468925 0.314916 0.13959
0.494987 0.31809 0.144579
0.521508 0.318944 0.147387
0.545007 0.319326 0.147677
0.568566 0.321218 0.150195
0.590402 0.323613 0.15346
0.614511 0.325231 0.157092
0.63476 0.327626 0.162097
0.657588 0.329534 0.165606
0.682506 0.332601 0.169268
0.702068 0.334691 0.169604
0.72604 0.338506 0.174975
0.74377 0.338949 0.175463
0.764843 0.33904 0.17612
0.762692 0.354955 0.188464
0.0289921 0.288014 0.0883192
0.0383764 0.290944 0.0890364
0.0554665 0.290913 0.0889906
0.0727398 0.288121 0.0872053
0.0936904 0.289967 0.0897383
0.112016 0.290059 0.0899367
0.133196 0.290242 0.0906539
0.153445 0.291188 0.091722
0.174716 0.293523 0.0928969
0.201541 0.297063 0.0971542
0.226337 0.301823 0.100267
0.253483 0.30753 0.103548
0.279332 0.312932 0.107088
0.310109 0.319524 0.114519
0.344244 0.327489 0.122789
0.377722 0.336294 0.13164
0.410117 0.341878 0.138949
0.438972 0.346303 0.144335
0.467567 0.350805 0.149401
0.495186 0.352239 0.151904
0.521538 0.352972 0.155291
0.545068 0.353017 0.157794
0.570489 0.355138 0.160998
0.592905 0.355993 0.1617
0.617182 0.357702 0.164263
0.634806 0.358038 0.165667
0.657511 0.359869 0.169512
0.680156 0.36228 0.174914
0.702647 0.363088 0.177234
0.725322 0.367529 0.182055
0.745556 0.368307 0.186526
0.76759 0.370092 0.18938
0.773175 0.378561 0.196277
0.0517433 0.312352 0.095964
0.0437934 0.323781 0.10132
0.0620737 0.323049 0.0995956
0.0808576 0.321431 0.0995346
0.0980545 0.321263 0.0995346
0.117937 0.321096 0.0996414
0.137667 0.320348 0.0995346
0.158587 0.320211 0.0992752
0.179934 0.325216 0.102571
0.203845 0.328634 0.104433
0.227909 0.3337 0.108354
0.253529 0.338521 0.11133
0.280919 0.344121 0.115633
0.311482 0.349523 0.120943
0.342992 0.353674 0.126864
0.376303 0.361242 0.135103
0.408103 0.368948 0.141665
0.438071 0.376242 0.148882
0.464912 0.379217 0.152407
0.495277 0.382025 0.156298
0.521981 0.382925 0.160464
0.546853 0.384802 0.164385
0.571115 0.385275 0.166278
0.594324 0.386786 0.168566
0.617868 0.386862 0.172091
0.63949 0.388571 0.176654
0.658717 0.388144 0.176715
0.682551 0.390692 0.179049
0.703105 0.392737 0.181827
0.724727 0.395056 0.185382
0.745495 0.394858 0.188128
0.76582 0.397314 0.190661
0.763073 0.409094 0.200961
0.0590982 0.346944 0.103716
0.0509041 0.357458 0.110628
0.0671702 0.355917 0.109117
0.0859236 0.35758 0.11078
0.10547 0.356283 0.11017
0.125124 0.355367 0.110857
0.144701 0.354269 0.109575
0.165652 0.354864 0.110689
0.186145 0.356085 0.112825
0.210376 0.358358 0.114076
0.233585 0.362127 0.117342
0.260563 0.36759 0.12163
0.284627 0.373693 0.125383
0.3122 0.378119 0.128695
0.342367 0.381628 0.133394
0.370764 0.386923 0.139727
0.402243 0.393896 0.147143
0.433356 0.400595 0.153262
0.463233 0.407156 0.160342
0.491966 0.411215 0.165591
0.521294 0.414191 0.171023
0.545922 0.414527 0.172137
0.570535 0.415763 0.175326
0.593851 0.416648 0.176928
0.617899 0.415747 0.179385
0.640681 0.418097 0.183398
0.660563 0.418128 0.184375
0.683223 0.418936 0.187076
0.708019 0.420096 0.190463
0.726085 0.42237 0.19202
0.747555 0.421775 0.193088
0.76704 0.424475 0.196551
0.763684 0.436713 0.205417
0.0661326 0.37702 0.115145
0.0573739 0.388708 0.121477
0.0742046 0.386938 0.1205
0.0930953 0.386984 0.119722
0.11313 0.388342 0.119539
0.12961 0.386786 0.117769
0.150484 0.384756 0.117876
0.169192 0.384482 0.116777
0.191455 0.386206 0.120348
0.215473 0.38645 0.122621
0.23711 0.389349 0.124483
0.260838 0.395346 0.127642
0.288563 0.400595 0.131411
0.31574 0.403891 0.134951
0.342672 0.408789 0.139757
0.37145 0.413214 0.144594
0.401266 0.418845 0.147677
0.431998 0.426261 0.153338
0.461875 0.432883 0.16173
0.490761 0.437842 0.168902
0.520043 0.442176 0.174975
0.545281 0.445106 0.179156
0.569848 0.446616 0.181781
0.592279 0.448508 0.182986
0.617044 0.448478 0.185519
0.640284 0.448203 0.191028
0.661341 0.448829 0.192813
0.684382 0.448524 0.194736
0.704051 0.448402 0.194827
0.72723 0.451011 0.199268
0.74847 0.45095 0.201785
0.770886 0.451987 0.204532
0.768994 0.466239 0.213275
0.0597696 0.415244 0.12668
0.0643015 0.421485 0.128466
0.0830091 0.418982 0.127642
0.10016 0.418814 0.127581
0.118746 0.418036 0.127581
0.137514 0.417914 0.128328
0.1561 0.417029 0.128298
0.176623 0.417227 0.127962
0.196246 0.415686 0.125566
0.220722 0.416892 0.128466
0.243519 0.419425 0.132372
0.268742 0.42414 0.136782
0.294255 0.429404 0.141176
0.319677 0.432197 0.143633
0.344823 0.434485 0.147311
0.373449 0.438499 0.152621
0.401419 0.444236 0.15613
0.427115 0.448249 0.159167
0.457557 0.453773 0.16611
0.491005 0.462028 0.17615
0.519722 0.46833 0.18323
0.542687 0.470558 0.185595
0.568841 0.473182 0.190311
0.591928 0.475914 0.19321
0.617288 0.477028 0.196048
0.640177 0.478386 0.197559
0.663676 0.479469 0.200565
0.684611 0.479957 0.20087
0.706828 0.477806 0.201846
0.730571 0.480369 0.20528
0.751202 0.481147 0.207034
0.773419 0.48043 0.20882
0.7832 0.490181 0.215015
0.0784009 0.440131 0.135378
0.0712444 0.450874 0.141573
0.0917067 0.450889 0.140063
0.109773 0.449989 0.139895
0.127718 0.448234 0.139071
0.14638 0.446494 0.138949
0.16582 0.445533 0.137407
0.183337 0.444068 0.1364
0.202655 0.443229 0.13521
0.226093 0.443595 0.13666
0.249088 0.447547 0.140551
0.272526 0.451133 0.143801
0.294652 0.453574 0.144564
0.321813 0.456413 0.148699
0.349752 0.460822 0.154879
0.376135 0.463828 0.158251
0.402502 0.4701 0.163272
0.428092 0.474434 0.169284
0.454276 0.476967 0.173327
0.484718 0.483238 0.180102
0.513756 0.489906 0.18706
0.540612 0.496132 0.19379
0.56672 0.499092 0.196735
0.591104 0.501396 0.199557
0.616617 0.502403 0.203113
0.638987 0.503929 0.204486
0.661738 0.506325 0.206485
0.685359 0.50724 0.207889
0.707729 0.508675 0.208331
0.732387 0.509728 0.208728
0.753872 0.510719 0.210544
0.776043 0.512367 0.213138
0.774227 0.52578 0.223758
0.0856489 0.469261 0.14609
0.0792554 0.479469 0.15169
0.0962844 0.477531 0.148836
0.115801 0.478477 0.150439
0.133043 0.476783 0.148806
0.153292 0.476753 0.14963
0.173663 0.475807 0.150286
0.192584 0.474235 0.148089
0.211185 0.47071 0.14464
0.233402 0.470939 0.14609
0.253407 0.475517 0.149187
0.278477 0.478752 0.153155
0.300832 0.481834 0.155062
0.325689 0.484916 0.158175
0.351507 0.486107 0.160235
0.37821 0.4907 0.16524
0.404425 0.495079 0.169558
0.430259 0.49868 0.172686
0.456992 0.503395 0.178088
0.483955 0.508309 0.182956
0.510552 0.513252 0.187747
0.536461 0.517922 0.192142
0.565164 0.523354 0.198947
0.589441 0.528878 0.204471
0.614481 0.530938 0.207401
0.639673 0.533715 0.210498
0.666514 0.538857 0.21471
0.689601 0.538918 0.2159
0.712657 0.539208 0.217563
0.735119 0.54107 0.218387
0.757916 0.540917 0.218585
0.778607 0.542611 0.221256
0.775174 0.551568 0.228397
0.0913863 0.499184 0.154894
0.0879988 0.508095 0.1617
0.106081 0.509087 0.162692
0.125292 0.50869 0.161944
0.141527 0.507637 0.160845
0.157809 0.505974 0.157412
0.178759 0.505974 0.158526
0.19968 0.506218 0.159915
0.215915 0.501152 0.155352
0.237919 0.501137 0.15668
0.2589 0.50454 0.158633
0.279393 0.507042 0.160952
0.303517 0.5084 0.162737
0.330877 0.510903 0.165759
0.355032 0.513115 0.169116
0.380911 0.515129 0.173358
0.405432 0.517586 0.175418
0.430655 0.521767 0.179049
0.456809 0.525979 0.185016
0.484871 0.531685 0.19118
0.511543 0.535592 0.19527
0.534142 0.538323 0.197971
0.562524 0.54464 0.205356
0.590433 0.552132 0.212222
0.616846 0.557183 0.214405
0.640574 0.560464 0.213687
0.665064 0.564202 0.21854
0.690745 0.567712 0.221363
0.713863 0.567803 0.223667
0.734813 0.569192 0.223758
0.757549 0.571206 0.225589
0.782818 0.572747 0.228809
0.778744 0.582712 0.239094
0.0932326 0.531548 0.16817
0.0957504 0.537118 0.171511
0.116136 0.537118 0.171511
0.133394 0.537118 0.171511
0.149691 0.5364 0.170794
0.16791 0.534569 0.170474
0.186481 0.533181 0.169192
0.20557 0.532952 0.168917
0.222721 0.530938 0.165499
0.244129 0.53048 0.165042
0.26392 0.531304 0.166583
0.285634 0.531914 0.168887
0.307332 0.533303 0.171679
0.333165 0.536446 0.175753
0.359213 0.538369 0.179614
0.383291 0.541497 0.183978
0.407767 0.543587 0.186343
0.434272 0.547677 0.190051
0.459342 0.550759 0.192889
0.485512 0.554696 0.196551
0.510353 0.557839 0.20116
0.534081 0.562051 0.205982
0.560952 0.566323 0.211215
0.589288 0.575372 0.218524
0.618235 0.581674 0.222431
0.643519 0.587472 0.22417
0.666972 0.589975 0.226078
0.692821 0.593256 0.228962
0.716579 0.595911 0.231296
0.739193 0.596277 0.230671
0.764126 0.600549 0.23508
0.786374 0.599573 0.236179
0.800153 0.604257 0.240436
0.108904 0.556939 0.174365
0.105104 0.565881 0.183276
0.123247 0.564767 0.183276
0.141863 0.56408 0.181552
0.160189 0.56202 0.180423
0.178363 0.560754 0.18027
0.198199 0.560281 0.178592
0.215564 0.558999 0.177447
0.233982 0.559182 0.177783
0.255268 0.558053 0.17789
0.271855 0.556771 0.176699
0.291646 0.555764 0.176699
0.313207 0.558816 0.17998
0.339055 0.563851 0.184787
0.362661 0.566201 0.187793
0.385824 0.566537 0.190143
0.411399 0.567697 0.193957
0.43827 0.570901 0.198627
0.46392 0.575723 0.202716
0.488472 0.578103 0.204852
0.509483 0.580514 0.205554
0.533242 0.587671 0.210407
0.560204 0.591775 0.214923
0.585153 0.596414 0.220859
0.614832 0.603449 0.227497
0.644251 0.611032 0.232883
0.671748 0.617609 0.238437
0.6963 0.619577 0.239673
0.721279 0.622736 0.24126
0.744106 0.623011 0.241047
0.766537 0.624704 0.242756
0.790372 0.624186 0.243397
0.790677 0.635447 0.254047
0.115312 0.582788 0.18613
0.113909 0.590524 0.193835
0.131487 0.58996 0.19382
0.150225 0.591592 0.195483
0.167956 0.589075 0.194049
0.186007 0.58822 0.19382
0.205127 0.588586 0.192279
0.223545 0.587732 0.191928
0.240818 0.586603 0.190646
0.260945 0.586847 0.18996
0.276417 0.586816 0.18706
0.297414 0.584817 0.186679
0.31957 0.584451 0.188357
0.343008 0.587182 0.191409
0.367315 0.58938 0.194156
0.390219 0.592935 0.198306
0.413733 0.594095 0.201907
0.440436 0.596475 0.207248
0.464912 0.599069 0.211322
0.487312 0.600061 0.213291
0.512123 0.602625 0.216663
0.536507 0.607507 0.22153
0.564202 0.612726 0.227054
0.588464 0.615808 0.231464
0.614252 0.620203 0.232792
0.643076 0.630182 0.238102
0.672663 0.640436 0.245899
0.697246 0.643549 0.250278
0.720134 0.646189 0.251575
0.744198 0.650629 0.253697
0.769375 0.654154 0.255558
0.792645 0.654704 0.255497
0.792355 0.664866 0.265751
0.123613 0.609903 0.197787
0.123217 0.61883 0.205417
0.140246 0.618753 0.205341
0.15903 0.618616 0.205005
0.175082 0.617441 0.203815
0.193515 0.614755 0.202625
0.212879 0.614069 0.202625
0.230228 0.613474 0.200122
0.248692 0.61384 0.197253
0.269612 0.611353 0.196078
0.286915 0.611002 0.195712
0.304387 0.612253 0.195712
0.325994 0.612055 0.196506
0.348348 0.61239 0.198764
0.369192 0.614481 0.201572
0.394858 0.61883 0.207141
0.419165 0.621759 0.211658
0.44329 0.62385 0.215717
0.465202 0.623392 0.216617
0.488869 0.626444 0.220127
0.515709 0.630884 0.22649
0.540322 0.635386 0.230411
0.564385 0.637736 0.231922
0.586938 0.641382 0.235386
0.611643 0.643595 0.236454
0.638956 0.650721 0.241779
0.66952 0.660029 0.251804
0.695583 0.666651 0.255665
0.71902 0.669673 0.259052
0.744457 0.674693 0.262257
0.771862 0.678218 0.267521
0.793423 0.680461 0.267887
0.797864 0.689418 0.275013
0.128923 0.638483 0.211887
0.133471 0.644739 0.218143
0.150896 0.643473 0.216876
0.168399 0.643824 0.217243
0.184604 0.643381 0.21445
0.200824 0.642252 0.212985
0.219806 0.640879 0.212696
0.239063 0.640269 0.21268
0.25803 0.640604 0.213107
0.279011 0.639673 0.213596
0.294728 0.638987 0.212802
0.314702 0.637324 0.213077
0.33373 0.637079 0.211551
0.356344 0.638132 0.212421
0.37847 0.639796 0.214984
0.40032 0.642725 0.216739
0.421714 0.645396 0.218585
0.44477 0.648051 0.221668
0.468208 0.648493 0.222782
0.494194 0.652399 0.227436
0.51989 0.656596 0.233188
0.542672 0.659754 0.236896
0.568063 0.661952 0.239857
0.593301 0.666316 0.243793
0.621088 0.672709 0.251255
0.64097 0.676936 0.254322
0.666499 0.681437 0.25716
0.693339 0.687968 0.263905
0.722545 0.694133 0.268757
0.746242 0.700084 0.271107
0.773983 0.703716 0.277546
0.796963 0.706722 0.28014
0.810864 0.709407 0.282811
0.141344 0.662486 0.223209
0.140902 0.669245 0.228183
0.157946 0.66923 0.227436
0.17499 0.66923 0.22739
0.191669 0.667659 0.224613
0.208988 0.667109 0.224216
0.228611 0.666178 0.224475
0.246509 0.66566 0.224216
0.264302 0.66566 0.224216
0.284199 0.664271 0.224216
0.302602 0.663828 0.222293
0.322271 0.661921 0.220905
0.341421 0.661463 0.221164
0.363577 0.664286 0.224079
0.38436 0.66627 0.226215
0.405844 0.666789 0.226856
0.432502 0.671016 0.230961
0.455772 0.673533 0.232807
0.476967 0.67335 0.231952
0.500587 0.677165 0.235645
0.523827 0.681788 0.239826
0.545937 0.686595 0.244312
0.570687 0.688533 0.247211
0.594568 0.692699 0.25008
0.620233 0.696727 0.256168
0.642161 0.700252 0.26099
0.666621 0.703777 0.263981
0.692912 0.707591 0.269078
0.720333 0.714229 0.276234
0.747433 0.721141 0.280858
0.773083 0.72604 0.287236
0.79617 0.7299 0.288899
0.803113 0.739208 0.299931
0.145205 0.686809 0.232959
0.147951 0.69395 0.238651
0.16527 0.693614 0.238315
0.182681 0.69395 0.238041
0.199084 0.693324 0.237354
0.216693 0.691447 0.234257
0.236072 0.69044 0.233295
0.2551 0.691783 0.234699
0.272694 0.691829 0.234745
0.29279 0.692164 0.236362
0.308141 0.691493 0.233967
0.329122 0.691615 0.234745
0.349569 0.689708 0.234409
0.373938 0.691432 0.236255
0.392737 0.690272 0.234257
0.412833 0.692851 0.236713
0.432471 0.694118 0.235416
0.45568 0.699901 0.237354
0.480903 0.703471 0.242374
0.506783 0.706111 0.245594
0.530968 0.70898 0.248539
0.554101 0.713191 0.253147
0.580896 0.715129 0.257954
