creative/lut-french-oil-painting.cube
TITLE "Generated by Resolve"
LUT_3D_SIZE 33
0.00474556 0.00474556 0.0142214
0.0255283 0.00595102 0.0178531
0.0463264 0.00730907 0.0215915
0.065919 0.0109407 0.0264286
0.0863355 0.0146639 0.0311437
0.115373 0.01944 0.0347143
0.145083 0.0242466 0.0386053
0.179049 0.0290684 0.0446174
0.213199 0.0340124 0.0499275
0.249577 0.0400244 0.051133
0.287373 0.0468605 0.0517281
0.33193 0.0576028 0.0493324
0.378576 0.0693523 0.0466926
0.433005 0.0849928 0.0430915
0.486336 0.0997482 0.042359
0.537148 0.111772 0.0519875
0.586786 0.122026 0.0613107
0.632532 0.126802 0.0696727
0.674647 0.132586 0.0784161
0.706203 0.141009 0.0880446
0.738323 0.14902 0.095491
0.772305 0.156237 0.0978866
0.803555 0.162676 0.101076
0.828992 0.167452 0.105852
0.854124 0.172274 0.110246
0.878386 0.17705 0.113832
0.899611 0.181415 0.117433
0.915541 0.185031 0.12105
0.930495 0.188128 0.124163
0.943999 0.190539 0.126558
0.957015 0.192432 0.127947
0.969329 0.193637 0.127947
0.981643 0.194293 0.127947
0.00509651 0.0298772 0.0201724
0.0241703 0.0298009 0.0225986
0.0436713 0.0302281 0.0249943
0.0661173 0.0343328 0.0268864
0.0891737 0.0383001 0.02916
0.117617 0.0418555 0.0338903
0.146609 0.0455177 0.0385443
0.178759 0.0502174 0.0428626
0.211978 0.0551766 0.0465553
0.249271 0.0614481 0.0467842
0.287968 0.0684825 0.0468299
0.333272 0.0785534 0.0460822
0.379889 0.0892653 0.0449073
0.432853 0.102785 0.042298
0.485084 0.115679 0.0424964
0.535988 0.12668 0.0521248
0.585351 0.135943 0.0614786
0.631434 0.140291 0.0703136
0.673915 0.145724 0.0789349
0.707698 0.154101 0.0874495
0.741115 0.161898 0.0943923
0.774121 0.168399 0.0974899
0.804898 0.174456 0.101015
0.830488 0.179278 0.105531
0.855528 0.184237 0.109972
0.879484 0.189303 0.114031
0.900526 0.193744 0.117739
0.916701 0.19736 0.121157
0.93164 0.200473 0.124193
0.944976 0.202869 0.126589
0.957488 0.204761 0.127947
0.969329 0.205951 0.127947
0.981643 0.206607 0.127947
0.00529488 0.0549783 0.0260624
0.0225071 0.0537118 0.0272679
0.0411994 0.0534524 0.0281071
0.0665293 0.0581064 0.027039
0.0921645 0.0623178 0.0272526
0.11989 0.0645914 0.0331273
0.148074 0.0673838 0.0383612
0.178454 0.0720073 0.0409247
0.210452 0.0770886 0.0428321
0.248905 0.0840314 0.0418555
0.288853 0.0914015 0.0413519
0.334493 0.100801 0.0423743
0.381582 0.110674 0.0427863
0.432486 0.121736 0.0413825
0.483345 0.13254 0.042649
0.534249 0.142351 0.0522774
0.583535 0.1505 0.0617838
0.629618 0.154238 0.0711986
0.672953 0.159335 0.0797131
0.710109 0.167651 0.0863813
0.745571 0.175051 0.0924544
0.777401 0.180377 0.0967269
0.807538 0.185641 0.100847
0.833814 0.190509 0.104814
0.8589 0.195636 0.10927
0.882292 0.201297 0.114519
0.903578 0.206088 0.118715
0.921523 0.209705 0.121538
0.93814 0.212787 0.124193
0.953109 0.215198 0.126604
0.966079 0.217075 0.127947
0.976761 0.218265 0.127947
0.988128 0.218921 0.127947
0.00535592 0.0790112 0.0296788
0.0213931 0.0782788 0.0308843
0.0391241 0.0785382 0.0313878
0.0622721 0.082063 0.0296178
0.0869001 0.08542 0.0293584
0.116716 0.0882277 0.0341344
0.147158 0.0914473 0.0383154
0.179385 0.0960098 0.0401465
0.21268 0.100847 0.0416876
0.250202 0.106798 0.0420539
0.289647 0.113573 0.0425727
0.335393 0.122896 0.0437171
0.382803 0.132525 0.0442664
0.435172 0.143053 0.0430152
0.486595 0.15314 0.0442359
0.535973 0.162036 0.052491
0.58381 0.169192 0.061265
0.628336 0.172122 0.0712596
0.671489 0.176486 0.0800488
0.710521 0.183825 0.0860151
0.747051 0.190249 0.0914931
0.778653 0.194583 0.0960098
0.80856 0.198993 0.10042
0.835599 0.203647 0.104555
0.861067 0.208453 0.109209
0.884215 0.213748 0.114977
0.905852 0.218433 0.119417
0.925383 0.222034 0.121828
0.94374 0.225116 0.124208
0.960555 0.227527 0.126619
0.974456 0.229389 0.127947
0.984421 0.230594 0.127947
0.995193 0.231235 0.127947
0.0053254 0.103182 0.0332952
0.0201267 0.103151 0.0345159
0.0367285 0.103746 0.0346532
0.0575113 0.106096 0.0322881
0.0812695 0.10869 0.031632
0.113283 0.112062 0.0352026
0.145998 0.115755 0.0382239
0.180606 0.120409 0.0394598
0.215564 0.124987 0.0409552
0.251682 0.129702 0.0431067
0.290425 0.135653 0.0449989
0.336172 0.145068 0.0461433
0.38407 0.154711 0.0466621
0.43888 0.165225 0.0454261
0.491814 0.175265 0.0463417
0.539071 0.183536 0.0526894
0.58497 0.189975 0.0603799
0.627634 0.192355 0.070985
0.669413 0.195895 0.0800946
0.709026 0.202121 0.0860609
0.746075 0.207492 0.0913405
0.777523 0.21117 0.0951705
0.807736 0.215244 0.0996719
0.835309 0.219883 0.105074
0.861234 0.223987 0.110338
0.884291 0.227298 0.115419
0.905913 0.230777 0.119432
0.925444 0.234379 0.121843
0.943771 0.237461 0.124239
0.960601 0.239857 0.126635
0.974426 0.241718 0.127947
0.984649 0.242908 0.127947
0.99585 0.243549 0.127947
0.00531014 0.129427 0.0343175
0.0194858 0.12874 0.0343786
0.0361639 0.128756 0.0343786
0.0566415 0.129992 0.034226
0.0799115 0.131868 0.0347295
0.109377 0.135286 0.0365911
0.140719 0.139376 0.0385901
0.176486 0.145052 0.0408179
0.21387 0.150515 0.0432288
0.254597 0.155673 0.0460975
0.296162 0.161624 0.0487373
0.340078 0.169986 0.0509194
0.387213 0.178683 0.0520333
0.441154 0.188098 0.0507057
0.493095 0.197299 0.0511635
0.539574 0.205509 0.0556344
0.585138 0.211887 0.0619516
0.628641 0.214496 0.0722057
0.670405 0.217975 0.081178
0.709102 0.223331 0.0875868
0.745266 0.227741 0.0930343
0.777096 0.230732 0.0969406
0.807401 0.234012 0.101305
0.834897 0.237858 0.106493
0.860548 0.241169 0.111009
0.88336 0.243671 0.114565
0.905257 0.246357 0.118044
0.925566 0.249409 0.121065
0.944015 0.251911 0.123903
0.96022 0.253666 0.126543
0.973922 0.255039 0.128115
0.984482 0.255924 0.128405
0.99585 0.256336 0.128435
0.0052491 0.15555 0.0350195
0.0188144 0.154253 0.0338598
0.0357519 0.153658 0.0343023
0.0561074 0.153643 0.0364385
0.0787671 0.155093 0.037705
0.105104 0.158465 0.0378271
0.135317 0.163088 0.0391241
0.172061 0.169894 0.0425116
0.211963 0.176364 0.0459297
0.257786 0.181964 0.0493477
0.302541 0.188159 0.052781
0.34464 0.195209 0.0561074
0.390188 0.202777 0.0579843
0.443275 0.211154 0.0566873
0.49369 0.219425 0.0566873
0.539559 0.227634 0.0593423
0.585275 0.234104 0.0643931
0.63061 0.237385 0.074052
0.672786 0.241108 0.0827649
0.709438 0.245808 0.0897231
0.744579 0.249653 0.0957656
0.77702 0.252018 0.100282
0.807279 0.25449 0.104555
0.834257 0.257176 0.108553
0.859205 0.260029 0.111284
0.881376 0.263157 0.112322
0.9037 0.265995 0.11487
0.925902 0.268467 0.119142
0.944533 0.270008 0.122942
0.958984 0.270497 0.126253
0.972183 0.270909 0.12874
0.983886 0.271168 0.130327
0.99585 0.271275 0.13106
0.00366217 0.178775 0.0360266
0.0160525 0.178134 0.0348058
0.0328985 0.177768 0.0353246
0.0526589 0.177768 0.0370794
0.0758679 0.179355 0.0384375
0.102907 0.182681 0.0394751
0.133501 0.187137 0.0410773
0.169268 0.192981 0.0435035
0.209812 0.2 0.0465553
0.25835 0.208835 0.0505989
0.305486 0.216617 0.0548104
0.350484 0.222568 0.0593881
0.397986 0.22916 0.062562
0.451331 0.2374 0.0633402
0.50103 0.245304 0.0644083
0.544961 0.252888 0.0661784
0.589014 0.259174 0.0698863
0.632837 0.26302 0.0770123
0.673961 0.266773 0.084184
0.710597 0.270344 0.0913252
0.745617 0.273518 0.0970169
0.77821 0.276143 0.100526
0.808164 0.278477 0.104112
0.834394 0.280552 0.107759
0.859098 0.282734 0.110369
0.881666 0.285298 0.111482
0.903944 0.287709 0.114015
0.926055 0.289769 0.118471
0.94432 0.290715 0.122362
0.958144 0.290379 0.125673
0.971222 0.289921 0.12845
0.983536 0.289342 0.130632
0.99585 0.288853 0.131792
0.00175479 0.201984 0.0370642
0.0129244 0.201938 0.0358434
0.029984 0.201831 0.0363317
0.0488899 0.201831 0.0374609
0.0731365 0.203738 0.0391852
0.101167 0.207126 0.0413519
0.132082 0.211032 0.0430304
0.166522 0.215686 0.0442969
0.207813 0.223636 0.0469978
0.258671 0.236072 0.0516213
0.308461 0.245319 0.0567025
0.356451 0.250004 0.0623636
0.406973 0.256123 0.0671092
0.460548 0.264195 0.070222
0.509682 0.271946 0.0725872
0.551812 0.27895 0.0737621
0.59382 0.284977 0.0760815
0.635004 0.289387 0.0801709
0.674769 0.293019 0.0855573
0.712016 0.295476 0.0926986
0.747143 0.298253 0.0975204
0.779721 0.301381 0.0992142
0.809339 0.304158 0.101747
0.834958 0.306249 0.105394
0.859892 0.307988 0.108782
0.88368 0.309331 0.111742
0.90576 0.31107 0.115053
0.925933 0.313207 0.118853
0.943404 0.314107 0.122118
0.957855 0.313863 0.124788
0.971222 0.313069 0.126925
0.983536 0.311879 0.128481
0.99585 0.311162 0.12929
0.00144961 0.22829 0.0385138
0.0125429 0.228168 0.0378576
0.028275 0.228626 0.0387121
0.0446021 0.229007 0.039765
0.0682231 0.231479 0.0409247
0.0951247 0.234684 0.0421302
0.126345 0.239017 0.043595
0.160861 0.243961 0.045243
0.201465 0.25095 0.0486305
0.247944 0.259983 0.0537575
0.299031 0.269856 0.0599069
0.35552 0.280583 0.067277
0.410422 0.289006 0.0727398
0.463691 0.294621 0.0757458
0.512093 0.300694 0.0781415
0.553796 0.307622 0.0797589
0.595651 0.313512 0.0817578
0.636866 0.317998 0.0842756
0.675547 0.321248 0.0879683
0.711086 0.323049 0.0932631
0.745632 0.325521 0.0971695
0.779171 0.32929 0.0992447
0.809262 0.332326 0.101976
0.835142 0.334325 0.105531
0.859876 0.335698 0.108721
0.88336 0.336126 0.111498
0.90515 0.337148 0.114702
0.925017 0.338933 0.118303
0.942535 0.339498 0.121157
0.95761 0.339162 0.123262
0.971222 0.338384 0.124926
0.983536 0.337163 0.126177
0.99585 0.336263 0.126802
0.0012665 0.254704 0.0401465
0.0123598 0.254597 0.0400854
0.0260319 0.255711 0.0412451
0.0396124 0.256703 0.0422827
0.063035 0.259434 0.0425116
0.0885481 0.262715 0.0426184
0.120287 0.267399 0.0440986
0.155123 0.272984 0.0462959
0.193942 0.278157 0.0504616
0.235798 0.283162 0.0561685
0.289326 0.294606 0.0635691
0.354208 0.312245 0.0726482
0.413245 0.322698 0.0785229
0.465599 0.325307 0.0809186
0.513008 0.329824 0.0832074
0.55494 0.336797 0.0854353
0.596826 0.342687 0.0872511
0.638636 0.347173 0.0885786
0.676356 0.350072 0.0906081
0.709499 0.351141 0.0935073
0.743252 0.353872 0.0965896
0.777829 0.358221 0.099855
0.808652 0.361532 0.103273
0.835142 0.363531 0.106828
0.859541 0.364584 0.109392
0.881804 0.364523 0.110964
0.903212 0.364965 0.113573
0.923705 0.366018 0.117189
0.941695 0.366476 0.119661
0.957366 0.36614 0.121141
0.971222 0.365667 0.122499
0.983536 0.365057 0.123751
0.99585 0.364584 0.124346
0.00157168 0.286641 0.0429389
0.0123903 0.287694 0.0425269
0.0253605 0.288182 0.0431678
0.0382239 0.288746 0.0437171
0.0586862 0.290898 0.0446632
0.0795758 0.293004 0.0456092
0.112383 0.297032 0.0475319
0.149172 0.301488 0.0497444
0.189334 0.307591 0.0541848
0.231357 0.314717 0.0599222
0.282612 0.325521 0.0661631
0.341558 0.339483 0.0729534
0.400397 0.350439 0.0792554
0.459312 0.358694 0.0851148
0.511437 0.365667 0.0896468
0.557092 0.371374 0.0928664
0.600458 0.37615 0.0945754
0.641184 0.379721 0.0947433
0.678645 0.382376 0.0959335
0.712459 0.384161 0.0982071
0.745769 0.387427 0.100221
0.778302 0.391806 0.1019
0.807752 0.394369 0.104128
0.833875 0.395102 0.106813
0.858335 0.39556 0.10898
0.881056 0.395666 0.110613
0.902617 0.395804 0.112596
0.923293 0.396292 0.115023
0.941405 0.396826 0.117067
0.957305 0.397635 0.118685
0.971222 0.397208 0.119905
0.983536 0.396002 0.120821
0.99585 0.395239 0.121263
0.00167849 0.319448 0.0456245
0.0123293 0.321111 0.0448157
0.0246891 0.321157 0.0448768
0.0375982 0.321218 0.0451972
0.0534218 0.322332 0.0471351
0.0693828 0.323507 0.049134
0.104952 0.326482 0.0512703
0.14345 0.3299 0.0534829
0.185199 0.33785 0.0581521
0.228153 0.347616 0.0638132
0.275776 0.356619 0.0683146
0.326192 0.365408 0.0721599
0.386084 0.377997 0.0796216
0.452216 0.393164 0.0895094
0.509712 0.402502 0.096376
0.560067 0.407019 0.100771
0.604501 0.410483 0.102251
0.644053 0.412879 0.101228
0.68162 0.415534 0.101946
0.717235 0.418677 0.104265
0.749569 0.4224 0.104936
0.779141 0.426963 0.10428
0.806668 0.428428 0.104753
0.832197 0.427375 0.106249
0.85684 0.427298 0.108141
0.880766 0.428016 0.110369
0.902876 0.42826 0.111681
0.923491 0.428153 0.112276
0.941497 0.429603 0.113802
0.957382 0.432059 0.116045
0.971222 0.431662 0.117159
0.983536 0.429419 0.117449
0.99585 0.428168 0.117632
0.00128176 0.354818 0.0496681
0.0125734 0.355886 0.049546
0.025391 0.356405 0.0500496
0.0383917 0.357015 0.0507057
0.0518959 0.357824 0.0517586
0.0654917 0.358862 0.0529183
0.0988632 0.360967 0.0555123
0.13257 0.363272 0.0581826
0.17734 0.370581 0.0624247
0.224598 0.379263 0.0670787
0.27303 0.388022 0.0715496
0.322103 0.396902 0.0759594
0.380179 0.40885 0.0829633
0.443427 0.422568 0.0914626
0.502129 0.433677 0.0997177
0.55819 0.443107 0.107805
0.605554 0.448188 0.111223
0.647517 0.450355 0.111406
0.685832 0.452918 0.111955
0.721599 0.455573 0.112749
0.752285 0.458869 0.111131
0.778881 0.462333 0.107576
0.804807 0.46392 0.105959
0.830289 0.463691 0.105806
0.854994 0.463279 0.10663
0.879194 0.462806 0.108186
0.901198 0.462425 0.108659
0.921492 0.462074 0.108309
0.939681 0.46334 0.109606
0.95639 0.465812 0.112078
0.970474 0.466102 0.1131
0.982818 0.464668 0.113222
0.995148 0.463905 0.113298
0.00077821 0.390036 0.0540322
0.0131075 0.391073 0.0547799
0.0264439 0.392096 0.0558022
0.0387884 0.393011 0.0562753
0.0503243 0.393988 0.0563821
0.063859 0.394842 0.0568399
0.0917067 0.396033 0.059968
0.119921 0.39707 0.0631113
0.16968 0.403479 0.0665599
0.221714 0.410269 0.0700389
0.270954 0.419669 0.0751354
0.320027 0.429679 0.0806897
0.375372 0.440116 0.0865949
0.433585 0.450843 0.0927138
0.494209 0.464622 0.102892
0.555749 0.479805 0.114992
0.606424 0.486686 0.120638
0.651102 0.488823 0.122576
0.690318 0.491051 0.122759
0.726268 0.493141 0.121782
0.754604 0.495506 0.11751
0.778241 0.497948 0.111025
0.802945 0.499809 0.107256
0.828305 0.501564 0.105318
0.852979 0.500771 0.104768
0.877272 0.498497 0.105135
0.89868 0.497414 0.104692
0.918334 0.497063 0.103761
0.93695 0.497856 0.104875
0.954833 0.499092 0.107317
0.969284 0.500175 0.108324
0.981613 0.501335 0.1084
0.993942 0.501488 0.108476
0.000289921 0.423972 0.0617838
0.0129244 0.424659 0.062501
0.025803 0.425223 0.0630655
0.0378729 0.426184 0.0631418
0.0496529 0.427573 0.0631418
0.0639811 0.429007 0.0637369
0.0854505 0.43035 0.0659037
0.108019 0.431998 0.0682078
0.163546 0.43743 0.0714427
0.219699 0.443122 0.0747845
0.269642 0.452171 0.0809644
0.318898 0.461784 0.0875715
0.371359 0.471534 0.0930953
0.425422 0.481315 0.0983444
0.482933 0.493919 0.10724
0.542123 0.507698 0.117617
0.594598 0.517159 0.124102
0.643961 0.524575 0.128786
0.686366 0.529763 0.130831
0.725048 0.533776 0.131456
0.755047 0.536034 0.127291
0.780316 0.537713 0.120546
0.80502 0.539117 0.115679
0.829343 0.540154 0.111833
0.85304 0.539284 0.1093
0.876341 0.536919 0.107469
0.897795 0.53579 0.106294
0.918044 0.535363 0.105455
0.936736 0.535119 0.105623
0.954604 0.534707 0.106355
0.968856 0.535378 0.106371
0.98117 0.536629 0.106004
0.993484 0.536858 0.105882
1.5259e-05 0.457527 0.0701152
0.0123903 0.457588 0.0701915
0.0247654 0.457649 0.0702525
0.0370184 0.45922 0.0701915
0.0492866 0.461006 0.0701915
0.0627604 0.462928 0.0706798
0.0778973 0.464912 0.0718395
0.0996567 0.467155 0.0733043
0.15903 0.471626 0.0765393
0.219272 0.47602 0.0798199
0.268452 0.484871 0.0873274
0.317968 0.493843 0.0950179
0.367727 0.502968 0.100084
0.417182 0.512016 0.104677
0.470848 0.522591 0.111528
0.525628 0.533379 0.118944
0.580087 0.54641 0.126482
0.635035 0.560357 0.134142
0.680629 0.568826 0.138445
0.72285 0.575189 0.141436
0.755322 0.577646 0.138048
0.783429 0.578729 0.131945
0.808164 0.57911 0.126223
0.831388 0.578988 0.120577
0.853864 0.577981 0.115938
0.875975 0.576211 0.111742
0.897658 0.575555 0.110262
0.919097 0.575143 0.110018
0.937697 0.573693 0.108812
0.954971 0.571481 0.107149
0.968856 0.570794 0.105959
0.98117 0.570855 0.104982
0.993484 0.570657 0.104692
0 0.49099 0.0762646
0.012314 0.49099 0.0762646
0.0246128 0.491249 0.0762646
0.0369268 0.492195 0.0762646
0.0492409 0.493233 0.0762646
0.0622416 0.494972 0.0770886
0.0757 0.497414 0.0785382
0.101137 0.500252 0.0806744
0.159304 0.504555 0.0848096
0.217319 0.509087 0.089128
0.269017 0.516457 0.0954604
0.320668 0.523857 0.101823
0.368383 0.532815 0.106889
0.41619 0.541802 0.111879
0.466621 0.551019 0.116823
0.517769 0.560357 0.121813
0.569055 0.572793 0.128573
0.620523 0.58587 0.135714
0.668315 0.596429 0.141527
0.715068 0.606195 0.146914
0.751003 0.611063 0.145937
0.783001 0.614374 0.142718
0.808392 0.615473 0.138476
0.831296 0.615732 0.133837
0.853452 0.614969 0.128908
0.875257 0.614023 0.124041
0.896391 0.613123 0.121538
0.917357 0.612512 0.120165
0.936538 0.61062 0.117327
0.954818 0.608469 0.114061
0.968856 0.606943 0.112154
0.98117 0.605798 0.110826
0.993484 0.605219 0.110323
0 0.52462 0.0821851
0.012314 0.524453 0.0821393
0.0246128 0.524514 0.0821393
0.0369268 0.52462 0.0821393
0.0492409 0.524742 0.0821393
0.0616617 0.527031 0.0836347
0.0741131 0.529809 0.0855116
0.104067 0.533272 0.0887465
0.160281 0.537362 0.093843
0.216144 0.541894 0.0989395
0.269932 0.547509 0.103532
0.323735 0.553429 0.108248
0.370123 0.562325 0.113756
0.416495 0.571359 0.11931
0.463813 0.579522 0.122133
0.511223 0.58764 0.124804
0.558145 0.598062 0.130373
0.60502 0.60882 0.13637
0.655192 0.62153 0.143725
0.706294 0.634684 0.151369
0.745693 0.642451 0.153292
0.781613 0.64863 0.153613
0.80763 0.650752 0.151492
0.83061 0.651621 0.148592
0.852628 0.651576 0.144244
0.874434 0.651041 0.139269
0.894652 0.65005 0.135683
0.914443 0.648646 0.132418
0.934462 0.647196 0.128283
0.954543 0.645457 0.123751
0.968856 0.643244 0.121599
0.98117 0.641077 0.120333
0.993484 0.640223 0.119875
0.000549325 0.553979 0.0890974
0.0123903 0.553979 0.0890974
0.0246128 0.554162 0.0893416
0.0369268 0.554513 0.0896925
0.0492561 0.554925 0.0900893
0.0619669 0.557702 0.0919509
0.0746929 0.56051 0.093843
0.110475 0.563409 0.0973526
0.165225 0.566247 0.102144
0.220676 0.570077 0.107088
0.275517 0.57641 0.112337
0.330159 0.582895 0.11754
0.37673 0.590387 0.122164
0.423743 0.597925 0.126757
0.467369 0.606256 0.128511
0.51104 0.614694 0.130327
0.557397 0.624796 0.136202
0.604196 0.635096 0.142397
0.65066 0.645701 0.147829
0.69688 0.656306 0.153155
0.736461 0.665766 0.156527
0.774914 0.675029 0.159518
0.803143 0.679042 0.159564
0.829206 0.68188 0.158953
0.852857 0.682719 0.155718
0.875868 0.682872 0.15172
0.896086 0.682246 0.147997
0.91548 0.681346 0.14435
0.934768 0.680613 0.140368
0.954116 0.680095 0.136355
0.968368 0.678157 0.134646
0.981079 0.67602 0.133745
0.993484 0.675212 0.133318
0.000854505 0.582757 0.0961471
0.012314 0.582834 0.0962234
0.0246128 0.583642 0.0970321
0.0369268 0.584375 0.0977798
0.0494545 0.585489 0.0987259
0.0626078 0.588205 0.100542
0.0758068 0.591089 0.102464
0.117296 0.592676 0.105913
0.17116 0.593957 0.11014
0.226062 0.597757 0.115221
0.282506 0.605035 0.121477
0.337102 0.612116 0.127184
0.384741 0.617823 0.130632
0.431891 0.624002 0.133959
0.472099 0.632914 0.135149
0.512184 0.641749 0.13637
0.559853 0.651957 0.143099
0.607523 0.662287 0.149874
0.647181 0.669001 0.151965
0.686458 0.675563 0.153826
0.726436 0.687129 0.158785
0.76643 0.699229 0.16408
0.797848 0.705364 0.166293
0.828016 0.710552 0.168032
0.853666 0.712123 0.166003
0.878447 0.712886 0.16318
0.898726 0.712779 0.159716
0.918135 0.712474 0.156069
0.935973 0.712978 0.153124
0.953552 0.713497 0.150195
0.967666 0.712367 0.149432
0.980987 0.710658 0.149004
0.993484 0.710048 0.14873
0.000335698 0.610513 0.103197
0.012314 0.61088 0.103578
0.0246128 0.611719 0.104402
0.0369268 0.612482 0.10518
0.0495003 0.613825 0.106447
0.0623178 0.615625 0.108171
0.0751812 0.617655 0.110048
0.125719 0.619883 0.113436
0.181323 0.622049 0.116991
0.238056 0.627192 0.122423
0.294453 0.634638 0.129259
0.347555 0.64123 0.13492
0.393576 0.646311 0.138262
0.437949 0.651667 0.1411
0.475746 0.658686 0.142168
0.514672 0.666087 0.143694
0.560449 0.674876 0.149096
0.606409 0.683757 0.154528
0.645365 0.691707 0.157458
0.684504 0.699763 0.160449
0.722377 0.709178 0.164309
0.760464 0.718776 0.168292
0.792462 0.726101 0.171145
0.823926 0.733211 0.173892
0.850309 0.736553 0.173236
0.876066 0.7393 0.172091
0.897383 0.740307 0.170672
0.918044 0.741039 0.169177
0.935973 0.741695 0.16611
0.953414 0.742229 0.162722
0.967483 0.741573 0.162158
0.980987 0.740688 0.162066
0.993484 0.740322 0.161883
1.5259e-05 0.638224 0.110307
0.012314 0.638758 0.110903
0.0246128 0.639567 0.111711
0.0369268 0.640314 0.112459
0.0493019 0.641215 0.113909
0.061677 0.642237 0.115679
0.0775006 0.643397 0.11754
0.135363 0.647074 0.120562
0.19408 0.650828 0.123644
0.251209 0.656931 0.129564
0.307759 0.664317 0.136858
0.35874 0.670344 0.142367
0.40177 0.674769 0.145617
0.44332 0.679286 0.148257
0.479469 0.684184 0.149386
0.517006 0.689418 0.150896
0.56051 0.696513 0.154604
0.603754 0.704021 0.158495
0.644434 0.714824 0.163729
0.684947 0.725475 0.168826
0.719905 0.730907 0.170443
0.75491 0.736416 0.172107
0.786984 0.745266 0.175418
0.819028 0.754116 0.178744
0.845563 0.759503 0.179583
0.871809 0.764553 0.180194
0.894667 0.766781 0.181613
0.917082 0.768688 0.183047
0.935531 0.768902 0.179126
0.953552 0.768963 0.17467
0.967529 0.768597 0.174014
0.981033 0.768292 0.173922
0.993484 0.768032 0.173739
0 0.662898 0.118395
0.012314 0.664179 0.118914
0.0246128 0.665187 0.11931
0.0371557 0.666194 0.11989
0.0517433 0.667292 0.122087
0.0665599 0.668513 0.124529
0.0931716 0.670558 0.127245
0.153506 0.674739 0.130495
0.214832 0.679103 0.133883
0.269657 0.685115 0.140078
0.324453 0.691524 0.14696
0.37142 0.696513 0.151781
0.412665 0.700313 0.154955
0.452003 0.704265 0.157412
0.487587 0.708171 0.158434
0.52433 0.712779 0.159792
0.563943 0.71902 0.161761
0.60383 0.726055 0.164218
0.643931 0.737087 0.169039
0.683299 0.747463 0.173556
0.717617 0.752926 0.175586
0.751797 0.758419 0.1776
0.782498 0.765408 0.179706
0.813367 0.772488 0.181857
0.839719 0.779141 0.183871
0.866087 0.785794 0.18587
0.889143 0.788632 0.188174
0.912093 0.791348 0.190478
0.932097 0.792599 0.188098
0.95198 0.793759 0.185397
0.96672 0.793667 0.185046
0.981018 0.793576 0.184955
0.993484 0.793484 0.184878
0 0.687633 0.126619
0.012314 0.68925 0.126696
0.0246128 0.690715 0.126757
0.0390173 0.692058 0.128023
0.0562295 0.693431 0.130907
0.0738689 0.695018 0.134096
0.11284 0.6981 0.137575
0.174701 0.702739 0.141268
0.238254 0.707439 0.145052
0.289265 0.712673 0.151186
0.341344 0.718044 0.157504
0.38436 0.721859 0.161578
0.424063 0.7252 0.164813
0.461387 0.728466 0.166918
0.497032 0.731914 0.168032
0.532494 0.736049 0.168795
0.568002 0.741756 0.169131
0.604395 0.748516 0.170214
0.643153 0.758816 0.173831
0.681361 0.768582 0.177417
0.71548 0.775219 0.180606
0.749233 0.781552 0.183474
0.778058 0.785611 0.183841
0.807034 0.789975 0.184405
0.833387 0.797803 0.187579
0.859678 0.805508 0.190723
0.882536 0.808789 0.193027
0.905409 0.812055 0.195315
0.927672 0.815015 0.195621
0.949905 0.817945 0.195865
0.965576 0.817823 0.195712
0.981048 0.817731 0.195621
0.993484 0.817639 0.195544
0 0.713069 0.135119
0.012314 0.714382 0.135454
0.0246128 0.715511 0.13576
0.0442817 0.717327 0.138094
0.0661784 0.719448 0.1411
0.0888075 0.72163 0.144274
0.138674 0.725261 0.147799
0.200412 0.729503 0.151507
0.261021 0.733928 0.155612
0.308263 0.73846 0.161181
0.355962 0.743145 0.166888
0.396139 0.746914 0.170474
0.434989 0.750439 0.173602
0.471458 0.753094 0.175036
0.505959 0.754986 0.175204
0.54023 0.75874 0.175906
0.574456 0.764706 0.177188
0.6094 0.771466 0.178836
0.645487 0.779873 0.181338
0.68101 0.788006 0.18381
0.71426 0.795285 0.186313
0.7467 0.802121 0.188556
0.775082 0.806867 0.189425
0.80322 0.811597 0.190448
0.82826 0.816663 0.193027
0.853132 0.821668 0.195605
0.876921 0.826032 0.198352
0.900557 0.83032 0.200961
0.922988 0.834195 0.201663
0.945373 0.838026 0.20238
0.962112 0.838743 0.202716
0.978759 0.839475 0.203067
0.991089 0.839414 0.203021
0 0.738415 0.14406
0.012314 0.739178 0.144717
0.0277256 0.740368 0.14583
0.0533761 0.742947 0.148531
0.079942 0.745708 0.151431
0.107973 0.748745 0.154604
0.16643 0.752194 0.158022
0.227634 0.755901 0.161639
0.283406 0.759808 0.165835
0.325887 0.763821 0.170825
0.369451 0.767895 0.175952
0.408072 0.771984 0.179141
0.446693 0.776013 0.182254
0.481346 0.777401 0.182513
0.51458 0.777646 0.181598
0.547982 0.781353 0.182818
0.581476 0.787823 0.185733
0.614939 0.794202 0.188052
0.648188 0.80029 0.189364
