creative/lut-ricoh-film.cube
TITLE "Generated by Resolve"
LUT_3D_SIZE 5
0 0.0115358 0.0131838
0.185153 0.0202945 0.0165103
0.46479 0.00706493 0.00953689
0.746731 0.0116426 0.00215152
0.969375 0.0460365 9.15541e-05
0.00389105 0.241306 0.0545663
0.201175 0.244556 0.0477913
0.516579 0.267475 0.00454719
0.783001 0.29604 0.00199893
0.973968 0.321202 0
0.0068513 0.530007 0.104967
0.246998 0.531975 0.111666
0.52726 0.531807 0.0822614
0.779034 0.546136 0.00457771
0.978424 0.576425 0
0.0985733 0.771328 0.188312
0.331853 0.773724 0.201175
0.573022 0.772091 0.194751
0.781018 0.77322 0.153933
0.98201 0.782666 0.0867628
0.283619 0.972366 0.307958
0.434028 0.978836 0.319707
0.63006 0.980743 0.325475
0.810437 0.983078 0.323919
0.982055 0.98996 0.309514
0.00613413 0.0237278 0.226444
0.200778 0.027985 0.216876
0.481895 0.013962 0.198306
0.757488 0.0364691 0.158175
0.971023 0.115892 0.137377
0.0087129 0.258366 0.258656
0.224964 0.269902 0.260243
0.531365 0.279103 0.233387
0.785306 0.301152 0.174533
0.974975 0.336294 0.141482
0.010956 0.540719 0.299153
0.249348 0.546548 0.304158
0.542382 0.542443 0.289799
0.787488 0.558145 0.240848
0.979263 0.579675 0.145907
0.116243 0.775448 0.358587
0.324269 0.778775 0.368719
0.577386 0.776028 0.372213
0.784268 0.779171 0.341588
0.982498 0.787778 0.290089
0.278996 0.976333 0.452171
0.423865 0.980346 0.460746
0.631357 0.981918 0.475319
0.810498 0.985153 0.474983
0.982162 0.988998 0.457908
0.0122225 0.0437629 0.476814
0.202792 0.0459144 0.482506
0.5411 0.0101015 0.467597
0.774731 0.0150912 0.424613
0.971008 0.100603 0.381277
0.0103914 0.28368 0.50013
0.24741 0.288838 0.509285
0.560845 0.296483 0.497673
0.782086 0.304006 0.459236
0.975525 0.326848 0.412024
0.00836194 0.55523 0.536629
0.281254 0.561898 0.542138
0.566964 0.569833 0.542855
0.793896 0.577096 0.518181
0.979583 0.580636 0.465675
0.137179 0.782742 0.573693
0.327214 0.787182 0.577981
0.579568 0.787732 0.580118
0.788952 0.786877 0.567391
0.981567 0.794736 0.539193
0.251408 0.979843 0.619562
0.398108 0.982925 0.627283
0.625574 0.982712 0.642618
0.812329 0.985794 0.649653
0.97818 0.987305 0.636942
0.00262455 0.0789502 0.724773
0.254002 0.0798352 0.728969
0.55787 0.0825666 0.733486
0.810941 0.110216 0.718822
0.971664 0.156817 0.665736
0.0224918 0.305318 0.738323
0.289113 0.312947 0.745388
0.566842 0.329244 0.749065
0.810086 0.350454 0.73492
0.976455 0.36347 0.690959
0.108354 0.562188 0.755032
0.318135 0.568978 0.756237
0.568597 0.57789 0.761807
0.801968 0.593194 0.758022
0.980682 0.582956 0.72163
0.186023 0.786801 0.777295
0.354543 0.791592 0.7794
0.579019 0.796643 0.782544
0.796338 0.80354 0.784878
0.982605 0.807309 0.770626
0.241886 0.985962 0.798871
0.381262 0.990356 0.803952
0.59411 0.992798 0.803845
0.806104 0.990906 0.813291
0.980804 0.99237 0.808225
0.15523 0.145083 0.937682
0.341329 0.155535 0.942321
0.57644 0.174304 0.944442
0.805966 0.213107 0.947616
0.972229 0.243992 0.931136
0.178622 0.353277 0.945693
0.362188 0.362432 0.950713
0.586007 0.379446 0.952789
0.806058 0.40705 0.953979
0.97641 0.428534 0.940734
0.210742 0.583612 0.950927
0.380591 0.590295 0.955718
0.590036 0.597498 0.960327
0.801633 0.615137 0.959442
0.980606 0.625788 0.954116
0.242664 0.789273 0.961105
0.395834 0.795041 0.966415
0.594614 0.799435 0.967193
0.79588 0.807614 0.96611
0.984207 0.82182 0.965896
0.295735 0.981979 0.972808
0.427085 0.986084 0.97554
0.620386 0.992584 0.977996
0.805234 0.994644 0.981109
0.983413 0.99382 0.978836
