creative/lut-fuji-c200-warm.cube
TITLE "Generated by Resolve"
LUT_3D_SIZE 5
0.076051 0.0759442 0.0764782
0.428367 0.106111 0.0738079
0.780255 0.123293 0.0560159
0.931868 0.131167 0.0525368
1 0.173846 0.111864
0.0555276 0.315206 0.0611124
0.308583 0.362951 0.0792401
0.69778 0.412192 0.0730602
0.868376 0.431449 0.0591287
1 0.419623 0.0944991
0.0808881 0.610819 0.10016
0.229191 0.649393 0.00874342
0.655467 0.726848 0.121279
0.847608 0.720607 0.12987
0.979477 0.706065 0.149493
0.154223 0.709743 0.198489
0.211856 0.780438 0.0551614
0.578576 0.822324 0.107057
0.842618 0.921202 0.22031
0.998032 0.882063 0.259953
0.240894 0.762219 0.337285
0.322911 0.815 0.27277
0.467247 0.898283 0.223621
0.721584 0.970748 0.238483
1 1 0.396551
0.0685588 0.0802472 0.29514
0.420783 0.105638 0.30132
0.762905 0.118074 0.295613
0.918044 0.141711 0.310353
1 0.214664 0.394705
0.0649882 0.309331 0.350683
0.340841 0.328206 0.288258
0.713161 0.315969 0.263035
0.888823 0.326131 0.257801
1 0.335042 0.294194
0.0819409 0.605478 0.373999
0.234089 0.623056 0.254459
0.658122 0.670039 0.294347
0.829587 0.661128 0.29424
1 0.678889 0.330892
0.161364 0.709316 0.426017
0.225071 0.755398 0.300633
0.584665 0.796918 0.309545
0.842786 0.893874 0.419699
1 0.862837 0.396475
0.233326 0.767376 0.487907
0.320775 0.813642 0.433661
0.465354 0.893309 0.392584
0.701396 0.976806 0.357626
1 1 0.512123
0.10042 0.11809 0.601572
0.431327 0.140688 0.57615
0.742611 0.155947 0.568063
0.890242 0.178576 0.561151
1 0.256291 0.633463
0.0401007 0.283192 0.609857
0.335439 0.317998 0.573663
0.71014 0.3243 0.571466
0.874434 0.35079 0.574136
1 0.417777 0.655741
0.0939345 0.59202 0.638895
0.242573 0.616388 0.613993
0.646586 0.619486 0.58732
0.831556 0.638025 0.58085
1 0.656519 0.594064
0.154116 0.706477 0.579461
0.219211 0.757229 0.584802
0.596429 0.789319 0.615412
0.827619 0.830701 0.67538
1 0.832715 0.63888
0.229877 0.765728 0.629999
0.316121 0.811032 0.619058
0.464576 0.890532 0.609995
0.711238 0.970245 0.638773
1 1 0.727779
0.171206 0.16257 0.786084
0.472724 0.177081 0.768582
0.722316 0.188083 0.743542
0.868788 0.216754 0.731548
0.988693 0.285115 0.757412
0.0625772 0.300725 0.820615
0.36463 0.323369 0.785534
0.698329 0.335012 0.769528
0.877424 0.351461 0.759854
1 0.43714 0.804685
0.110262 0.563302 0.890028
0.298146 0.592691 0.868299
0.653544 0.61738 0.76875
0.838468 0.648234 0.772732
1 0.68069 0.798581
0.165515 0.699168 0.792386
0.231525 0.758556 0.82681
0.608164 0.790875 0.795804
0.827436 0.816297 0.813626
0.997436 0.822431 0.788434
0.231449 0.773068 0.703853
0.310796 0.821103 0.722271
0.475227 0.897398 0.752819
0.735714 0.965881 0.822705
1 0.990005 0.848753
0.230777 0.203571 0.89398
0.500114 0.218189 0.875486
0.708721 0.236057 0.856275
0.855833 0.260822 0.849134
0.971893 0.340764 0.853986
0.0512703 0.267903 0.98613
0.352026 0.296178 0.949218
0.709667 0.330846 0.919585
0.878767 0.389654 0.9066
1 0.481971 0.906325
0.15552 0.592966 1
0.357015 0.60885 0.966491
0.679591 0.636072 0.927855
0.851423 0.663203 0.923858
0.998413 0.700313 0.936568
0.198428 0.701793 0.972824
0.288731 0.761349 1
0.633875 0.783352 0.99443
0.83743 0.821561 0.95082
0.986328 0.838804 0.943328
0.255024 0.775891 0.840024
0.32047 0.823255 0.8607
0.479713 0.906859 0.915831
0.758694 0.963134 0.990707
0.985031 0.970657 0.987747
