creative/lut-reed.cube
TITLE "Generated by Resolve"
LUT_3D_SIZE 5
0 0 0
0.231632 0.00460822 0.00842298
0.48246 0.0039826 0.0120394
0.741238 0.00122072 0.0136873
1 0 0.0139773
0.0037232 0.250675 0
0.231708 0.255116 0.00303655
0.482414 0.254444 0.00762951
0.741375 0.251545 0.0100404
1 0.247181 0.0143893
0.00743114 0.500053 0
0.235508 0.504387 0
0.485801 0.503731 0.00477607
0.744396 0.500893 0.00750744
1 0.496605 0.0119173
0.0111391 0.748928 0
0.240497 0.753216 0
0.490745 0.752483 0.00250248
0.74905 0.749691 0.00582895
1 0.745418 0.00929274
0.0148318 0.997513 0
0.246189 0.99649 0
0.496483 0.99556 0.00062562
0.754696 0.99472 0.00456245
1 0.993881 0.00637827
0 0.00221256 0.275181
0.224735 0.00390631 0.285649
0.476173 0.00291447 0.291295
0.735698 0 0.29514
1 0 0.297734
0 0.253147 0.256901
0.219318 0.25684 0.272404
0.475853 0.253697 0.284413
0.735485 0.250431 0.288304
1 0.245716 0.290944
0.000656138 0.500526 0.258732
0.227985 0.504173 0.273274
0.478523 0.503304 0.280507
0.737209 0.50045 0.283116
1 0.496086 0.284199
0.00488289 0.749187 0.25594
0.232944 0.753063 0.269871
0.483528 0.752087 0.277836
0.741756 0.749249 0.281559
1 0.744976 0.282933
0.00875868 0.997681 0.253544
0.238605 0.998489 0.267292
0.489265 0.99733 0.275502
0.747478 0.996429 0.28011
1 0.993454 0.282109
0 0.00421149 0.522316
0.220218 0.00549325 0.533227
0.471504 0.00456245 0.538628
0.730877 0.00140383 0.542336
0.995758 0 0.544823
0 0.272755 0.459586
0.213519 0.258457 0.523461
0.471061 0.25539 0.53167
0.730465 0.252216 0.535393
0.995377 0.247532 0.537957
0 0.505653 0.494224
0.217151 0.508721 0.510231
0.469001 0.507012 0.521752
0.73341 0.501701 0.531884
0.998413 0.496986 0.534508
0 0.752346 0.497719
0.226551 0.755642 0.513176
0.478767 0.753887 0.523919
0.737224 0.750835 0.529198
1 0.746532 0.530465
0.00198367 1 0.496376
0.232853 1 0.511406
0.484459 0.999115 0.521401
0.742992 0.997971 0.527428
1 0.995041 0.529747
0 0.00611887 0.759945
0.216648 0.00776684 0.771313
0.467887 0.0068513 0.776608
0.727184 0.00373846 0.780163
0.991913 0.000381476 0.782559
0 0.279881 0.69868
0.209369 0.260884 0.761654
0.46746 0.257664 0.769696
0.726741 0.254566 0.77319
0.99147 0.249928 0.775631
0 0.529458 0.663127
0.168017 0.529473 0.699214
0.46389 0.509392 0.76318
0.729564 0.504097 0.769589
0.994324 0.499443 0.772076
0 0.75819 0.723949
0.215854 0.761105 0.74052
0.469917 0.758618 0.753231
0.730571 0.754421 0.763317
0.998505 0.74844 0.769818
0 1 0.727916
0.225971 1 0.743786
0.479088 1 0.755398
0.739254 0.999603 0.764233
1 0.997299 0.767865
0 0.00799573 0.991592
0.213779 0.0104067 0.998199
0.465003 0.00952163 1
0.724208 0.00643931 1
0.9888 0.00187686 1
0 0.281804 0.93962
0.205402 0.26389 0.991531
0.464546 0.260334 0.999695
0.723705 0.257282 1
0.988357 0.252689 1
0 0.545907 0.871168
0.143694 0.538827 0.926345
0.460487 0.512184 0.993362
0.726543 0.506798 1
0.991165 0.502235 1
0 0.780072 0.888243
0.167529 0.78407 0.90193
0.423178 0.779309 0.932372
0.726497 0.757229 0.996246
0.995209 0.751263 1
0 1 0.948775
0.215961 1 0.960571
0.47013 1 0.973358
0.732357 1 0.986542
1 1 1
