creative/lut-fuji-c200-warm.cube
TITLE "Generated by Resolve"
LUT_3D_SIZE 9
0.076051 0.0759442 0.0764782
0.203967 0.100175 0.0869306
0.428367 0.106111 0.0738079
0.640162 0.114321 0.0623026
0.780255 0.123293 0.0560159
0.869886 0.127031 0.0525368
0.931868 0.131167 0.0525368
0.977951 0.141543 0.0617075
1 0.173846 0.111864
0.0691997 0.1673 0.0769207
0.156146 0.196338 0.0854963
0.365072 0.229313 0.0806744
0.589136 0.248753 0.0699168
0.738293 0.25864 0.0561837
0.833143 0.26717 0.0499733
0.90164 0.267994 0.0474708
0.961273 0.256596 0.0450446
1 0.259342 0.0720073
0.0555276 0.315206 0.0611124
0.121553 0.321874 0.0601053
0.308583 0.362951 0.0792401
0.54461 0.388098 0.0818494
0.69778 0.412192 0.0730602
0.797009 0.424887 0.0635386
0.868376 0.431449 0.0591287
0.937148 0.429847 0.0635538
1 0.419623 0.0944991
0.0586709 0.484642 0.0632334
0.0911574 0.4878 0.0231327
0.276677 0.507805 0.0383001
0.509041 0.570993 0.0964675
0.684276 0.573358 0.102968
0.765972 0.578897 0.0860761
0.840146 0.593011 0.0836805
0.912169 0.604257 0.0944533
0.993149 0.594141 0.12723
0.0808881 0.610819 0.10016
0.0903639 0.623331 0.0120851
0.229191 0.649393 0.00874342
0.466468 0.654826 0.0494087
0.655467 0.726848 0.121279
0.788373 0.725063 0.1393
0.847608 0.720607 0.12987
0.904433 0.717144 0.121187
0.979477 0.706065 0.149493
0.119493 0.674357 0.144335
0.132967 0.701534 0.0478218
0.200259 0.736477 0.00914015
0.4206 0.742214 0.0392157
0.621149 0.792996 0.120348
0.760571 0.831785 0.1626
0.867628 0.830396 0.184588
0.926757 0.822736 0.182116
0.978347 0.789258 0.196338
0.154223 0.709743 0.198489
0.173373 0.745266 0.113695
0.211856 0.780438 0.0551614
0.366201 0.81091 0.0567788
0.578576 0.822324 0.107057
0.730449 0.897963 0.190433
0.842618 0.921202 0.22031
0.945312 0.921065 0.241672
0.998032 0.882063 0.259953
0.1935 0.735897 0.255985
0.224399 0.76846 0.199664
0.261448 0.799802 0.144045
0.340276 0.847105 0.11107
0.517327 0.882353 0.130526
0.685313 0.912367 0.175082
0.809934 0.985855 0.248035
0.925734 1 0.277897
1 0.980987 0.335317
0.240894 0.762219 0.337285
0.2851 0.78793 0.303777
0.322911 0.815 0.27277
0.373709 0.856321 0.233555
0.467247 0.898283 0.223621
0.57937 0.936721 0.21709
0.721584 0.970748 0.238483
0.863844 1 0.323964
1 1 0.396551
0.075349 0.0768139 0.139696
0.19649 0.0914321 0.156786
0.407691 0.0939345 0.16054
0.628885 0.101091 0.157061
0.773495 0.110765 0.162509
0.864958 0.11841 0.169665
0.926329 0.12987 0.180377
0.973342 0.147036 0.201556
1 0.185153 0.247547
0.0670329 0.1673 0.14844
0.154543 0.179736 0.151492
0.357137 0.18764 0.139666
0.584283 0.18471 0.130205
0.738781 0.190494 0.126116
0.843626 0.192203 0.117037
0.925277 0.191913 0.10898
0.998764 0.185855 0.105837
1 0.223514 0.162142
0.0534524 0.318822 0.172396
0.118608 0.314382 0.133196
0.305867 0.340185 0.142336
0.542077 0.341054 0.136034
0.701991 0.349233 0.133928
0.806577 0.356786 0.128923
0.888624 0.359075 0.120226
0.969924 0.344778 0.107744
1 0.331762 0.126848
0.0574197 0.481559 0.209689
0.084535 0.474342 0.111971
0.269535 0.490929 0.117906
0.503059 0.532799 0.158145
0.664408 0.517266 0.140002
0.770748 0.530327 0.138781
0.854139 0.545495 0.146349
0.938262 0.557366 0.153582
1 0.543694 0.164538
0.0835126 0.603403 0.247028
0.0871595 0.611612 0.124773
0.226535 0.636286 0.102678
0.458488 0.636255 0.126299
0.648493 0.699306 0.185214
0.778027 0.689296 0.187381
0.84213 0.687419 0.182635
0.916579 0.694377 0.184451
1 0.694026 0.195682
0.126772 0.663661 0.280858
0.134752 0.68571 0.181567
0.200336 0.723003 0.113664
0.420813 0.727825 0.133867
0.619654 0.770993 0.191623
0.76257 0.817914 0.233631
0.868727 0.815335 0.250751
0.928023 0.805875 0.241382
0.997894 0.786435 0.233387
0.158984 0.70161 0.318456
0.181537 0.727642 0.247593
0.218601 0.767956 0.171008
0.369207 0.800336 0.154116
0.576577 0.80914 0.185153
0.732341 0.888792 0.260822
0.849042 0.916487 0.294408
0.954376 0.916106 0.311894
1 0.882429 0.28925
0.193149 0.733425 0.364294
0.23032 0.757656 0.310094
0.275654 0.790082 0.260197
0.34583 0.837781 0.20647
0.505089 0.878813 0.20502
0.674098 0.901991 0.23444
0.815976 0.986725 0.320912
0.940215 1 0.352789
1 0.992279 0.368978
0.238788 0.765209 0.416281
0.281407 0.786511 0.374029
0.323644 0.813352 0.349874
0.374685 0.852827 0.309239
0.463279 0.894942 0.289281
0.569085 0.939773 0.267765
0.712505 0.975341 0.272725
0.88043 1 0.367666
1 1 0.452461
0.0685588 0.0802472 0.29514
0.202396 0.0975204 0.295888
0.420783 0.105638 0.30132
0.632136 0.111421 0.302998
0.762905 0.118074 0.295613
0.851499 0.128527 0.297368
0.918044 0.141711 0.310353
0.97142 0.163256 0.335576
1 0.214664 0.394705
0.0567941 0.158328 0.286
0.154925 0.17789 0.281086
0.368978 0.184527 0.281987
0.587701 0.181918 0.278782
0.731517 0.185092 0.271733
0.833967 0.186175 0.266194
0.913222 0.189532 0.266682
0.983597 0.198398 0.277638
1 0.242496 0.347906
0.0649882 0.309331 0.350683
0.128023 0.318212 0.284871
0.340841 0.328206 0.288258
0.568032 0.316854 0.268849
0.713161 0.315969 0.263035
0.813153 0.31931 0.257694
0.888823 0.326131 0.257801
0.961852 0.335378 0.265873
1 0.335042 0.294194
0.0582284 0.481773 0.341665
0.0882429 0.470359 0.269963
0.290028 0.482521 0.27042
0.52549 0.500069 0.274037
0.670771 0.493019 0.255039
0.773846 0.500298 0.254063
0.850248 0.513069 0.26772
0.930648 0.528695 0.286412
1 0.518456 0.289601
0.0819409 0.605478 0.373999
0.0889754 0.604486 0.277531
0.234089 0.623056 0.254459
0.475425 0.620844 0.263096
0.658122 0.670039 0.294347
0.760616 0.654368 0.283207
0.829587 0.661128 0.29424
0.912032 0.674876 0.322087
1 0.678889 0.330892
0.127108 0.669749 0.40383
0.139208 0.680156 0.316518
0.204685 0.70808 0.257008
0.436927 0.715297 0.270237
0.625422 0.742596 0.306661
0.762387 0.789212 0.348882
0.847257 0.783276 0.360662
0.907164 0.774029 0.364446
1 0.775998 0.357916
0.161364 0.709316 0.426017
0.182849 0.725551 0.366842
0.225071 0.755398 0.300633
0.380423 0.790448 0.282841
0.584665 0.796918 0.309545
0.730632 0.860761 0.377127
0.842786 0.893874 0.419699
0.938476 0.889693 0.436103
1 0.862837 0.396475
0.19324 0.739025 0.451759
0.227466 0.758877 0.417533
0.276188 0.785275 0.367941
0.35172 0.831937 0.324269
0.509911 0.872099 0.324132
0.671 0.886656 0.355886
0.812253 0.960845 0.44715
0.941543 1 0.494224
1 0.976165 0.464881
0.233326 0.767376 0.487907
0.278141 0.788037 0.468208
0.320775 0.813642 0.433661
0.374487 0.85037 0.414496
0.465354 0.893309 0.392584
0.563012 0.940429 0.370581
0.701396 0.976806 0.357626
0.888106 1 0.454597
1 1 0.512123
0.0754864 0.0965744 0.464607
0.227634 0.111009 0.451179
0.41294 0.121248 0.441627
0.620752 0.130968 0.445396
0.755276 0.13817 0.443626
0.839918 0.144823 0.432868
0.904799 0.158114 0.439445
0.957214 0.183993 0.465904
1 0.241215 0.532174
0.04654 0.153857 0.43505
0.147799 0.175051 0.432624
0.349325 0.184192 0.425635
0.581033 0.185473 0.425437
0.732403 0.189654 0.416266
0.826978 0.201221 0.413642
0.89604 0.217044 0.42034
0.963119 0.236805 0.443854
1 0.294209 0.526162
0.0618753 0.288548 0.494026
0.141588 0.302785 0.46743
0.343557 0.32343 0.436332
0.570291 0.321614 0.43769
0.71194 0.323735 0.432959
0.806088 0.333349 0.432746
0.880949 0.339376 0.436652
0.954757 0.343786 0.444419
1 0.365164 0.493721
0.074342 0.469429 0.518151
0.100237 0.46772 0.463828
0.293584 0.483314 0.437232
0.525124 0.484794 0.438987
0.674189 0.48603 0.426856
0.774319 0.489204 0.418616
0.85272 0.496651 0.420737
0.934783 0.504662 0.425635
1 0.524254 0.455436
0.0807507 0.610147 0.482155
0.0885481 0.607614 0.432731
0.2392 0.621195 0.428
0.48983 0.616098 0.436362
0.654932 0.637278 0.441535
0.749355 0.634623 0.433646
0.829786 0.645792 0.44155
0.913725 0.659022 0.45745
1 0.671153 0.470069
0.122713 0.669276 0.493812
0.137987 0.682551 0.456977
0.203189 0.706065 0.422522
0.441901 0.709606 0.433219
0.620768 0.712642 0.447272
0.751934 0.754925 0.486641
0.821424 0.748318 0.487221
0.901793 0.758175 0.499748
1 0.763561 0.500282
0.160861 0.705303 0.512474
0.183703 0.728115 0.4869
0.221958 0.755779 0.444923
0.378088 0.787015 0.435538
0.589426 0.791272 0.466041
0.725322 0.821454 0.515801
0.832074 0.855131 0.566217
0.908217 0.85095 0.561822
1 0.846723 0.535195
0.193408 0.734585 0.531212
0.224506 0.760784 0.514885
0.271412 0.78648 0.490562
0.350393 0.830274 0.452537
0.514427 0.868086 0.466651
0.678767 0.880491 0.509575
0.805417 0.921508 0.587488
0.926604 0.966628 0.639429
1 0.945907 0.583612
0.233082 0.764218 0.553475
0.274205 0.788663 0.551247
0.321202 0.812894 0.537514
0.377768 0.849973 0.511498
0.465431 0.890455 0.506004
0.563806 0.939132 0.49279
0.701274 0.973739 0.508415
0.882567 1 0.598383
1 1 0.622187
0.10042 0.11809 0.601572
0.26276 0.131014 0.580621
0.431327 0.140688 0.57615
0.60502 0.14728 0.572183
0.742611 0.155947 0.568063
0.82887 0.166384 0.561715
0.890242 0.178576 0.561151
0.944549 0.20177 0.580636
1 0.256291 0.633463
0.0488594 0.157214 0.572045
0.166506 0.178363 0.563058
0.348196 0.188891 0.555276
0.56347 0.193484 0.555871
0.724407 0.194537 0.5467
0.829816 0.203098 0.538537
0.896361 0.221286 0.54406
0.958129 0.248936 0.573266
1 0.315587 0.652811
0.0401007 0.283192 0.609857
0.138582 0.305669 0.595926
0.335439 0.317998 0.573663
0.555688 0.323705 0.574716
0.71014 0.3243 0.571466
0.806241 0.33463 0.567819
0.874434 0.35079 0.574136
0.944137 0.370581 0.592264
1 0.417777 0.655741
0.0801556 0.441245 0.677378
0.128435 0.44831 0.6663
0.305653 0.465843 0.619043
0.521065 0.47834 0.569833
0.674708 0.484077 0.572213
0.772259 0.495766 0.57055
0.847166 0.510292 0.574716
0.928664 0.521263 0.585885
1 0.541772 0.624765
0.0939345 0.59202 0.638895
0.10161 0.597696 0.624918
0.242573 0.616388 0.613993
0.488548 0.616114 0.586435
0.646586 0.619486 0.58732
0.749706 0.627848 0.580377
0.831556 0.638025 0.58085
0.916487 0.648783 0.587015
1 0.656519 0.594064
0.118471 0.667994 0.581109
0.132525 0.68333 0.568811
0.20119 0.708598 0.581567
0.439033 0.710536 0.590433
0.627619 0.709621 0.602533
0.742992 0.727642 0.615198
0.819837 0.73817 0.616968
0.904646 0.750439 0.619821
1 0.753338 0.60705
0.154116 0.706477 0.579461
0.179873 0.72813 0.586648
0.219211 0.757229 0.584802
0.374411 0.786664 0.592142
0.596429 0.789319 0.615412
0.729549 0.800336 0.64268
0.827619 0.830701 0.67538
0.898711 0.834409 0.665263
1 0.832715 0.63888
0.189075 0.736706 0.609003
0.221241 0.759793 0.61146
0.26688 0.786831 0.602899
0.349767 0.829786 0.589166
0.516213 0.866438 0.609522
0.69015 0.875227 0.649424
0.806378 0.897948 0.694102
0.916548 0.936355 0.73518
1 0.91928 0.675959
0.229877 0.765728 0.629999
0.268482 0.786969 0.626017
0.316121 0.811032 0.619058
0.377295 0.849302 0.609079
0.464576 0.890532 0.609995
0.56582 0.937789 0.609308
0.711238 0.970245 0.638773
0.876921 1 0.707362
1 1 0.727779
0.135378 0.140124 0.707744
0.297017 0.151049 0.684565
0.455741 0.160311 0.691127
0.603647 0.164141 0.678187
0.728084 0.170169 0.66656
0.817105 0.18201 0.659556
0.876341 0.198489 0.658015
0.930388 0.220111 0.663691
0.995865 0.269398 0.704234
0.0490883 0.158221 0.707988
0.184649 0.180728 0.69398
0.364294 0.196735 0.683024
0.562478 0.206348 0.677668
0.711101 0.208057 0.663935
0.82153 0.216144 0.655543
0.894606 0.232532 0.658824
0.956527 0.259449 0.678645
1 0.325948 0.73167
0.0458839 0.290028 0.731853
0.161624 0.309682 0.711711
0.34583 0.319203 0.692393
0.552056 0.326162 0.689632
0.701335 0.327871 0.684413
0.80441 0.332341 0.676982
0.878462 0.346914 0.676295
0.945968 0.369116 0.69015
1 0.425864 0.747143
0.0700694 0.424186 0.786023
0.138888 0.440726 0.765896
0.29984 0.458366 0.696956
0.517845 0.469215 0.683024
0.671214 0.47776 0.683345
0.775723 0.492424 0.678981
0.850843 0.511025 0.681819
0.927184 0.531624 0.697719
1 0.569146 0.74107
0.10927 0.572229 0.787259
0.131716 0.583276 0.807675
0.277256 0.599878 0.785397
0.496925 0.605631 0.7308
0.649119 0.618906 0.688624
0.753613 0.628717 0.69044
0.833722 0.643107 0.698177
0.914397 0.657221 0.705882
1 0.665019 0.716442
0.126024 0.655268 0.733425
0.140566 0.673411 0.742229
0.214328 0.702907 0.75552
0.43917 0.709575 0.715587
0.635554 0.712306 0.705898
0.744228 0.722087 0.71458
0.825757 0.738216 0.71519
0.909712 0.746517 0.714809
1 0.745922 0.702434
0.152987 0.704723 0.67628
0.177569 0.729686 0.68397
0.217227 0.761501 0.699138
0.373602 0.789639 0.705562
0.60238 0.790539 0.718196
0.739284 0.797116 0.737179
0.824842 0.819684 0.747875
0.901732 0.831083 0.745174
1 0.82501 0.714641
0.186191 0.73904 0.659037
0.21973 0.764446 0.677134
0.263981 0.791653 0.687236
0.345388 0.833494 0.688457
0.518929 0.867094 0.710262
0.702617 0.873426 0.745312
0.813642 0.890135 0.768917
0.911269 0.919692 0.79585
0.996841 0.906615 0.744045
0.23061 0.770581 0.67248
0.267765 0.79266 0.684382
0.311284 0.815854 0.68333
0.373907 0.850874 0.675105
0.468681 0.893233 0.68574
0.572976 0.93933 0.702953
0.724422 0.968017 0.736187
0.876829 0.985367 0.78262
1 1 0.791592
0.171206 0.16257 0.786084
0.327062 0.167819 0.760052
0.472724 0.177081 0.768582
0.606394 0.181125 0.758816
0.722316 0.188083 0.743542
0.806638 0.200595 0.7355
0.868788 0.216754 0.731548
0.919646 0.238224 0.737728
0.988693 0.285115 0.757412
0.0502327 0.165789 0.823224
0.198871 0.186648 0.807126
0.379858 0.200488 0.789746
0.567697 0.215946 0.779583
0.707897 0.225696 0.761624
0.813443 0.235554 0.75053
0.888548 0.249729 0.751476
0.949081 0.274754 0.759991
1 0.340261 0.782071
0.0625772 0.300725 0.820615
0.187839 0.314702 0.796231
0.36463 0.323369 0.785534
0.556848 0.330297 0.775906
0.698329 0.335012 0.769528
0.800122 0.340429 0.762631
0.877424 0.351461 0.759854
0.948394 0.372869 0.768032
1 0.43714 0.804685
0.0698253 0.425803 0.846601
0.155032 0.44358 0.812253
0.318517 0.463951 0.778729
0.525505 0.467826 0.765957
0.673823 0.478889 0.763363
0.776425 0.494148 0.761822
0.854582 0.510842 0.760983
0.929534 0.535027 0.771481
1 0.573831 0.806027
0.110262 0.563302 0.890028
0.153399 0.582406 0.911299
0.298146 0.592691 0.868299
0.496101 0.601022 0.781872
0.653544 0.61738 0.76875
0.758282 0.631678 0.769039
0.838468 0.648234 0.772732
0.916442 0.664561 0.781537
1 0.68069 0.798581
0.140581 0.647242 0.837736
0.160922 0.666804 0.871336
0.248966 0.692088 0.880095
0.465522 0.697871 0.831876
0.643626 0.709834 0.790906
0.748516 0.726787 0.778317
0.829709 0.741344 0.786358
0.909972 0.751949 0.792355
1 0.754757 0.790249
0.165515 0.699168 0.792386
0.190814 0.725658 0.808011
0.231525 0.758556 0.82681
0.386221 0.787549 0.81622
0.608164 0.790875 0.795804
0.748852 0.799588 0.807446
0.827436 0.816297 0.813626
0.907332 0.829877 0.813901
0.997436 0.822431 0.788434
0.192386 0.741024 0.743969
0.224369 0.765377 0.75256
0.266392 0.794903 0.757092
0.343923 0.839429 0.7664
0.52636 0.867903 0.796002
0.710765 0.874342 0.822538
0.822599 0.886671 0.83798
0.906905 0.908232 0.849393
0.99295 0.89987 0.809186
0.231449 0.773068 0.703853
0.267399 0.796002 0.714885
0.310796 0.821103 0.722271
0.374975 0.85565 0.731624
0.475227 0.897398 0.752819
0.583139 0.94226 0.785443
0.735714 0.965881 0.822705
0.88098 0.974838 0.852872
1 0.990005 0.848753
0.201907 0.182025 0.844175
0.354086 0.186328 0.822065
0.484596 0.195224 0.829313
0.608255 0.201251 0.819074
0.714382 0.210971 0.805219
0.798962 0.223362 0.797299
0.862699 0.236561 0.795972
0.915343 0.255787 0.796979
0.980865 0.3084 0.805554
0.0682536 0.187945 0.901213
0.219669 0.202533 0.884611
0.394766 0.211444 0.865583
0.572396 0.226322 0.855177
0.708186 0.241794 0.838148
0.810056 0.256397 0.825483
0.881544 0.273106 0.819486
0.939406 0.297948 0.819089
0.99794 0.360235 0.824231
0.0710155 0.295781 0.893721
0.198138 0.310567 0.872831
0.37731 0.321462 0.861021
0.565347 0.333303 0.849302
0.702754 0.345632 0.838346
0.800916 0.356725 0.831174
0.874769 0.368261 0.825635
0.945388 0.388815 0.830014
1 0.454978 0.850126
0.0893263 0.442954 0.903578
0.187106 0.458732 0.867445
0.350027 0.475959 0.852369
0.542504 0.478233 0.839033
0.684276 0.488731 0.831891
0.781872 0.506294 0.830411
0.856321 0.523644 0.829786
0.930739 0.546441 0.838132
1 0.585687 0.864759
0.123873 0.573236 0.993179
0.188754 0.588754 0.984787
0.324987 0.594049 0.920592
0.507713 0.610162 0.849714
0.664881 0.62266 0.840421
0.766339 0.637278 0.839734
0.841718 0.655222 0.842405
0.91812 0.669795 0.850233
1 0.68716 0.869017
0.151568 0.64654 0.92488
0.183505 0.671183 0.979355
0.287526 0.689799 0.971054
0.485252 0.694743 0.91397
0.648432 0.711955 0.854002
0.756893 0.729839 0.850004
0.833707 0.746502 0.854322
0.910933 0.757443 0.862943
0.998856 0.764324 0.870573
0.180499 0.695857 0.870039
0.208972 0.722667 0.909758
0.258915 0.75642 0.949355
0.421607 0.77731 0.936996
0.625193 0.785077 0.897719
0.751339 0.802274 0.86949
0.829511 0.821469 0.872145
0.908507 0.832654 0.879316
0.992081 0.830945 0.871168
0.205051 0.736965 0.826581
0.237461 0.761486 0.842512
0.278767 0.792508 0.860471
0.355138 0.84062 0.876585
0.538048 0.86923 0.883803
0.715221 0.876097 0.889632
0.829633 0.886732 0.897795
0.907057 0.903136 0.902815
0.988769 0.89752 0.878416
0.240757 0.775158 0.766217
0.270375 0.797436 0.770794
0.311589 0.824796 0.772381
0.373297 0.860624 0.785992
0.473167 0.90045 0.822873
0.594064 0.945983 0.864317
0.748714 0.964477 0.898054
0.888624 0.968811 0.919585
0.991897 0.975998 0.907057
0.230777 0.203571 0.89398
0.379736 0.209735 0.875593
0.500114 0.218189 0.875486
0.610407 0.226841 0.864805
0.708721 0.236057 0.856275
0.789609 0.24445 0.853086
0.855833 0.260822 0.849134
0.911406 0.283375 0.851652
0.971893 0.340764 0.853986
0.104128 0.219898 0.948363
0.255833 0.231098 0.933165
0.422599 0.23769 0.918105
0.582803 0.246143 0.906905
0.70927 0.257099 0.895964
0.806394 0.273915 0.890532
0.874144 0.298665 0.882948
0.931319 0.330404 0.879408
0.98793 0.392264 0.876432
0.0512703 0.267903 0.98613
0.167468 0.286641 0.963394
0.352026 0.296178 0.949218
0.560632 0.309117 0.932784
0.709667 0.330846 0.919585
0.810773 0.362936 0.912703
0.878767 0.389654 0.9066
0.941817 0.422583 0.903487
1 0.481971 0.906325
0.121386 0.466728 0.974792
0.229541 0.485588 0.949233
0.388418 0.495872 0.940505
0.565408 0.497185 0.927871
0.70164 0.508064 0.921508
0.796231 0.52636 0.916701
0.864622 0.544717 0.915618
0.933288 0.566629 0.916182
1 0.600732 0.928115
0.15552 0.592966 1
0.230655 0.602518 1
0.357015 0.60885 0.966491
0.531746 0.630228 0.937163
0.679591 0.636072 0.927855
0.779797 0.648432 0.924147
0.851423 0.663203 0.923858
0.922957 0.678126 0.926619
0.998413 0.700313 0.936568
0.163455 0.659648 1
0.211337 0.684916 1
0.321233 0.6963 1
0.498772 0.699931 0.983459
0.652644 0.721813 0.937392
0.765316 0.735073 0.933089
0.8421 0.748898 0.93193
0.915114 0.760967 0.936278
0.992737 0.773877 0.940932
0.198428 0.701793 0.972824
0.228855 0.731838 1
0.288731 0.761349 1
0.454093 0.773342 1
0.633875 0.783352 0.99443
0.750317 0.804395 0.955459
0.83743 0.821561 0.95082
0.909819 0.835599 0.952132
0.986328 0.838804 0.943328
0.220554 0.737682 0.905287
0.25095 0.761624 0.937194
0.292287 0.794949 0.975433
0.380957 0.83917 1
0.568505 0.8589 1
0.725734 0.871687 0.998138
0.828656 0.887739 0.973648
0.90663 0.904509 0.969528
0.982437 0.903502 0.9579
0.255024 0.775891 0.840024
0.279744 0.795422 0.850019
0.32047 0.823255 0.8607
0.381262 0.862913 0.874723
0.479713 0.906859 0.915831
0.599725 0.94934 0.963912
0.758694 0.963134 0.990707
0.894301 0.965789 0.996155
0.985031 0.970657 0.987747
