creative/lut-fuji-c200-cool.cube
TITLE "Generated by Resolve"
LUT_3D_SIZE 5
0.0679179 0.0738079 0.0713054
0.35111 0.118898 0.0908217
0.677317 0.152636 0.0928664
0.797055 0.169314 0.0997787
0.867918 0.204028 0.137377
0.0867781 0.326223 0.103471
0.27068 0.337469 0.110887
0.63328 0.421607 0.138613
0.773526 0.452216 0.138811
0.871458 0.456413 0.160021
0.148653 0.595041 0.202319
0.221027 0.630991 0.0937514
0.61532 0.712032 0.208103
0.806714 0.735027 0.250248
0.880735 0.728008 0.243259
0.226825 0.677272 0.307057
0.276585 0.736263 0.19321
0.533867 0.792462 0.20882
0.786221 0.884901 0.329351
0.93434 0.906737 0.378027
0.316274 0.738552 0.447562
0.383444 0.775082 0.419654
0.482643 0.827756 0.388006
0.626627 0.883757 0.382483
0.846738 0.970062 0.477287
0.0627146 0.07953 0.247059
0.342306 0.117876 0.269017
0.665888 0.147311 0.283619
0.790478 0.179339 0.307225
0.869581 0.23888 0.377325
0.10071 0.325261 0.357824
0.290135 0.325338 0.28278
0.638178 0.333333 0.278355
0.78027 0.354803 0.285451
0.88867 0.374578 0.310918
0.151843 0.596948 0.42118
0.219135 0.610788 0.29012
0.608927 0.667643 0.345861
0.77232 0.674617 0.361761
0.884321 0.694194 0.40177
0.233509 0.684062 0.484703
0.286275 0.720485 0.396902
0.539681 0.779278 0.378714
0.777234 0.855634 0.479438
0.935744 0.886488 0.526543
0.312139 0.74226 0.537926
0.384176 0.774441 0.519783
0.484504 0.826108 0.505699
0.622675 0.884001 0.489754
0.848417 0.958038 0.540764
0.0859693 0.123552 0.536202
0.372351 0.160113 0.528862
0.656596 0.189792 0.534615
0.775433 0.220462 0.539605
0.861234 0.28397 0.589517
0.0679026 0.27628 0.553277
0.288716 0.320577 0.542657
0.639277 0.346868 0.555001
0.776196 0.378805 0.564508
0.882536 0.433097 0.612268
0.168078 0.588479 0.621408
0.237476 0.609018 0.617197
0.611811 0.625803 0.598123
0.761349 0.648615 0.599344
0.883741 0.671031 0.611261
0.228229 0.683192 0.586892
0.285542 0.725689 0.607874
0.544701 0.775845 0.628534
0.762676 0.797513 0.67042
0.884138 0.825498 0.683284
0.313298 0.743374 0.640131
0.377859 0.772992 0.635218
0.486107 0.82623 0.639414
0.625223 0.883131 0.649332
0.833829 0.925475 0.678035
0.181033 0.19675 0.710872
0.432471 0.22002 0.707378
0.644266 0.247028 0.702846
0.76408 0.280217 0.70605
0.849134 0.33431 0.721538
0.089601 0.284291 0.74905
0.329946 0.329046 0.738003
0.641245 0.371344 0.736294
0.780041 0.403876 0.737682
0.88278 0.463355 0.756954
0.188449 0.573327 0.830915
0.321187 0.602121 0.822461
0.627253 0.633494 0.760815
0.774197 0.664866 0.767391
0.882963 0.694057 0.785519
0.257053 0.679225 0.768688
0.3196 0.72784 0.82063
0.582361 0.772915 0.826276
0.782528 0.799237 0.805493
0.886503 0.822599 0.813672
0.333165 0.755734 0.719051
0.377859 0.783062 0.721904
0.494301 0.833753 0.745312
0.647135 0.890547 0.787152
0.850889 0.920745 0.829908
0.272892 0.273106 0.789731
0.479149 0.289723 0.789105
0.652522 0.315068 0.79147
0.756893 0.359594 0.80705
0.841016 0.441321 0.826215
0.135988 0.336355 0.854932
0.370489 0.352651 0.843214
0.650919 0.381918 0.836118
0.773739 0.43093 0.841611
0.858869 0.531914 0.852918
0.223682 0.573632 0.927016
0.298283 0.595132 0.913603
0.616251 0.61709 0.90486
0.788556 0.648356 0.904295
0.879316 0.691646 0.904448
0.310185 0.716472 0.966232
0.35317 0.741299 0.992798
0.573907 0.758328 0.932433
0.769696 0.795758 0.922133
0.877165 0.813626 0.919264
0.389975 0.779141 0.867857
0.429313 0.801953 0.879026
0.53962 0.839841 0.931609
0.705623 0.881392 0.948989
0.861677 0.907881 0.942061
