creative/lut-kodak-5219-cool.cube
TITLE "Generated by Resolve"
LUT_3D_SIZE 5
0 0 0.00784314
0.199695 0.00428778 0.000366217
0.493935 0.0156252 0
0.479194 0.19292 0.00015259
0.619608 0.294118 0
0.0184482 0.197101 0.219547
0.295811 0.259342 0.123796
0.60264 0.289586 0.0578012
0.719661 0.407279 0.0118563
0.811215 0.499931 0.0343786
0.0122683 0.518441 0.465705
0.180133 0.590158 0.502052
0.606073 0.578332 0.348821
0.80557 0.611826 0.245594
0.900801 0.679728 0.235431
0.172656 0.690684 0.666896
0.357321 0.746166 0.69752
0.65774 0.766369 0.554177
0.862226 0.787945 0.477302
0.940795 0.83299 0.527977
0.373587 0.823957 0.805844
0.501854 0.885435 0.825071
0.700023 0.910948 0.817563
0.965743 0.917357 0.530678
0.975525 0.951522 0.746639
0.0053254 0.00251774 0.0481575
0.116457 0.0456703 0.0688945
0.492973 0.0538643 0.0343938
0.5664 0.206073 0.000137331
0.684779 0.308598 0.0413062
0.0187991 0.242969 0.347448
0.259678 0.305333 0.347997
0.608347 0.335836 0.140978
0.732692 0.437736 0.0861067
0.821317 0.52047 0.16759
0.0419318 0.534813 0.569833
0.226032 0.60444 0.585641
0.6121 0.607507 0.456199
0.804166 0.638804 0.394415
0.900465 0.703746 0.390845
0.20177 0.711696 0.7196
0.381445 0.773327 0.72076
0.633814 0.80209 0.660471
0.842588 0.81854 0.629374
0.934096 0.857389 0.65214
0.413809 0.844511 0.840146
0.530556 0.904921 0.856687
0.697902 0.933822 0.85536
0.936706 0.936736 0.716136
0.981598 0.967819 0.811093
0.00247196 0.0142367 0.243336
0.0702678 0.0794842 0.379553
0.417624 0.0918898 0.390845
0.549691 0.226383 0.290211
0.652583 0.352941 0.267063
0.030869 0.26154 0.554147
0.234928 0.344442 0.557733
0.517037 0.390127 0.524834
0.69456 0.470298 0.451225
0.784344 0.554421 0.472938
0.113832 0.535653 0.671275
0.248173 0.613703 0.727871
0.588495 0.635004 0.653376
0.788495 0.671214 0.57055
0.870436 0.72961 0.608026
0.310063 0.704494 0.795178
0.427085 0.783169 0.812451
0.623972 0.822187 0.795331
0.837446 0.842252 0.73019
0.924407 0.879896 0.761685
0.491539 0.847807 0.899123
0.578408 0.910307 0.911299
0.725216 0.947005 0.886854
0.907744 0.96083 0.834058
0.974411 0.984833 0.890669
0.0137179 0.0281376 0.43006
0.137682 0.0792706 0.513954
0.41799 0.102464 0.634226
0.565362 0.211505 0.612039
0.650004 0.368246 0.569436
0.0166476 0.309194 0.654383
0.259297 0.370657 0.665904
0.555962 0.379568 0.734127
0.700084 0.464897 0.709484
0.767254 0.565209 0.689799
0.148028 0.551995 0.752728
0.310155 0.624857 0.800031
0.596521 0.65185 0.784146
0.768322 0.690227 0.756741
0.876814 0.740719 0.771252
0.359976 0.71931 0.850156
0.470161 0.785779 0.887175
0.639963 0.833158 0.880232
0.838285 0.85716 0.837186
0.927108 0.901579 0.877775
0.581872 0.844938 0.931273
0.638163 0.911391 0.955901
0.760937 0.95137 0.939422
0.920073 0.968139 0.925765
0.979156 0.991623 0.95819
0.0108797 0.0547494 0.478264
0.181613 0.118318 0.545464
0.450095 0.145144 0.650339
0.58555 0.26392 0.662394
0.658549 0.392523 0.6822
0.0664836 0.344579 0.65391
0.322438 0.389731 0.727031
0.569253 0.413581 0.801236
0.728206 0.474647 0.822202
0.783658 0.590738 0.804181
0.200748 0.580041 0.777142
0.37763 0.647318 0.820417
0.621683 0.66714 0.845914
0.792416 0.697368 0.853773
0.875563 0.758679 0.876005
0.429587 0.733455 0.877577
0.528038 0.800992 0.919356
0.684764 0.844816 0.933837
0.851514 0.876554 0.903502
0.931365 0.912428 0.928374
0.635813 0.854841 0.930282
0.704158 0.914107 0.963775
0.811353 0.95172 0.978378
0.934478 0.977005 0.978836
0.997803 0.999908 0.991135
