creative/lut-cuisine.cube
TITLE "Generated by Resolve"
LUT_3D_SIZE 33
0 0 0
0.0325628 0 0
0.0660868 0 0
0.0986648 0 0
0.130724 0 0
0.162768 0 0
0.194812 0 0
0.226871 0 0
0.258915 0 0
0.290974 0 0
0.323018 0 0
0.355062 0 0
0.387121 0 0
0.419165 0 0
0.451225 0 0
0.483268 0 0
0.515312 0 0
0.547372 0 0
0.579416 0 0
0.611475 0 0
0.643519 0 0
0.675563 0 0
0.707622 0 0
0.739666 0 0
0.77171 0 0
0.803769 0 0
0.835813 0 0
0.867872 0 0
0.899916 0 0
0.93196 0 0
0.964019 0 0
0.996063 0 0
1 0 0
0.0037995 0.0303655 0
0.0370031 0.0298772 0
0.0701915 0.0293736 0
0.102403 0.0288853 0
0.133928 0.0283055 0
0.165621 0.0276188 0
0.197299 0.0268406 0
0.229053 0.0259403 0
0.260884 0.0249332 0
0.292744 0.0238041 0
0.32462 0.0225681 0
0.356542 0.02121 0
0.388479 0.0197147 0
0.420417 0.0181125 0
0.452369 0.0164034 0
0.484367 0.0145113 0
0.516365 0.0124971 0
0.548318 0.0104219 0
0.580331 0.00813306 0
0.612345 0.00573739 0
0.644312 0.00325017 0
0.676326 0.000595102 0
0.708354 0 0
0.740353 0 0
0.772366 0 0
0.80444 0 0
0.836423 0 0
0.868452 0 0
0.900526 0 0
0.93254 0 0
0.964553 0 0
0.996628 0 0
1 0 0
0.00759899 0.0607462 0
0.0408179 0.0602426 0
0.0740063 0.0597543 0
0.105714 0.059266 0
0.136751 0.0586709 0
0.168032 0.0579843 0
0.199512 0.0571908 0
0.231128 0.0562753 0
0.262791 0.0552529 0
0.294469 0.0541238 0
0.326192 0.0528878 0
0.357992 0.0515145 0
0.389822 0.0500191 0
0.421653 0.0484169 0
0.453559 0.0466621 0
0.485435 0.0448157 0
0.517342 0.0428321 0
0.549294 0.0406653 0
0.581247 0.038407 0
0.613169 0.0360571 0
0.645167 0.0334783 0
0.677073 0.0309148 0
0.709072 0.0280919 0
0.741054 0.0251316 0
0.773083 0.0219883 0
0.805035 0.0188449 0
0.837049 0.0154421 0
0.869047 0.0119173 0
0.901061 0.00825513 0
0.933074 0.00442512 0
0.965057 0.000564584 0
0.997131 0 0
1 0 0
0.0114443 0.09131 0
0.0446479 0.090837 0
0.0778515 0.0903639 0
0.108995 0.0899062 0
0.139498 0.0893416 0
0.170428 0.0886854 0
0.201602 0.0879225 0
0.232975 0.0870375 0
0.264485 0.0860456 0
0.296117 0.0849165 0
0.327794 0.0836805 0
0.359426 0.0823377 0
0.39115 0.0805982 0
0.422904 0.0789807 0
0.454704 0.0772412 0
0.486519 0.0753643 0
0.518349 0.0733959 0
0.550195 0.0713054 0
0.582116 0.0690166 0
0.614023 0.0666056 0
0.645914 0.0641184 0
0.677867 0.0614328 0
0.709834 0.0585641 0
0.741772 0.0556497 0
0.773724 0.0525978 0
0.805676 0.0493935 0
0.837644 0.0460059 0
0.869612 0.0425269 0
0.90164 0.0387579 0
0.933593 0.0350652 0
0.96556 0.0311742 0
0.997589 0.026978 0
1 0.0227512 0
0.0159762 0.122164 0
0.0492103 0.121767 0
0.0826581 0.121386 0
0.112764 0.120989 0
0.142733 0.120516 0
0.173205 0.119982 0
0.204044 0.119341 0
0.235142 0.118608 0
0.266423 0.1178 0
0.297841 0.116884 0
0.329397 0.115846 0
0.361028 0.114702 0
0.392706 0.113481 0
0.424353 0.112139 0
0.456062 0.110689 0
0.487785 0.109133 0
0.51957 0.107439 0
0.551369 0.105623 0
0.583215 0.103639 0
0.615 0.101656 0
0.646906 0.0993362 0
0.678767 0.0969711 0
0.710689 0.0943923 0
0.742596 0.0916609 0
0.774517 0.0887617 0
0.806424 0.0857099 0
0.838346 0.0824292 0
0.870344 0.0785687 0
0.902235 0.0750439 0
0.934264 0.0710918 0
0.966247 0.0670939 0
0.998154 0.0631876 0
1 0.0587778 0
0.0213474 0.153017 0
0.0545968 0.152682 0
0.087892 0.152346 0
0.117174 0.15201 0
0.146456 0.151629 0
0.176471 0.151141 0
0.206882 0.150622 0
0.237659 0.150011 0
0.268727 0.149294 0
0.299931 0.148516 0
0.331289 0.147646 0
0.362753 0.146685 0
0.394324 0.145632 0
0.42594 0.144503 0
0.457633 0.143267 0
0.489265 0.14197 0
0.520974 0.140536 0
0.552728 0.138979 0
0.584421 0.137423 0
0.616205 0.135683 0
0.64802 0.133837 0
0.679866 0.131853 0
0.711727 0.129747 0
0.743572 0.12755 0
0.775418 0.125246 0
0.807324 0.122744 0
0.839246 0.120058 0
0.871122 0.117357 0
0.903075 0.114321 0
0.934997 0.111238 0
0.966934 0.107912 0
0.998886 0.104402 0
1 0.100618 0
0.0276036 0.183871 0
0.060853 0.183581 0
0.0937819 0.183291 0
0.122148 0.183001 0
0.150729 0.182666 0
0.180148 0.182254 0
0.210193 0.181781 0
0.240604 0.181247 0
0.271336 0.180636 0
0.302327 0.179965 0
0.333471 0.179202 0
0.364767 0.178378 0
0.396139 0.177493 0
0.42768 0.176486 0
0.459266 0.175418 0
0.490898 0.174273 0
0.522545 0.173083 0
0.554223 0.17174 0
0.585824 0.170413 0
0.617594 0.168887 0
0.649332 0.167315 0
0.681086 0.165667 0
0.712871 0.163912 0
0.744656 0.162066 0
0.776547 0.160006 0
0.808377 0.157946 0
0.840208 0.155779 0
0.872068 0.15349 0
0.903975 0.151019 0
0.935897 0.148409 0
0.967788 0.145739 0
0.99971 0.142901 0
1 0.139986 0
0.0347448 0.214725 0
0.0680247 0.214466 0
0.100206 0.214221 0
0.127596 0.213962 0
0.155474 0.213657 0
0.184329 0.213306 0
0.21384 0.212894 0
0.243915 0.212406 0
0.274281 0.211887 0
0.305013 0.211276 0
0.335943 0.21062 0
0.367025 0.209888 0
0.398245 0.20911 0
0.429633 0.208225 0
0.461021 0.207324 0
0.492576 0.206302 0
0.524163 0.205234 0
0.555779 0.204089 0
0.587472 0.202853 0
0.61912 0.201572 0
0.650782 0.200198 0
0.682521 0.198718 0
0.714244 0.197192 0
0.745968 0.195605 0
0.777768 0.193866 0
0.809537 0.192111 0
0.841276 0.190311 0
0.873167 0.188251 0
0.905043 0.18613 0
0.936843 0.184039 0
0.968734 0.18172 0
1 0.179294 0
1 0.17673 0
0.0428016 0.245594 0
0.0760967 0.24535 0
0.10721 0.245136 0
0.133593 0.244907 0
0.160739 0.244617 0
0.188952 0.244312 0
0.217899 0.243946 0
0.247562 0.243519 0
0.277653 0.24303 0
0.308019 0.242512 0
0.338704 0.241917 0
0.369558 0.241276 0
0.40061 0.240574 0
0.4318 0.239796 0
0.463127 0.238956 0
0.494499 0.238071 0
0.525917 0.237156 0
0.557519 0.236088 0
0.589105 0.235004 0
0.620722 0.23386 0
0.652384 0.232654 0
0.684031 0.231388 0
0.715755 0.229984 0
0.747387 0.228611 0
0.779171 0.227039 0
0.810864 0.225498 0
0.842634 0.223835 0
0.874357 0.222171 0
0.906172 0.220356 0
0.938033 0.218387 0
0.969833 0.216434 0
1 0.214389 0
1 0.2121 0
0.0517891 0.276448 0
0.0852522 0.276234 0
0.114687 0.276036 0
0.140063 0.275822 0
0.166369 0.275593 0
0.193973 0.275288 0
0.222461 0.274952 0
0.251591 0.274571 0
0.28127 0.274144 0
0.311345 0.273671 0
0.341726 0.273136 0
0.372381 0.272557 0
0.403204 0.271916 0
0.434211 0.271244 0
0.465385 0.270481 0
0.49659 0.269688 0
0.527916 0.268849 0
0.559335 0.267933 0
0.590845 0.266941 0
0.622354 0.265934 0
0.653986 0.26482 0
0.685664 0.263645 0
0.717296 0.262455 0
0.749035 0.261112 0
0.780652 0.259815 0
0.812329 0.258412 0
0.844038 0.256931 0
0.8757 0.255451 0
0.9075 0.253803 0
0.9393 0.252079 0
0.971069 0.25034 0
1 0.248524 0
1 0.246586 0
0.0617227 0.307301 0
0.0945754 0.307118 0
0.122713 0.306905 0
0.147066 0.306722 0
0.172534 0.306508 0
0.199405 0.306249 0
0.227314 0.305943 0
0.256001 0.305592 0
0.285267 0.305211 0
0.314992 0.304768 0
0.345068 0.304295 0
0.375448 0.303761 0
0.406027 0.303197 0
0.436866 0.302571 0
0.467826 0.3019 0
0.498924 0.301167 0
0.530098 0.300404 0
0.561395 0.29958 0
0.592813 0.29868 0
0.624262 0.297734 0
0.655741 0.296773 0
0.687266 0.295735 0
0.718929 0.294606 0
0.750515 0.293492 0
0.782238 0.292226 0
0.813886 0.290974 0
0.845518 0.289662 0
0.877226 0.288243 0
0.908934 0.286793 0
0.940612 0.285313 0
0.972366 0.283726 0
1 0.282109 0
1 0.280385 0
0.0726177 0.338155 0
0.104372 0.337972 0
0.130861 0.337819 0
0.154406 0.337636 0
0.178988 0.337453 0
0.205188 0.337209 0
0.232532 0.336919 0
0.260731 0.336599 0
0.289509 0.336263 0
0.318868 0.335866 0
0.348669 0.335409 0
0.37879 0.33492 0
0.409171 0.334401 0
0.439796 0.333806 0
0.470497 0.333227 0
0.501442 0.332555 0
0.532509 0.331838 0
0.563622 0.331106 0
0.594934 0.330282 0
0.626261 0.329427 0
0.657664 0.328527 0
0.689113 0.327596 0
0.720653 0.326574 0
0.752239 0.325505 0
0.783871 0.324376 0
0.815473 0.323247 0
0.847166 0.322011 0
0.878859 0.320745 0
0.91046 0.319448 0
0.942214 0.318013 0
0.973846 0.316625 0
1 0.315114 0
1 0.313634 0
0.0847181 0.369009 0
0.114366 0.368841 0
0.139635 0.368688 0
0.162112 0.368536 0
0.185977 0.368353 0
0.211398 0.368139 0
0.238148 0.367864 0
0.265736 0.36759 0
0.294163 0.367254 0
0.323171 0.366888 0
0.352605 0.366476 0
0.382391 0.366049 0
0.412558 0.365545 0
0.442832 0.365042 0
0.473442 0.364462 0
0.504204 0.363851 0
0.535119 0.363195 0
0.566125 0.362493 0
0.597253 0.361761 0
0.628443 0.360998 0
0.659785 0.360143 0
0.691096 0.359289 0
0.72256 0.358358 0
0.75404 0.357382 0
0.785595 0.356359 0
0.817136 0.355322 0
0.848737 0.354208 0
0.880369 0.353063 0
0.912047 0.351843 0
0.943801 0.350515 0
0.975418 0.349233 0
1 0.34786 0
1 0.34641 0
0.0968338 0.399863 0
0.124575 0.39971 0
0.148608 0.399558 0
0.170138 0.39942 0
0.193164 0.399268 0
0.218006 0.399054 0
0.24416 0.398795 0
0.271275 0.398535 0
0.299107 0.398245 0
0.327672 0.39791 0
0.356725 0.397543 0
0.386282 0.397116 0
0.416144 0.396658 0
0.446281 0.39617 0
0.4766 0.395666 0
0.507149 0.395102 0
0.537835 0.394507 0
0.568734 0.393851 0
0.599664 0.393194 0
0.630793 0.392462 0
0.661982 0.391684 0
0.693248 0.390875 0
0.724575 0.390021 0
0.756024 0.389105 0
0.787427 0.388205 0
0.818921 0.387213 0
0.850492 0.38616 0
0.882033 0.385122 0
0.91368 0.383978 0
0.945342 0.382803 0
0.976989 0.381613 0
1 0.380301 0
1 0.378988 0
0.108949 0.430732 0
0.134905 0.430594 0
0.157839 0.430442 0
0.1785 0.43032 0
0.200839 0.430152 0
0.224918 0.429953 0
0.250401 0.42974 0
0.276967 0.42948 0
0.304417 0.429206 0
0.332509 0.428901 0
0.361257 0.42855 0
0.390417 0.428168 0
0.420005 0.427741 0
0.449882 0.427283 0
0.479957 0.42681 0
0.510307 0.426291 0
0.540871 0.425727 0
0.571557 0.425132 0
0.602396 0.424491 0
0.63331 0.423835 0
0.664454 0.423087 0
0.695583 0.422354 0
0.726818 0.421561 0
0.758099 0.420737 0
0.78941 0.419898 0
0.82092 0.418936 0
0.852308 0.418036 0
0.883848 0.417014 0
0.915343 0.416007 0
0.946929 0.414939 0
0.978607 0.413764 0
1 0.412589 0
1 0.411429 0
0.12105 0.461585 0
0.145586 0.461448 0
0.167132 0.461341 0
0.187152 0.461204 0
0.208759 0.461036 0
0.232044 0.460883 0
0.256931 0.46067 0
0.282933 0.460441 0
0.309895 0.460166 0
0.337652 0.459876 0
0.366003 0.459541 0
0.394827 0.45919 0
0.424033 0.458808 0
0.453727 0.458366 0
0.483528 0.457938 0
0.51368 0.457435 0
0.54403 0.456916 0
0.574594 0.456352 0
0.605234 0.455772 0
0.636103 0.455116 0
0.666987 0.454475 0
0.698009 0.453773 0
0.729122 0.45304 0
0.760327 0.452277 0
0.791623 0.451453 0
0.822919 0.450614 0
0.854353 0.449699 0
0.885771 0.448783 0
0.917205 0.447852 0
0.94876 0.44683 0
0.980316 0.445777 0
1 0.444724 0
1 0.443549 0
0.133165 0.492439 0
0.156268 0.492317 0
0.177035 0.49218 0
0.196155 0.492073 0
0.216846 0.491951 0
0.239597 0.491768 0
0.263783 0.491585 0
0.289265 0.491371 0
0.315816 0.491096 0
0.343053 0.490837 0
0.371023 0.490517 0
0.399496 0.490196 0
0.428428 0.48983 0
0.457755 0.489433 0
0.487343 0.489021 0
0.51725 0.488563 0
0.547417 0.488075 0
0.577752 0.487556 0
0.608286 0.486992 0
0.638941 0.486397 0
0.669718 0.485786 0
0.700603 0.48513 0
0.731609 0.484459 0
0.762692 0.483726 0
0.793851 0.482979 0
0.825147 0.482155 0
0.856428 0.481331 0
0.887739 0.480491 0
0.919142 0.479591 0
0.950652 0.478614 0
0.982055 0.477699 0
1 0.476631 0
1 0.475593 0
0.145281 0.523293 0
0.167193 0.523171 0
0.186999 0.523049 0
0.205264 0.522957 0
0.225376 0.52282 0
0.247471 0.522652 0
0.271 0.522484 0
0.295903 0.522271 0
0.321828 0.522057 0
0.348638 0.521798 0
0.376211 0.521508 0
0.404395 0.521172 0
0.432975 0.520836 0
0.461997 0.52047 0
0.491371 0.520073 0
0.521065 0.519646 0
0.551003 0.519188 0
0.581201 0.518685 0
0.611429 0.518196 0
0.641932 0.517632 0
0.672648 0.517021 0
0.703441 0.516411 0
0.734234 0.515785 0
0.765225 0.515114 0
0.796323 0.514382 0
0.827512 0.513619 0
0.85864 0.512871 0
0.889937 0.512047 0
0.921263 0.511193 0
0.952621 0.510338 0
0.98407 0.509407 0
1 0.508461 0
1 0.507454 0
0.157397 0.554147 0
0.178164 0.554025 0
0.196918 0.553933 0
0.214588 0.553826 0
0.234073 0.553704 0
0.255497 0.553552 0
0.278431 0.553384 0
0.3028 0.553185 0
0.328267 0.552972 0
0.35465 0.552712 0
0.381811 0.552438 0
0.409506 0.552163 0
0.437705 0.551858 0
0.466514 0.551492 0
0.495628 0.55111 0
0.525032 0.550713 0
0.554803 0.550271 0
0.58471 0.549813 0
0.614862 0.549325 0
0.645182 0.548806 0
0.675654 0.548272 0
0.706325 0.547662 0
0.737133 0.547036 0
0.767926 0.546426 0
0.79881 0.545785 0
0.829953 0.545037 0
0.861021 0.54432 0
0.892149 0.543587 0
0.923506 0.542733 0
0.954742 0.541924 0
0.98616 0.541039 0
1 0.540169 0
1 0.539284 0
0.169512 0.585 0
0.189181 0.584894 0
0.207263 0.584802 0
0.22417 0.58471 0
0.243122 0.584558 0
0.26363 0.584451 0
0.286168 0.584283 0
0.310018 0.584085 0
0.334844 0.583902 0
0.360845 0.583642 0
0.387457 0.583413 0
0.414923 0.583108 0
0.442817 0.582818 0
0.47126 0.582483 0
0.500099 0.582132 0
0.529244 0.58175 0
0.558694 0.581353 0
0.588464 0.580911 0
0.618448 0.580438 0
0.648585 0.57995 0
0.678935 0.579431 0
0.709453 0.578866 0
0.739956 0.578332 0
0.770733 0.577707 0
0.801587 0.577066 0
0.832486 0.57641 0
0.863554 0.575692 0
0.894621 0.57499 0
0.92575 0.574258 0
0.95697 0.573465 0
0.988251 0.572656 0
1 0.571817 0
1 0.570916 0
0.181613 0.615869 0
0.200336 0.615763 0
0.217716 0.615656 0
0.233997 0.615564 0
0.252155 0.615457 0
0.27216 0.615335 0
0.294118 0.615167 0
0.31722 0.615015 0
0.341711 0.614801 0
0.367132 0.614588 0
0.3935 0.614328 0
0.420417 0.614084 0
0.448066 0.613794 0
0.476127 0.613489 0
0.504799 0.613123 0
0.533639 0.612787 0
0.562905 0.61239 0
0.592401 0.611978 0
0.622126 0.611551 0
0.65214 0.611078 0
0.682368 0.610559 0
0.712627 0.610071 0
0.743023 0.609552 0
0.773754 0.608927 0
0.80441 0.608347 0
0.835248 0.607706 0
0.866133 0.607065 0
0.897215 0.606348 0
0.928206 0.605661 0
0.959365 0.604898 0
0.990494 0.604166 0
1 0.603372 0
1 0.602487 0
0.193729 0.646723 0
0.211582 0.646616 0
0.228092 0.64654 0
0.243977 0.646433 0
0.26154 0.646326 0
0.280995 0.646204 0
0.302235 0.646052 0
0.324971 0.645884 0
0.348791 0.645716 0
0.373816 0.645502 0
0.399649 0.645274 0
0.426246 0.645029 0
0.45359 0.644739 0
0.481392 0.644434 0
0.509529 0.644144 0
0.53817 0.643809 0
0.567315 0.643397 0
0.596567 0.643015 0
0.626062 0.642618 0
0.655879 0.642176 0
0.685863 0.641703 0
0.716106 0.641184 0
0.746349 0.640696 0
0.776883 0.640131 0
0.807309 0.639612 0
0.838041 0.639002 0
0.868894 0.638361 0
0.899763 0.63772 0
0.930785 0.637018 0
0.961807 0.636332 0
0.99292 0.635599 0
1 0.634852 0
1 0.634043 0
0.205844 0.677577 0
0.222965 0.67747 0
0.238758 0.677394 0
0.253925 0.677317 0
0.270863 0.677211 0
0.289998 0.677073 0
0.310536 0.676951 0
0.33283 0.676783 0
0.356176 0.676616 0
0.380667 0.676417 0
0.406134 0.676188 0
0.43241 0.675944 0
0.459113 0.675715 0
0.486763 0.675395 0
0.514611 0.67512 0
0.543053 0.674784 0
0.571832 0.674418 0
0.6009 0.674052 0
0.630213 0.673655 0
0.65977 0.673243 0
0.689509 0.672831 0
0.719615 0.672328 0
0.749752 0.671839 0
0.780102 0.671305 0
0.810559 0.670771 0
0.841123 0.670207 0
0.871809 0.669612 0
0.902617 0.668986 0
0.933394 0.668376 0
0.964355 0.667704 0
0.995407 0.667002 0
1 0.66627 0
1 0.665507 0
0.21796 0.708431 0
0.234348 0.708324 0
0.249546 0.708263 0
0.264118 0.708186 0
0.280461 0.708095 0
0.298939 0.707973 0
0.31899 0.707851 0
0.340825 0.707668 0
0.363684 0.707515 0
0.387717 0.707332 0
0.412787 0.707118 0
0.438651 0.706874 0
0.46511 0.706645 0
0.492226 0.706371 0
0.519921 0.706081 0
0.548028 0.70576 0
0.576516 0.705425 0
0.605295 0.705089 0
0.634531 0.704677 0
0.66389 0.70428 0
0.693462 0.703883 0
0.723369 0.70341 0
0.753323 0.702953 0
0.783475 0.702464 0
0.813748 0.701961 0
0.844266 0.701396 0
0.87483 0.700832 0
0.905531 0.700236 0
0.936355 0.699596 0
0.967071 0.699016 0
0.998001 0.69836 0
1 0.697627 0
1 0.696925 0
0.230076 0.739284 0
0.245563 0.739208 0
0.260365 0.739116 0
0.274434 0.739055 0
0.29044 0.738949 0
0.308156 0.738857 0
0.327871 0.738705 0
0.348943 0.738582 0
0.371496 0.738399 0
0.395102 0.738216 0
0.419608 0.738033 0
0.445075 0.737804 0
0.471229 0.737575 0
0.498054 0.737316 0
0.525444 0.737026 0
0.553231 0.736736 0
0.58143 0.736416 0
0.609995 0.73608 0
0.638788 0.735744 0
0.66807 0.735332 0
0.697505 0.734936 0
0.72723 0.734493 0
0.757015 0.734051 0
0.78706 0.733577 0
0.817288 0.733074 0
0.847593 0.732555 0
0.878065 0.732006 0
0.908537 0.731472 0
0.939208 0.730877 0
0.969879 0.730297 0
1 0.72961 0
1 0.729 0
1 0.728283 0
0.242176 0.770138 0
0.257206 0.770062 0
0.271168 0.770001 0
0.284993 0.769894 0
0.300298 0.769818 0
0.317586 0.769726 0
0.336751 0.769589 0
0.357351 0.769467 0
0.379385 0.769299 0
0.402564 0.769116 0
0.426719 0.768933 0
0.451713 0.768734 0
0.47744 0.768521 0
0.503975 0.768261 0
0.531014 0.767987 0
0.558465 0.767727 0
0.58645 0.767407 0
0.614816 0.767071 0
0.64358 0.76672 0
0.672465 0.766369 0
0.701732 0.765972 0
0.731182 0.765576 0
0.760876 0.765133 0
0.790799 0.764675 0
0.820783 0.764202 0
0.850935 0.763729 0
0.881346 0.763165 0
0.911635 0.762676 0
0.942199 0.762112 0
0.972778 0.761563 0
1 0.760906 0
1 0.760296 0
1 0.759625 0
0.254292 0.801007 0
0.268727 0.800916 0
0.2822 0.800855 0
0.295521 0.800763 0
0.310353 0.800687 0
0.327077 0.80061 0
0.345785 0.800473 0
0.365942 0.800351 0
0.387457 0.800198 0
0.409979 0.800061 0
0.433722 0.799878 0
0.458564 0.799649 0
0.484016 0.79942 0
0.510109 0.799191 0
0.536904 0.798917 0
0.564157 0.798642 0
0.591821 0.798352 0
0.619745 0.798077 0
0.648264 0.797726 0
0.677119 0.79736 0
0.706096 0.796994 0
0.735424 0.796597 0
0.764889 0.796201 0
0.794614 0.795758 0
0.824506 0.7953 0
0.854398 0.794873 0
0.884657 0.794354 0
0.914961 0.793835 0
0.945342 0.793317 0
0.975937 0.792737 0
1 0.792157 0
1 0.791531 0
1 0.790982 0
0.266407 0.831861 0
0.280232 0.831785 0
0.293538 0.831693 0
0.306065 0.831647 0
0.320623 0.831556 0
0.336996 0.831449 0
0.35494 0.831357 0
0.374731 0.83122 0
0.395789 0.831083 0
