creative/lut-icy-blue.cube
TITLE "Generated by Resolve"
LUT_3D_SIZE 5
0.00178531 0.00178531 0.0446021
0.152743 0.00357061 0.0450599
0.384009 0.0133822 0.0767224
0.604578 0.0374762 0.112856
0.75555 0.0963455 0.157015
0.0102541 0.167025 0.0588846
0.158328 0.177172 0.0647898
0.405875 0.213199 0.104829
0.612161 0.233707 0.137057
0.766262 0.274083 0.172625
0.0597696 0.415244 0.12668
0.196246 0.415686 0.125566
0.401419 0.444236 0.15613
0.617288 0.477028 0.196048
0.7832 0.490181 0.215015
0.128923 0.638483 0.211887
0.25803 0.640604 0.213107
0.421714 0.645396 0.218585
0.621088 0.672709 0.251255
0.810864 0.709407 0.282811
0.206973 0.860822 0.321172
0.342779 0.866178 0.324742
0.491081 0.867964 0.329213
0.660777 0.882231 0.345708
0.826917 0.894728 0.367575
0.00134279 0.00357061 0.233494
0.144167 0.00512703 0.237385
0.388251 0.0171817 0.263157
0.596429 0.0379187 0.287358
0.750637 0.0999161 0.332525
0.00669871 0.186877 0.250889
0.161471 0.191608 0.26154
0.40058 0.203662 0.276982
0.601404 0.231006 0.303639
0.757778 0.275196 0.345785
0.0666819 0.438209 0.317128
0.208225 0.435767 0.318639
0.403418 0.453162 0.335424
0.613886 0.476738 0.362356
0.777859 0.488182 0.378012
0.125353 0.643946 0.381918
0.258854 0.64625 0.382361
0.421592 0.645167 0.3832
0.616205 0.675669 0.412589
0.807965 0.711299 0.442359
0.205203 0.860822 0.474372
0.341878 0.866957 0.477943
0.492638 0.87042 0.475929
0.66067 0.882567 0.492332
0.825589 0.894286 0.510063
0 0.0258793 0.543709
0.136461 0.0294347 0.549294
0.354574 0.0517433 0.564233
0.586069 0.106615 0.573816
0.737713 0.143633 0.603479
0.00535592 0.208515 0.535683
0.13669 0.222171 0.554635
0.368521 0.248325 0.567239
0.584558 0.285847 0.583642
0.73994 0.303075 0.596353
0.0178378 0.465644 0.570916
0.173053 0.47335 0.583185
0.390036 0.472343 0.585641
0.586847 0.47892 0.590997
0.751095 0.494636 0.600809
0.132708 0.663676 0.597681
0.263706 0.671046 0.607172
0.415793 0.662898 0.596017
0.608423 0.683818 0.609903
0.79971 0.711864 0.633158
0.206973 0.869749 0.641855
0.335637 0.873976 0.645411
0.48661 0.874205 0.643641
0.653651 0.884016 0.651209
0.825132 0.898299 0.669505
0.000885023 0.0682536 0.769177
0.136248 0.078294 0.771298
0.295018 0.11107 0.778775
0.553719 0.159579 0.793378
0.727001 0.20029 0.829404
0.00691234 0.256794 0.767727
0.139178 0.268223 0.777234
0.329152 0.294484 0.782727
0.556924 0.327474 0.796979
0.734356 0.365301 0.820813
0.0153964 0.462745 0.768963
0.141817 0.474235 0.783062
0.369406 0.492195 0.792828
0.580545 0.516442 0.801465
0.757549 0.550622 0.823606
0.114199 0.680751 0.795834
0.253193 0.688945 0.805478
0.431296 0.698024 0.811048
0.608011 0.699901 0.807599
0.78265 0.706615 0.813001
0.215457 0.882231 0.816464
0.340215 0.884016 0.823484
0.490623 0.885359 0.823148
0.648188 0.884459 0.818357
0.821118 0.901869 0.825833
0 0.171298 0.962524
0.138918 0.177981 0.963867
0.334051 0.198062 0.965209
0.551049 0.225711 0.973678
0.71986 0.260517 0.998215
0.00669871 0.337865 0.963424
0.154192 0.341772 0.967437
0.353231 0.355047 0.96878
0.565316 0.380362 0.973007
0.731014 0.411475 0.993759
0.0526436 0.508919 0.964309
0.196246 0.515831 0.975021
0.392935 0.525872 0.975021
0.58851 0.547951 0.980819
0.753765 0.571374 0.991974
0.105714 0.684871 0.966995
0.244755 0.693675 0.981262
0.414801 0.697368 0.978363
0.613504 0.717998 0.98584
0.786328 0.737057 0.993301
0.205203 0.882231 0.987503
0.337423 0.888029 0.989288
0.493751 0.893828 0.993759
0.655879 0.901869 0.998215
0.814435 0.903655 0.992859
