creative/lut-kodak-5219-warm.cube
TITLE "Generated by Resolve"
LUT_3D_SIZE 33
0 0 0.00784314
0 0 0.00227359
0.00192264 0.00192264 0.00192264
0.00392157 0.00607309 0.0049897
0.00585946 0.0119783 0.00827039
0.0335699 0.0150607 0.014435
0.0854963 0.0132448 0.0108186
0.150362 0.00857557 0.004654
0.22118 0.00317388 0.000747692
0.291997 9.15541e-05 0.00383001
0.33315 0 0.000915541
0.375341 0 0
0.413016 0.00260929 0.00129702
0.442893 0.00784314 0.0034638
0.467521 0.00784314 0.000381476
0.486763 0.0132296 0
0.495979 0.0269017 0.0018616
0.494957 0.0464027 0.00392157
0.486107 0.0678416 0.00392157
0.483009 0.0895094 0.00392157
0.467826 0.118318 0.00149538
0.463554 0.147539 0
0.472053 0.173037 0
0.478248 0.191608 0
0.493446 0.207172 0.00300603
0.513161 0.220401 0.00175479
0.536034 0.231403 0
0.560189 0.241596 0
0.581735 0.256992 0
0.595224 0.27245 0
0.609491 0.28603 0
0.619608 0.294118 0
0.619608 0.294118 0
0.00047303 0.00296025 0.0150301
0.00660716 0.00708019 0.00509651
0.0120089 0.0120089 0.00984207
0.0166934 0.0175784 0.0191196
0.0243381 0.0234379 0.025803
0.047715 0.0285954 0.0214542
0.11043 0.0224308 0.0154421
0.185077 0.0158694 0.010605
0.256779 0.0108186 0.00834669
0.314107 0.00830091 0.00860609
0.362081 0.0123751 0.00140383
0.402655 0.0131685 0.00331121
0.438117 0.0141604 0.00900282
0.468788 0.0171817 0.0115358
0.493416 0.0233158 0.000274662
0.508125 0.0274968 0
0.520165 0.0402533 0.00361639
0.524102 0.0597086 0.00561532
0.518395 0.0844892 0.00424201
0.511131 0.115938 0.00624094
0.497307 0.1449 0.00196841
0.492653 0.173449 0
0.498253 0.198505 0
0.512688 0.21799 0.000228885
0.533761 0.227344 0.00331121
0.553445 0.239002 0.00302129
0.572412 0.250614 0.00349432
0.591257 0.26273 0.00440986
0.611154 0.278325 0.00250248
0.625299 0.291707 0.000549325
0.638819 0.305608 0
0.646067 0.313359 0
0.645899 0.313237 0
0.00910964 0.0113375 0.021973
0.0157473 0.0173953 0.0172427
0.020737 0.0255436 0.0261387
0.0283665 0.03122 0.0376898
0.0431678 0.0365911 0.0442206
0.0706798 0.0463417 0.0361486
0.137896 0.0372015 0.0288701
0.218936 0.0302434 0.0210117
0.29131 0.0247959 0.0170596
0.345037 0.0217594 0.0174868
0.395987 0.0254063 0.0142519
0.432074 0.0268711 0.0150759
0.465309 0.0280156 0.0189822
0.495033 0.031632 0.0189364
0.517769 0.0395361 0.00909438
0.534859 0.0473793 0.00909438
0.549462 0.0601968 0.00639353
0.555642 0.0797742 0.00386053
0.55256 0.106828 0.00294499
0.543084 0.141543 0.00489815
0.52987 0.171725 0.00111391
0.526879 0.199176 0.00163272
0.534585 0.222446 0.00189212
0.551614 0.240238 0.000320439
0.573831 0.250736 0.00230411
0.592569 0.26273 0.002533
0.608972 0.274907 0.00376898
0.625788 0.288182 0.00434882
0.643839 0.302373 0.00247196
0.659068 0.316716 0.00154116
0.671809 0.330068 0.000488289
0.677241 0.336034 0
0.677073 0.335912 0
0.0233768 0.0238193 0.0330205
0.0264134 0.0302586 0.0390936
0.0305791 0.0423133 0.0478065
0.0422065 0.0471199 0.0587625
0.0652171 0.0537118 0.0637827
0.103685 0.0657816 0.0572976
0.167727 0.0565805 0.0469215
0.253758 0.0495003 0.034287
0.326894 0.0430915 0.0295567
0.382513 0.038407 0.0323949
0.42974 0.038056 0.0370794
0.461204 0.041474 0.0320745
0.492622 0.0449073 0.03093
0.519219 0.0496071 0.0294652
0.540383 0.0573892 0.0263676
0.564157 0.0722515 0.0252842
0.578027 0.0857404 0.009308
0.584878 0.105653 0.00181582
0.584207 0.132357 0.00108339
0.57528 0.163363 0.000717174
0.561166 0.196796 0.000106813
0.564996 0.223239 0.00451667
0.575448 0.243076 0.00416571
0.589487 0.259327 0
0.607507 0.277134 0
0.625818 0.289342 0.000503548
0.641855 0.301472 0.000274662
0.658427 0.313726 0.000106813
0.67599 0.326909 0.00077821
0.691035 0.344869 0.00363165
0.703777 0.355184 0.00115969
0.708415 0.358694 0
0.708415 0.358694 0
0.0406806 0.0394598 0.0563058
0.0442359 0.0483101 0.0623331
0.0551461 0.0606546 0.0690776
0.0696117 0.0715038 0.0802625
0.0901961 0.0814984 0.0830854
0.12784 0.0874037 0.0746166
0.206882 0.0782177 0.0576181
0.290105 0.069398 0.0565499
0.360861 0.0623484 0.0552529
0.414282 0.0575113 0.0523842
0.450477 0.0556954 0.0486915
0.483574 0.0612345 0.0502174
0.518944 0.0667735 0.052491
0.544198 0.074052 0.0506447
0.561318 0.0837262 0.0443427
0.580743 0.096437 0.0365911
0.595819 0.116594 0.0233005
0.603937 0.137926 0.013962
0.60621 0.16376 0.00856031
0.604242 0.194491 0.00555428
0.601251 0.225696 0.000503548
0.602289 0.253117 0.00103761
0.612039 0.274296 0.000762951
0.627344 0.2907 0
0.643244 0.303838 0.000396735
0.659052 0.313527 0.00535592
0.674403 0.325246 0.00230411
0.69012 0.33756 0.00131228
0.705119 0.350011 0.00328069
0.717922 0.363485 0.00390631
0.73521 0.377737 0.000869764
0.739757 0.381491 0
0.73959 0.381369 0
0.0454719 0.0643168 0.0809491
0.0559701 0.0756695 0.0864271
0.0681773 0.0879225 0.0960708
0.0860914 0.0999619 0.109346
0.111254 0.109239 0.109178
0.155108 0.113069 0.0957656
0.230518 0.108782 0.0741894
0.311101 0.0996262 0.0668803
0.379141 0.0902113 0.0666209
0.430381 0.0835279 0.0664683
0.468482 0.082536 0.0645609
0.502113 0.0902266 0.0658122
0.535409 0.0979019 0.0655222
0.560662 0.106447 0.0614633
0.579232 0.117403 0.0535897
0.594461 0.131914 0.0426642
0.61149 0.151583 0.0320134
0.616968 0.172808 0.0225223
0.618204 0.199878 0.0147707
0.619455 0.230854 0.00794995
0.624353 0.258 0.00015259
0.627726 0.284215 0
0.638514 0.302586 0
0.652873 0.316365 0
0.668437 0.328313 0.000762951
0.685359 0.33904 0.00529488
0.700801 0.35108 0.00315862
0.715068 0.362249 0.00296025
0.729732 0.37377 0.00392157
0.745113 0.386221 0.00393683
0.760281 0.401495 0.00402838
0.762966 0.404166 0.0039826
0.76286 0.404044 0.00395209
0.0460517 0.0988022 0.114839
0.0603952 0.111055 0.122683
0.0743877 0.123079 0.1355
0.0947433 0.135058 0.145205
0.126101 0.143557 0.138415
0.174456 0.147951 0.119387
0.241886 0.14815 0.094316
0.315785 0.141634 0.0763104
0.382925 0.129946 0.0756695
0.436881 0.122408 0.0767834
0.479576 0.121401 0.0760052
0.514824 0.128557 0.0734112
0.545617 0.136919 0.0720531
0.571939 0.146548 0.0691081
0.590997 0.159442 0.0611887
0.604089 0.175982 0.048661
0.620783 0.194919 0.0394293
0.623972 0.215213 0.0286564
0.626627 0.242359 0.0192874
0.631708 0.271092 0.0111696
0.640192 0.294896 0.00395209
0.648707 0.316899 0.00148013
0.660853 0.330266 0.000366217
0.675898 0.34165 0
0.693049 0.353384 0.000610361
0.710613 0.36556 0.00291447
0.725139 0.376989 0.00370794
0.73817 0.388022 0.00447089
0.752224 0.399817 0.00488289
0.767742 0.412924 0.00552377
0.780713 0.42742 0.009308
0.781888 0.428641 0.0096437
0.781796 0.428489 0.00961318
0.042771 0.14255 0.162203
0.0574044 0.154543 0.175235
0.0758526 0.16672 0.189029
0.0941939 0.178668 0.186069
0.132052 0.188449 0.170703
0.181353 0.194644 0.146075
0.237751 0.196765 0.116594
0.298482 0.196918 0.0920729
0.374014 0.185519 0.0846723
0.43415 0.177081 0.0823529
0.481697 0.174029 0.0787976
0.520836 0.177722 0.0708324
0.551537 0.18381 0.0739147
0.577157 0.194751 0.0770123
0.595041 0.210208 0.0699321
0.607279 0.229145 0.0562448
0.619623 0.25069 0.047013
0.625711 0.268803 0.031693
0.636301 0.291905 0.0229343
0.645777 0.31519 0.0181277
0.653529 0.33547 0.0138705
0.668711 0.350805 0.00471504
0.683864 0.360464 0.00112917
0.702876 0.369619 0
0.722042 0.379858 3.0518e-05
0.737469 0.392111 0.000350958
0.749737 0.401297 0.00335698
0.761944 0.415274 0.00634775
0.772656 0.430365 0.00770581
0.783658 0.444724 0.00927749
0.798993 0.457145 0.0153506
0.798901 0.456992 0.0153201
0.798901 0.456992 0.0153201
0.0281529 0.191897 0.211109
0.0462348 0.202869 0.22208
0.0723125 0.212573 0.236164
0.092958 0.223011 0.24712
0.13167 0.232136 0.219409
0.186648 0.233173 0.179919
0.245121 0.234516 0.142458
0.293873 0.244892 0.117876
0.358877 0.246067 0.0983597
0.417487 0.239933 0.0800946
0.467247 0.233829 0.0675212
0.507866 0.231281 0.0631418
0.543008 0.232639 0.0684367
0.572442 0.243885 0.0696269
0.591974 0.260121 0.0642863
0.606455 0.277745 0.0562448
0.620554 0.294713 0.0486915
0.631189 0.311055 0.0354467
0.644907 0.328466 0.0262303
0.657267 0.348409 0.020737
0.669062 0.367544 0.0171664
0.684291 0.380529 0.0122835
0.703899 0.391806 0.00914015
0.722011 0.400305 0.00988785
0.738323 0.409552 0.0110323
0.753491 0.42118 0.0111238
0.767865 0.430274 0.0120089
0.778378 0.442985 0.0148318
0.790555 0.454795 0.0212406
0.801617 0.46923 0.0272984
0.808042 0.488319 0.0290837
0.807996 0.488136 0.0290074
0.80795 0.487968 0.0289311
0.0214847 0.238697 0.257786
0.0386358 0.250233 0.270161
0.0603799 0.260426 0.285512
0.0776226 0.273533 0.297719
0.121248 0.278492 0.26717
0.184482 0.27837 0.215595
0.246418 0.280186 0.169177
0.295109 0.287129 0.141604
0.346807 0.296315 0.112856
0.400427 0.298054 0.0877394
0.448127 0.294392 0.0721904
0.49102 0.289662 0.0656901
0.534615 0.288121 0.0648661
0.566827 0.297368 0.0621347
0.586526 0.31075 0.0619364
0.602609 0.324697 0.0607156
0.619486 0.338384 0.0564126
0.637247 0.350835 0.0481117
0.653971 0.366964 0.040116
0.668696 0.383993 0.0326238
0.682841 0.39942 0.0264591
0.698741 0.411673 0.022034
0.719081 0.422721 0.0176089
0.737362 0.43064 0.0192874
0.753948 0.440726 0.0206912
0.768566 0.452049 0.0216983
0.781323 0.461128 0.0254978
0.793011 0.471931 0.0259556
0.805676 0.48188 0.0331884
0.816373 0.496147 0.0419623
0.822919 0.513115 0.0480354
0.822812 0.513008 0.0479133
0.822705 0.512901 0.0477913
0.0174716 0.286748 0.297169
0.0300298 0.297917 0.312062
0.0437018 0.310674 0.327672
0.0584878 0.328176 0.33579
0.105165 0.327901 0.315587
0.178027 0.327245 0.254093
0.24593 0.326665 0.201877
0.299763 0.32842 0.166705
0.343801 0.338994 0.131029
0.389853 0.349355 0.105165
0.432731 0.350027 0.0891432
0.477485 0.34641 0.0783246
0.526131 0.344518 0.0692912
0.560632 0.350423 0.0632639
0.581094 0.358602 0.0691997
0.600153 0.368795 0.0728923
0.621149 0.37966 0.0723583
0.644572 0.388724 0.0695811
0.66305 0.405722 0.0624399
0.679149 0.419059 0.0514076
0.694881 0.431357 0.0415656
0.711299 0.442512 0.0344396
0.730663 0.451606 0.0277104
0.751431 0.460655 0.0293889
0.768582 0.471138 0.0305638
0.781582 0.481834 0.034226
0.791775 0.491478 0.0427558
0.806745 0.500282 0.0392462
0.81767 0.510353 0.0442206
0.82945 0.522698 0.0570993
0.839216 0.532952 0.0702068
0.839216 0.532845 0.0700999
0.839216 0.532738 0.0699931
0.0075227 0.339727 0.318395
0.0185092 0.349523 0.33637
0.029633 0.365499 0.35436
0.0443427 0.384817 0.368185
0.0822461 0.384863 0.365835
0.167865 0.370169 0.3066
0.241596 0.368765 0.250645
0.304311 0.375235 0.202762
0.364523 0.378958 0.158923
0.39968 0.383047 0.131563
0.434333 0.387533 0.118013
0.473548 0.389761 0.108583
0.515953 0.390509 0.100221
0.552438 0.393622 0.0938888
0.581888 0.399634 0.0968338
0.609262 0.408133 0.0999008
0.632929 0.417319 0.101305
0.651896 0.426429 0.0996719
0.670512 0.436988 0.0881971
0.686427 0.448783 0.0758526
0.703258 0.459434 0.0637827
0.72282 0.468757 0.0529335
0.74667 0.477989 0.0441138
0.765454 0.487083 0.044419
0.779706 0.494499 0.0463874
0.792126 0.503761 0.0532998
0.804242 0.514717 0.0619364
0.816922 0.521187 0.0560922
0.831174 0.53727 0.0659342
0.837797 0.548119 0.0800641
0.839216 0.552789 0.0900435
0.839216 0.552682 0.0899367
0.839216 0.552682 0.0899367
0.00247196 0.382315 0.354299
0.00982681 0.396262 0.371435
0.0166018 0.411994 0.383459
0.0289769 0.426062 0.393744
0.060029 0.431617 0.407141
0.140124 0.421118 0.347021
0.221225 0.416114 0.288502
0.299504 0.413581 0.2374
0.369085 0.411582 0.198367
0.414176 0.414679 0.178363
0.446204 0.425437 0.166094
0.479133 0.431327 0.155016
0.515465 0.432181 0.143984
0.553811 0.431708 0.134661
0.582559 0.439506 0.145006
0.609049 0.445396 0.141268
0.633173 0.451759 0.13695
0.655406 0.459663 0.135821
0.677638 0.468742 0.128923
0.698573 0.477165 0.11342
0.720256 0.484825 0.0995651
0.741085 0.492744 0.0861982
0.760494 0.501808 0.0724956
0.782757 0.509239 0.0687877
0.796719 0.518593 0.0721904
0.808942 0.528664 0.0760052
0.821103 0.539269 0.0785229
0.833326 0.550713 0.0794995
0.84506 0.563638 0.0898451
0.850858 0.572885 0.103746
0.852811 0.577264 0.112261
0.85272 0.577127 0.112139
0.852628 0.576989 0.112016
0.00131228 0.424002 0.383032
0.00914015 0.439246 0.400229
0.0133364 0.452308 0.410788
0.0222629 0.463249 0.421622
0.0472267 0.471412 0.433585
0.114382 0.468345 0.389258
0.200732 0.461021 0.330999
0.28806 0.453666 0.278416
0.36672 0.448997 0.240101
0.428321 0.447807 0.218296
0.458946 0.457313 0.20766
0.487831 0.463981 0.198184
0.520119 0.466514 0.188418
0.556664 0.466529 0.180713
0.58526 0.474693 0.191913
0.609751 0.480323 0.188388
0.634882 0.48481 0.18526
0.660517 0.489937 0.182406
0.684001 0.4981 0.176089
0.707607 0.505135 0.156329
0.732601 0.51136 0.139025
0.755795 0.518486 0.120775
0.776532 0.52636 0.10338
0.798016 0.532357 0.0990311
0.810178 0.544015 0.0987716
0.82089 0.554208 0.0961776
0.8327 0.565011 0.0966049
0.846647 0.577844 0.104631
0.858717 0.586069 0.113787
0.864408 0.595972 0.128161
0.866285 0.600412 0.13492
0.866239 0.600305 0.134798
0.866194 0.600198 0.134676
0.00549325 0.466056 0.404562
0.0158236 0.474861 0.422217
0.0201114 0.486748 0.438315
0.0250401 0.497719 0.450355
0.0415045 0.505608 0.454017
0.0944991 0.509361 0.437232
0.1794 0.50425 0.382223
0.270436 0.498024 0.327016
0.358495 0.490364 0.280568
0.435447 0.481804 0.248936
0.471153 0.481621 0.240833
0.49839 0.488426 0.2365
0.527642 0.494438 0.232212
0.56083 0.498405 0.229175
0.59089 0.504158 0.232044
0.613123 0.512856 0.242847
0.640223 0.516152 0.244526
0.666819 0.518563 0.238041
0.688624 0.524575 0.225223
0.710796 0.533333 0.203311
0.737957 0.540108 0.178958
0.767071 0.546136 0.15378
0.792844 0.552148 0.13576
0.808164 0.558389 0.134661
0.817929 0.570413 0.122393
0.825055 0.580392 0.114656
0.836851 0.589792 0.117174
0.854917 0.59852 0.12874
0.872969 0.604501 0.137484
0.874739 0.616007 0.152209
0.874739 0.620142 0.157473
0.874693 0.620035 0.157351
0.874647 0.619928 0.157229
0.0161135 0.492149 0.439673
0.0110323 0.498756 0.452934
0.0263828 0.516014 0.46978
0.036286 0.528481 0.477378
0.0461433 0.536934 0.477363
0.0769818 0.549859 0.47863
0.160998 0.543511 0.439155
0.252583 0.533684 0.383261
0.342596 0.523491 0.335927
0.422477 0.515602 0.30721
0.477943 0.515419 0.281559
0.510414 0.52137 0.275868
0.542565 0.526116 0.276982
0.572839 0.529244 0.280842
0.596384 0.532952 0.285832
0.622614 0.539727 0.288502
0.643168 0.54667 0.286503
0.664424 0.550805 0.285679
0.690608 0.553048 0.282307
0.723857 0.557336 0.258213
0.754009 0.563363 0.227024
0.778103 0.56936 0.198276
0.797055 0.575372 0.175128
0.813016 0.581796 0.159182
0.833875 0.59173 0.149248
0.844602 0.603082 0.146304
0.853346 0.614542 0.151034
0.863157 0.624567 0.158816
0.874586 0.63061 0.161059
0.881514 0.638163 0.176333
0.883238 0.639979 0.180148
0.883192 0.639872 0.180026
0.883238 0.639979 0.180148
0.0247044 0.515084 0.466926
0.0186618 0.527626 0.472618
0.0391852 0.54377 0.494347
0.0516213 0.55288 0.508232
0.0629282 0.560678 0.51371
0.0867781 0.573297 0.513024
0.152178 0.575021 0.491768
0.235355 0.567803 0.44036
0.326101 0.558465 0.391531
0.412619 0.550393 0.353735
0.478843 0.545876 0.323293
0.521019 0.547005 0.313298
0.553826 0.551751 0.31368
0.579522 0.557122 0.319905
0.60116 0.561593 0.327672
0.624094 0.56614 0.327657
0.648554 0.573388 0.329
0.673228 0.577493 0.330526
0.699535 0.57937 0.325292
0.730098 0.582513 0.305074
0.757839 0.588525 0.272496
0.781949 0.593378 0.242374
0.804089 0.598596 0.21593
0.825528 0.605341 0.19585
0.847272 0.614633 0.188083
0.853239 0.625208 0.187259
0.863676 0.633967 0.189151
0.876722 0.642863 0.192889
0.888075 0.653208 0.197894
0.892836 0.662165 0.210163
0.89369 0.663737 0.212329
0.893629 0.6636 0.212131
0.893568 0.663462 0.211933
0.0363622 0.540566 0.494194
0.0365759 0.555123 0.49752
0.0534371 0.568215 0.521324
0.0668345 0.57554 0.53872
0.0808423 0.583352 0.54638
0.101747 0.593805 0.543786
0.145495 0.603586 0.53669
0.219135 0.601129 0.496452
0.310094 0.593469 0.446799
0.400412 0.584054 0.399832
0.473228 0.575784 0.365133
0.526406 0.572488 0.349477
0.559716 0.576837 0.348684
0.585504 0.582925 0.354406
0.607782 0.588357 0.361578
0.626337 0.592309 0.364584
0.656764 0.597528 0.369039
0.683803 0.601343 0.368475
0.708721 0.604288 0.3617
0.73341 0.60763 0.347478
0.758572 0.613626 0.319234
0.785901 0.617182 0.287724
0.812482 0.622034 0.258762
0.835874 0.628794 0.237446
0.853346 0.637354 0.229465
0.857801 0.647074 0.226108
0.873472 0.652262 0.225681
0.890181 0.660075 0.229541
0.901411 0.673014 0.237675
0.902647 0.686015 0.246342
0.902724 0.686946 0.246876
0.902693 0.686763 0.246571
0.902678 0.686671 0.246418
0.0541085 0.569223 0.529381
0.0623941 0.573617 0.541283
0.0657816 0.588846 0.553735
0.076463 0.601312 0.56112
0.0920882 0.610239 0.565652
0.113024 0.61799 0.567575
0.141527 0.630076 0.567178
0.209415 0.633051 0.547921
0.294865 0.624949 0.50251
0.384558 0.615228 0.448585
0.464759 0.609445 0.403235
0.519875 0.60618 0.387701
0.560876 0.603449 0.388434
0.594965 0.606409 0.388418
0.621134 0.612329 0.390524
0.639704 0.618143 0.401572
0.661707 0.62121 0.401663
0.687907 0.624186 0.399191
0.713878 0.627253 0.397223
0.738994 0.630854 0.392218
0.766567 0.637156 0.373342
0.794247 0.640299 0.337514
0.816129 0.645289 0.3028
0.833768 0.651362 0.276631
0.849882 0.658381 0.261891
0.869841 0.670314 0.247486
0.883925 0.677134 0.256748
0.893507 0.682109 0.26508
0.900008 0.689265 0.269261
0.905562 0.703944 0.275212
0.905547 0.703853 0.275059
0.905531 0.703761 0.274907
0.905516 0.70367 0.274754
0.0701762 0.589471 0.550652
0.0819867 0.594842 0.563287
0.0957198 0.610132 0.577646
0.102052 0.624475 0.584314
0.119875 0.632105 0.588357
0.145327 0.637751 0.592828
0.173312 0.645426 0.59675
0.225834 0.650523 0.578225
0.298451 0.646662 0.538476
0.379156 0.641627 0.494087
0.457694 0.637827 0.455451
0.521248 0.634592 0.43151
0.566201 0.635782 0.417746
0.602228 0.634394 0.415854
0.629694 0.634714 0.42002
0.649943 0.638819 0.425345
0.669322 0.643915 0.427359
0.694118 0.648936 0.431952
0.720241 0.652827 0.430426
0.746105 0.655619 0.422324
0.769665 0.657588 0.40914
0.795193 0.660517 0.378195
0.818494 0.667491 0.345052
0.841352 0.67454 0.319051
0.862669 0.681025 0.302663
0.87628 0.689464 0.291493
0.890532 0.697536 0.29369
0.899351 0.703517 0.297993
0.906249 0.710933 0.305623
0.91342 0.720958 0.316121
0.913375 0.720867 0.315892
0.913329 0.720775 0.315648
0.913329 0.720775 0.315648
0.0909895 0.608469 0.576715
0.104494 0.616983 0.589319
0.121431 0.629587 0.603143
0.131258 0.64123 0.605524
0.15198 0.649302 0.608286
0.176715 0.656397 0.611154
0.20531 0.662882 0.612222
0.252354 0.66508 0.605173
0.310155 0.667018 0.575265
0.381964 0.665736 0.537072
0.457267 0.663249 0.499016
0.52311 0.661448 0.467109
0.568048 0.662028 0.446845
0.605005 0.659113 0.443412
0.634272 0.658778 0.446082
0.657725 0.662272 0.45008
0.679881 0.667201 0.453162
0.702052 0.67332 0.45861
0.727169 0.678904 0.456428
0.751995 0.681498 0.450217
0.774685 0.68072 0.441016
0.798138 0.683787 0.416876
0.82446 0.689952 0.388373
0.849805 0.696986 0.36173
0.870192 0.703716 0.342199
0.881788 0.708675 0.333074
0.897078 0.717754 0.334417
0.906432 0.725551 0.340261
0.914611 0.733654 0.350042
0.92192 0.74081 0.360052
0.921965 0.740932 0.360296
0.92192 0.74081 0.360052
0.921874 0.740688 0.359808
0.114656 0.628382 0.602747
0.128344 0.639887 0.614679
0.143374 0.646876 0.62414
0.162646 0.654322 0.624247
0.183215 0.664897 0.625574
0.207553 0.674556 0.624094
0.239673 0.680308 0.623194
0.286412 0.679347 0.631159
0.329534 0.687297 0.610605
0.392676 0.687785 0.574212
0.46154 0.686534 0.533867
0.524407 0.685893 0.498604
0.568689 0.682689 0.479515
0.604898 0.682887 0.470466
0.635706 0.685054 0.470329
0.664164 0.687755 0.47422
0.692638 0.689937 0.476478
0.710964 0.695949 0.477485
0.733944 0.703944 0.478294
0.7579 0.70692 0.476799
0.781262 0.705715 0.470115
0.803143 0.70901 0.452171
0.833616 0.712566 0.430228
0.856825 0.719081 0.400168
0.874784 0.725185 0.376226
0.889952 0.728985 0.369909
0.904082 0.738125 0.379889
0.913771 0.74699 0.389258
0.92343 0.756313 0.398505
0.930465 0.762905 0.404578
0.930419 0.762798 0.404379
0.930373 0.762707 0.404181
0.930327 0.762615 0.403983
0.139223 0.653513 0.617075
0.153216 0.663706 0.625727
0.165789 0.662974 0.629984
0.189517 0.677104 0.645609
0.208682 0.684565 0.642298
0.241169 0.689479 0.644999
0.279271 0.695735 0.650004
0.313497 0.705104 0.649622
0.356069 0.706249 0.633433
0.408865 0.708293 0.599893
0.467979 0.709194 0.566308
0.527245 0.708293 0.538857
0.577935 0.705104 0.517647
0.605051 0.710109 0.500938
0.634424 0.713848 0.493004
0.667903 0.71342 0.48954
0.702876 0.710353 0.488914
0.721309 0.716411 0.496605
0.742763 0.720623 0.501945
0.76318 0.7234 0.500542
0.784298 0.726757 0.492515
0.808606 0.73225 0.478523
0.839353 0.737881 0.45182
0.86836 0.740246 0.419638
0.89041 0.742473 0.400275
0.903487 0.746761 0.400473
0.908766 0.755917 0.41709
0.915404 0.76286 0.429358
0.928862 0.772946 0.437751
0.938964 0.779904 0.441428
0.938918 0.779812 0.441215
0.938872 0.779721 0.441016
0.938827 0.779629 0.440818
0.162707 0.673213 0.636423
0.180209 0.680629 0.646647
0.196033 0.684245 0.655299
0.224125 0.694041 0.662577
0.245945 0.7019 0.654566
0.276936 0.707668 0.657862
0.309453 0.713466 0.664363
0.341161 0.719646 0.666911
0.378759 0.723156 0.656779
0.427756 0.727779 0.627237
0.482933 0.729488 0.593454
0.538979 0.72903 0.563378
0.589532 0.728054 0.542351
0.619333 0.730648 0.527474
0.648447 0.733532 0.516579
0.679347 0.734417 0.512108
0.709087 0.735073 0.512398
0.729305 0.741238 0.512978
0.755657 0.742596 0.513878
0.778058 0.746502 0.509957
0.799191 0.750988 0.501915
0.822629 0.755261 0.489769
0.85156 0.759686 0.467292
0.879149 0.76022 0.442206
0.899443 0.76286 0.42771
0.912718 0.768109 0.429587
0.920501 0.774044 0.449088
0.919905 0.785061 0.454536
0.931212 0.794583 0.46183
0.939071 0.799008 0.465675
0.939086 0.798901 0.465568
0.939101 0.798795 0.465461
0.939101 0.798795 0.465461
0.187457 0.690288 0.656764
0.206973 0.699138 0.66656
0.227253 0.705715 0.675441
0.25362 0.710521 0.677409
0.283177 0.720745 0.67013
0.310109 0.727474 0.673808
0.338384 0.731304 0.680995
0.368505 0.734401 0.685756
0.400366 0.740475 0.681361
0.447349 0.747417 0.657435
0.498146 0.749538 0.622629
0.549844 0.74902 0.589639
0.599207 0.748257 0.565881
0.634699 0.748165 0.548928
0.662348 0.752377 0.536873
0.689158 0.756161 0.53315
0.714672 0.759533 0.53164
0.738567 0.763775 0.524788
0.769207 0.765545 0.521721
0.79411 0.769253 0.512764
0.817212 0.772442 0.502083
0.840818 0.774777 0.489845
0.865843 0.777829 0.473167
0.888045 0.778714 0.458808
0.906203 0.783246 0.450309
0.920836 0.788403 0.454734
0.931044 0.793378 0.472267
0.927337 0.806165 0.474632
0.934432 0.814633 0.486854
0.938262 0.817838 0.492592
0.938247 0.817746 0.492378
0.938247 0.817746 0.492378
0.938231 0.817655 0.492149
0.209918 0.707927 0.676722
0.232792 0.719951 0.680522
0.255283 0.726543 0.687938
0.275822 0.728923 0.694331
0.315221 0.74078 0.690944
0.340993 0.747509 0.696376
0.367285 0.74992 0.702556
0.394781 0.752209 0.706523
0.42359 0.758602 0.705348
0.466423 0.767651 0.690333
0.509468 0.769406 0.657588
0.557168 0.767727 0.622538
0.606256 0.765438 0.590372
0.646403 0.765316 0.562264
0.671199 0.774105 0.552331
0.696086 0.779126 0.547372
0.722057 0.780774 0.541344
0.750072 0.781643 0.532921
0.780789 0.787625 0.529732
0.808728 0.788357 0.510475
0.836225 0.788312 0.492729
0.860883 0.789227 0.47837
0.879194 0.792309 0.466514
0.894591 0.795392 0.463432
0.912261 0.800732 0.465034
0.927611 0.806851 0.474159
0.93785 0.812909 0.488121
0.940764 0.819043 0.497124
0.941085 0.83093 0.523522
0.941115 0.834928 0.532479
0.9411 0.834836 0.532265
0.941085 0.834745 0.532052
0.94107 0.834653 0.531838
0.220676 0.729839 0.698604
0.244816 0.73727 0.703853
0.273777 0.743191 0.707668
0.305211 0.747967 0.706966
0.335576 0.753124 0.699153
0.360113 0.761563 0.707607
0.385489 0.7691 0.716213
0.409766 0.775616 0.721782
0.435172 0.781476 0.722591
0.471092 0.785931 0.716411
0.513542 0.790463 0.688502
0.5579 0.790097 0.661784
0.605524 0.787991 0.631739
0.654719 0.788342 0.594339
0.679469 0.793042 0.575936
0.707591 0.796307 0.564248
0.737041 0.798947 0.551186
0.76701 0.800397 0.536141
0.797559 0.79971 0.524102
0.825376 0.799695 0.502876
0.853223 0.802869 0.484001
0.877791 0.808515 0.467796
0.897429 0.814755 0.455787
0.910445 0.81326 0.459434
