creative/lut-kodak-5207-warm.cube
TITLE "Generated by Resolve"
LUT_3D_SIZE 5
0.0792859 0.0196536 0
0.253437 0.0241855 0
0.529183 0.0842145 0
0.706722 0.171908 0
0.764645 0.162203 0
0.0549783 0.220111 0.125154
0.285817 0.215595 0.0114748
0.530663 0.24889 0
0.712596 0.326711 0
0.799084 0.359045 0
0.15964 0.427207 0.300267
0.288731 0.475639 0.138705
0.632746 0.461341 0.0822003
0.770428 0.443946 0.0544747
0.830701 0.457176 0.0381018
0.186938 0.551003 0.478447
0.308248 0.603479 0.464912
0.614404 0.54493 0.100969
0.818952 0.551019 0.0888533
0.942306 0.58088 0.092958
0.201114 0.608316 0.591348
0.290806 0.650538 0.59939
0.632609 0.627909 0.243427
0.877745 0.639582 0.10988
0.948791 0.656031 0.171237
0.102892 0.09897 0.211917
0.282872 0.132708 0.189837
0.501152 0.123537 0.122866
0.733989 0.203357 0.0813001
0.776257 0.124956 0
0.0693523 0.219898 0.301595
0.272358 0.274571 0.31368
0.591012 0.302434 0.167773
0.734691 0.350973 0.114244
0.8224 0.374716 0.0644541
0.166217 0.448753 0.465278
0.229435 0.537545 0.514931
0.630457 0.53933 0.342016
0.815351 0.506447 0.166003
0.88603 0.523308 0.133852
0.184741 0.567636 0.555093
0.236683 0.59649 0.563088
0.547692 0.629938 0.394003
0.858259 0.621744 0.206729
0.89659 0.631693 0.259236
0.20531 0.612085 0.615534
0.288869 0.664988 0.655314
0.533028 0.714168 0.594339
0.875349 0.663722 0.189776
0.863478 0.706462 0.424536
0.1523 0.150317 0.543282
0.276265 0.104799 0.524208
0.366079 0.105638 0.477974
0.568505 0.189853 0.415534
0.695033 0.264042 0.420157
0.0924086 0.239475 0.52343
0.277333 0.300526 0.56527
0.493477 0.289952 0.565316
0.638514 0.321218 0.450752
0.775143 0.439033 0.457282
0.18088 0.376257 0.544244
0.196277 0.395453 0.584268
0.544961 0.565744 0.611887
0.797681 0.601724 0.536339
0.850309 0.654505 0.545327
0.190829 0.465843 0.605646
0.214069 0.499397 0.613672
0.482139 0.68397 0.708156
0.808316 0.747585 0.634318
0.88455 0.767758 0.64863
0.230518 0.532128 0.653803
0.312215 0.623667 0.687892
0.519921 0.730938 0.752743
0.818891 0.802625 0.689479
0.903029 0.829602 0.718791
0.257862 0.268666 0.662791
0.388907 0.179049 0.650309
0.497642 0.177935 0.641688
0.662669 0.261051 0.606561
0.759701 0.368414 0.639261
0.169085 0.33138 0.680507
0.378119 0.390646 0.723049
0.549828 0.306722 0.700191
0.673381 0.336446 0.6486
0.785306 0.490455 0.663203
0.192477 0.410254 0.649912
0.259129 0.474327 0.678294
0.590127 0.604074 0.725719
0.801343 0.647822 0.713252
0.863386 0.687922 0.718563
0.228885 0.485451 0.680049
0.290455 0.540139 0.692744
0.512901 0.673915 0.751858
0.832975 0.802686 0.774746
0.919585 0.808743 0.777768
0.345174 0.589975 0.739071
0.422568 0.643824 0.753185
0.619181 0.728054 0.790463
0.849973 0.83682 0.809552
0.913359 0.857755 0.794766
0.335271 0.333288 0.726085
0.473106 0.23682 0.71313
0.595697 0.248981 0.72256
0.752941 0.355673 0.747036
0.848783 0.475059 0.785809
0.244221 0.409583 0.732921
0.476707 0.462013 0.793484
0.640879 0.383948 0.808927
0.801877 0.438788 0.810254
0.87602 0.624994 0.763302
0.254719 0.479271 0.710872
0.347631 0.559731 0.730877
0.677745 0.676371 0.780896
0.848035 0.688426 0.774685
0.899062 0.737301 0.781079
0.357076 0.596872 0.755413
0.432242 0.640101 0.764065
0.650965 0.723033 0.800366
0.872206 0.831617 0.821332
0.92546 0.844022 0.821424
0.530953 0.689357 0.784909
0.611673 0.720455 0.799512
0.760464 0.779416 0.827283
0.887007 0.860563 0.844282
0.935164 0.875151 0.837888
