creative/lut-cuisine.cube
TITLE "Generated by Resolve"
LUT_3D_SIZE 5
0 0 0
0.258915 0 0
0.515312 0 0
0.77171 0 0
1 0 0
0.0428016 0.245594 0
0.277653 0.24303 0
0.525917 0.237156 0
0.779171 0.227039 0
1 0.2121 0
0.133165 0.492439 0
0.315816 0.491096 0
0.547417 0.488075 0
0.793851 0.482979 0
1 0.475593 0
0.230076 0.739284 0
0.371496 0.738399 0
0.58143 0.736416 0
0.817288 0.733074 0
1 0.728283 0
0.32697 0.986145 0
0.439597 0.985489 0
0.626902 0.984024 0
0.849439 0.981598 0
1 0.978119 0
0.00856031 0.00250248 0.226734
0.263203 0 0.21915
0.518227 0 0.205463
0.774411 0 0.183368
1 0 0.14876
0.0517128 0.24715 0.206653
0.281178 0.244678 0.201083
0.52784 0.23888 0.188022
0.780728 0.228855 0.164981
1 0.213794 0.127321
0.139651 0.493339 0.165637
0.318868 0.492042 0.159411
0.549249 0.489006 0.144213
0.795117 0.483909 0.115923
1 0.476539 0.0656138
0.234546 0.739879 0.0750744
0.374197 0.739025 0.0653697
0.583169 0.737041 0.0428779
0.818341 0.733745 0.00527962
1 0.728969 0
0.33022 0.986587 0
0.44184 0.985962 0
0.628443 0.984497 0
0.850645 0.982055 0
1 0.978546 0
0.0284123 0.00830091 0.46009
0.27158 0.00364691 0.455543
0.522683 0 0.447074
0.777295 0 0.434897
1 0 0.418463
0.0719768 0.250126 0.447562
0.289204 0.247776 0.444343
0.532235 0.242206 0.43714
0.783642 0.232517 0.425635
1 0.217807 0.409415
0.15378 0.495125 0.425589
0.326207 0.493843 0.422721
0.553521 0.490883 0.416052
0.797955 0.485878 0.404837
1 0.478599 0.388418
0.244053 0.741176 0.390906
0.380545 0.740322 0.387945
0.587243 0.738338 0.381033
0.821241 0.735058 0.369223
1 0.730297 0.351659
0.337438 0.987564 0.337728
0.447105 0.986954 0.334432
0.632166 0.985504 0.326558
0.853346 0.983063 0.313039
1 0.979568 0.292576
0.0616922 0.0180209 0.693431
0.285145 0.0134279 0.690288
0.529961 0.00233463 0.684031
0.782147 0 0.674983
1 0 0.663386
0.104143 0.254658 0.684276
0.302083 0.252461 0.681865
0.539498 0.247135 0.676555
0.788479 0.237888 0.668299
1 0.22385 0.657176
0.175219 0.497795 0.66807
0.337926 0.496559 0.666056
0.560586 0.493629 0.661463
0.802792 0.488746 0.653925
1 0.481651 0.643259
0.259297 0.743099 0.644541
0.390723 0.74226 0.64268
0.593866 0.740322 0.6383
0.825849 0.737072 0.631022
1 0.732357 0.620508
0.348989 0.989075 0.612131
0.456001 0.988464 0.610239
0.638437 0.987015 0.605798
0.857832 0.984604 0.598413
1 0.981186 0.587625
0.107424 0.0319829 0.926772
0.303563 0.0274815 0.924422
0.540352 0.016495 0.919493
0.789075 0 0.91223
1 0 0.902907
0.141588 0.260853 0.919646
0.319783 0.258762 0.917693
0.549691 0.253712 0.913451
0.795346 0.244938 0.906798
1 0.231525 0.897948
0.202686 0.501335 0.906508
0.354177 0.500099 0.904891
0.570474 0.497307 0.901228
0.809445 0.492607 0.895308
1 0.485649 0.887114
0.279805 0.745632 0.887938
0.404929 0.744823 0.886473
0.603281 0.742901 0.883177
0.832547 0.739696 0.877684
1 0.735134 0.869841
0.364797 0.991089 0.863493
0.468513 0.990448 0.862119
0.647196 0.989044 0.858946
0.864134 0.986679 0.85362
1 0.983276 0.846006
