creative/lut-kodak-film.cube
TITLE "Generated by Resolve"
LUT_3D_SIZE 33
0.054139 0.0586099 0.0373846
0.066453 0.0588235 0.0380102
0.0821546 0.0597391 0.0389105
0.105608 0.0634623 0.0460975
0.141039 0.0716106 0.0597391
0.180636 0.0771801 0.0668498
0.218891 0.0791485 0.0695659
0.255146 0.0798962 0.0707256
0.290288 0.0807813 0.0707103
0.325154 0.0820783 0.0703593
0.360021 0.0833906 0.0696574
0.394766 0.0848249 0.068925
0.428473 0.0867628 0.0675059
0.461982 0.0889601 0.0652476
0.493889 0.0912642 0.0625772
0.523476 0.0936904 0.0595254
0.551049 0.0968338 0.0549477
0.576699 0.10074 0.0494698
0.600702 0.105013 0.0429999
0.62414 0.109804 0.037995
0.647395 0.115602 0.0338598
0.670619 0.121477 0.0310979
0.693797 0.127398 0.0297246
0.717021 0.133471 0.0289921
0.740444 0.139971 0.0286259
0.763806 0.146593 0.0285496
0.786847 0.153613 0.0274357
0.809583 0.160479 0.027924
0.831571 0.16759 0.0287633
0.852781 0.174807 0.0301061
0.872786 0.182574 0.0357977
0.89189 0.190204 0.0443122
0.91014 0.197772 0.05449
0.0553597 0.0691997 0.0380255
0.0656748 0.0692149 0.0380407
0.0816205 0.0700847 0.0389868
0.103883 0.0732433 0.0457465
0.140764 0.0819104 0.0596933
0.180896 0.0875563 0.0668193
0.219028 0.0893873 0.0695659
0.255283 0.090135 0.0707256
0.290394 0.0910201 0.0707103
0.325017 0.0922866 0.070222
0.359686 0.093431 0.0694438
0.394781 0.0952468 0.0688945
0.428595 0.097322 0.0674296
0.462135 0.0993668 0.0651865
0.494087 0.101686 0.062501
0.523766 0.104204 0.0595712
0.551507 0.107881 0.0551156
0.577096 0.111635 0.0494545
0.601114 0.115969 0.0432136
0.624598 0.120867 0.0381476
0.647944 0.126665 0.0338903
0.671122 0.132464 0.0312047
0.69424 0.138216 0.0295109
0.717556 0.144427 0.0284733
0.740978 0.150835 0.0287175
0.764248 0.157519 0.0280308
0.787243 0.164416 0.0278172
0.809949 0.171252 0.0276493
0.831907 0.17847 0.0282444
0.853056 0.185595 0.030396
0.87303 0.193317 0.0354772
0.892119 0.2009 0.0447242
0.910369 0.20853 0.0547036
0.0575265 0.0806744 0.0397192
0.0678569 0.0806744 0.0397192
0.0802167 0.0805524 0.0397345
0.0995804 0.0831159 0.0455177
0.137224 0.0914931 0.0585946
0.179034 0.0973068 0.0664378
0.218326 0.0995193 0.0696269
0.254887 0.100603 0.0705577
0.290059 0.101472 0.0706645
0.325048 0.1028 0.0701152
0.360311 0.104524 0.0694438
0.39501 0.106264 0.0687266
0.429343 0.108263 0.0671855
0.463401 0.11107 0.0651408
0.495537 0.114092 0.0623484
0.525475 0.117662 0.0593729
0.553094 0.121035 0.0551766
0.578531 0.124605 0.0493019
0.602762 0.128939 0.0427253
0.626566 0.134096 0.0376745
0.649943 0.139788 0.0332952
0.672984 0.145296 0.0309911
0.696147 0.150988 0.0295415
0.719722 0.157397 0.0285649
0.742977 0.163668 0.0283207
0.766201 0.170214 0.0281682
0.788983 0.176928 0.0273747
0.811536 0.183719 0.0278477
0.83331 0.190936 0.0284886
0.854307 0.198001 0.0299992
0.874205 0.205844 0.0361181
0.893294 0.213352 0.0445716
0.91136 0.220829 0.0547189
0.0610819 0.0984054 0.0521553
0.0711681 0.0981918 0.0517281
0.0811627 0.0967117 0.0489509
0.0958724 0.0971847 0.0493477
0.130755 0.10428 0.0587472
0.174395 0.110231 0.0664988
0.216663 0.112413 0.0708171
0.254383 0.113771 0.0723583
0.290684 0.115099 0.0723888
0.326757 0.116335 0.0717021
0.362631 0.118456 0.0708782
0.397955 0.121202 0.0696574
0.432792 0.123781 0.0678416
0.46656 0.12668 0.0655528
0.498573 0.129656 0.0625925
0.528191 0.132891 0.0596323
0.555825 0.136324 0.0548257
0.581537 0.140124 0.049073
0.606119 0.144762 0.0420233
0.630091 0.149828 0.0368353
0.653437 0.155169 0.033051
0.676844 0.160769 0.0305333
0.700374 0.166705 0.0294804
0.723812 0.172946 0.0287785
0.747005 0.179049 0.0282902
0.770108 0.185504 0.0277256
0.792691 0.192309 0.0272526
0.814817 0.199115 0.0276951
0.836484 0.20618 0.0287785
0.857191 0.213153 0.0302129
0.87689 0.220737 0.0364843
0.895613 0.228016 0.045304
0.913039 0.235325 0.0551461
0.0708629 0.129076 0.0690471
0.0809796 0.129259 0.0690623
0.088365 0.125963 0.0663462
0.0972 0.122011 0.062562
0.124788 0.125856 0.0637522
0.165942 0.131579 0.0682383
0.21178 0.1355 0.0727092
0.25536 0.137407 0.0760815
0.294636 0.138231 0.0772869
0.331456 0.139071 0.076585
0.367864 0.14049 0.075227
0.40322 0.142962 0.0730297
0.437629 0.145571 0.0703288
0.471092 0.148547 0.0671092
0.502739 0.151675 0.0635691
0.53254 0.154559 0.0598306
0.560494 0.157717 0.0543832
0.586633 0.16144 0.047425
0.611933 0.166094 0.0407111
0.636362 0.171145 0.0354772
0.660395 0.176486 0.0320745
0.684062 0.181674 0.0297551
0.707561 0.187213 0.0288853
0.730861 0.192859 0.028397
0.75378 0.198825 0.0280156
0.776425 0.205081 0.0273136
0.798611 0.211429 0.0274968
0.820325 0.217762 0.0275578
0.841505 0.224323 0.0283818
0.861601 0.230823 0.0305333
0.880674 0.238254 0.0370031
0.898497 0.245212 0.0460517
0.915816 0.252262 0.0559701
0.0763867 0.168597 0.0888991
0.0866255 0.168612 0.0889296
0.0941787 0.163668 0.0854658
0.0991836 0.155001 0.0789044
0.119295 0.155093 0.0760357
0.153719 0.157565 0.0737316
0.197162 0.161959 0.0741588
0.24477 0.166171 0.0764477
0.291585 0.168948 0.0785077
0.332403 0.16997 0.079057
0.370535 0.170871 0.0784009
0.40621 0.171908 0.0765393
0.440284 0.17351 0.0729686
0.473259 0.175296 0.0686656
0.505226 0.177798 0.064271
0.536019 0.180438 0.0599222
0.564843 0.183291 0.0540932
0.592187 0.18706 0.0462959
0.618341 0.191348 0.0394293
0.643793 0.196277 0.0344854
0.668421 0.200916 0.0312657
0.692699 0.205997 0.0291142
0.716503 0.211231 0.0280461
0.739696 0.216495 0.0278477
0.762325 0.22182 0.0276188
0.784573 0.227466 0.0272679
0.806226 0.233188 0.0272984
0.827253 0.2392 0.0279393
0.847395 0.24535 0.0288853
0.866773 0.251637 0.0312047
0.885084 0.258427 0.0387121
0.902663 0.264958 0.0478218
0.919524 0.271519 0.056672
0.0747082 0.210483 0.107347
0.0851759 0.210437 0.107301
0.0926986 0.201236 0.101427
0.099733 0.191394 0.0952316
0.114611 0.189883 0.0915541
0.144015 0.188525 0.0847334
0.182666 0.189975 0.0800946
0.226978 0.194827 0.0782635
0.275349 0.199207 0.0779889
0.322164 0.201663 0.078172
0.364233 0.203021 0.0778668
0.402228 0.203677 0.0766461
0.43798 0.204578 0.0735637
0.472602 0.206271 0.069337
0.505806 0.207813 0.0647746
0.53756 0.210391 0.0600443
0.567727 0.213626 0.0535897
0.596506 0.217411 0.0447089
0.623911 0.221347 0.037644
0.65037 0.225513 0.032929
0.676081 0.229908 0.0300908
0.700969 0.234501 0.0287327
0.7252 0.239231 0.0277562
0.748501 0.243915 0.0272526
0.770977 0.248798 0.0274815
0.792798 0.253697 0.0273747
0.81387 0.25864 0.0273136
0.834379 0.264088 0.0275883
0.854047 0.269429 0.028809
0.87274 0.275105 0.0317235
0.890501 0.281437 0.0396735
0.907317 0.287419 0.0488899
0.923568 0.293599 0.0580148
0.0688487 0.245777 0.119753
0.0789044 0.243534 0.11841
0.0880598 0.234623 0.113024
0.0974136 0.226337 0.108644
0.110246 0.224826 0.105562
0.134493 0.221408 0.0966964
0.170504 0.219043 0.0883192
0.210559 0.220523 0.0830243
0.254536 0.224979 0.0800641
0.302251 0.229435 0.0779431
0.349554 0.232624 0.0764324
0.392447 0.23476 0.0749065
0.431617 0.236484 0.0724193
0.468681 0.238361 0.0688945
0.504021 0.240787 0.0642863
0.53724 0.243473 0.0591897
0.568963 0.246967 0.0520333
0.5991 0.250507 0.0428779
0.627985 0.254047 0.0357977
0.655833 0.258015 0.0315404
0.682673 0.261891 0.0288701
0.708492 0.265904 0.0278172
0.733318 0.270146 0.0276036
0.756939 0.274235 0.0271916
0.779492 0.278416 0.0273747
0.801144 0.282643 0.0271458
0.82182 0.286854 0.0275425
0.841627 0.291554 0.0281224
0.8607 0.296284 0.0296025
0.878767 0.301534 0.0329747
0.895827 0.306981 0.0403143
0.912306 0.312444 0.0500343
0.928176 0.318013 0.0589456
0.0625162 0.273335 0.127413
0.0730907 0.271336 0.126268
0.0838941 0.264775 0.122362
0.0944991 0.258656 0.119326
0.105287 0.256611 0.116426
0.124849 0.252735 0.107912
0.157549 0.247852 0.0971084
0.19678 0.246372 0.0890211
0.237461 0.248829 0.0835584
0.281865 0.253712 0.079881
0.329427 0.25864 0.0764782
0.376776 0.262943 0.0737774
0.420981 0.266651 0.070985
0.462104 0.270542 0.067216
0.500359 0.274327 0.0628824
0.536248 0.278096 0.0575875
0.569757 0.281941 0.049958
0.601404 0.285725 0.0410163
0.63154 0.289235 0.0344396
0.660533 0.292927 0.0302739
0.688304 0.296529 0.0284886
0.714855 0.300099 0.0277409
0.740078 0.303532 0.0276036
0.763989 0.306935 0.0272526
0.786679 0.310246 0.0271
0.808042 0.313542 0.0273136
0.828428 0.317281 0.0275578
0.847883 0.321141 0.0284733
0.86656 0.325093 0.0302281
0.88426 0.329809 0.0337835
0.900954 0.334585 0.0406806
0.916991 0.339529 0.0513313
0.932509 0.344717 0.0603037
0.0587625 0.299428 0.133776
0.0688029 0.298268 0.133089
0.0802014 0.293965 0.130571
0.0908064 0.289525 0.128222
0.101396 0.287724 0.125902
0.117708 0.284611 0.118608
0.146181 0.278264 0.106493
0.183658 0.273899 0.0959487
0.223774 0.273854 0.0885023
0.265507 0.277211 0.0833448
0.31043 0.282628 0.0787518
0.358358 0.288838 0.074342
0.406439 0.294896 0.0701305
0.452201 0.300877 0.0657511
0.49456 0.306844 0.061265
0.53373 0.312596 0.0556039
0.56994 0.317723 0.0470588
0.60354 0.322087 0.0390021
0.635035 0.325765 0.033051
0.664897 0.329137 0.0299229
0.693217 0.332235 0.0280003
0.720058 0.335134 0.0276493
0.745541 0.337972 0.0272526
0.769726 0.340825 0.0273899
0.792508 0.343481 0.0275731
0.813901 0.34609 0.0276341
0.83418 0.349035 0.0274052
0.853529 0.35227 0.0283207
0.872038 0.355642 0.0300145
0.889372 0.359716 0.0340887
0.905806 0.363867 0.0417792
0.921614 0.368353 0.0529488
0.936843 0.373007 0.0615549
0.0542458 0.327672 0.140612
0.064744 0.326787 0.140108
0.076051 0.323598 0.13814
0.0867475 0.321355 0.136675
0.0977951 0.319417 0.13434
0.112703 0.317632 0.128817
0.137041 0.311467 0.116945
0.172107 0.30486 0.104295
0.212268 0.302327 0.0946059
0.253712 0.303792 0.0875105
0.296696 0.308095 0.0817884
0.342779 0.314641 0.0762493
0.391333 0.32224 0.0707103
0.43978 0.330098 0.065156
0.486015 0.338079 0.0600137
0.529168 0.345937 0.0534371
0.568795 0.35288 0.0444648
0.60502 0.358419 0.0370642
0.638163 0.362448 0.0318914
0.668971 0.365576 0.0295109
0.69778 0.36817 0.0279393
0.72491 0.370611 0.0273594
0.750622 0.37293 0.0273747
0.774838 0.375128 0.0275273
0.797543 0.377157 0.0273289
0.818875 0.379232 0.0272221
0.839078 0.381689 0.0274052
0.858289 0.384237 0.0286107
0.876646 0.387137 0.0300755
0.893721 0.390433 0.0346075
0.910033 0.394018 0.0436255
0.925704 0.398108 0.0555886
0.940841 0.402243 0.0634623
0.0514992 0.35758 0.147845
0.0615854 0.357183 0.147524
0.0722667 0.355612 0.146151
0.0829938 0.353902 0.144961
0.0947738 0.352712 0.142733
0.109728 0.35198 0.13817
0.131289 0.3467 0.127245
0.163851 0.339315 0.113603
0.203174 0.3346 0.101884
0.245045 0.334035 0.0929274
0.287633 0.33695 0.0856489
0.332082 0.342443 0.0789502
0.378958 0.34992 0.0722057
0.427482 0.358618 0.065568
0.475822 0.368109 0.0596323
0.522438 0.37789 0.051606
0.565835 0.386877 0.0421912
0.605112 0.394034 0.0354772
0.640513 0.398917 0.0312505
0.672663 0.402258 0.0293278
0.702174 0.404471 0.0284123
0.729656 0.406149 0.0276951
0.755398 0.40766 0.0274052
0.779522 0.40911 0.0273899
0.802106 0.410559 0.0274968
0.823377 0.412055 0.0273442
0.843442 0.413886 0.0274052
0.862562 0.41593 0.0283665
0.880812 0.418433 0.0304265
0.897795 0.421302 0.0360571
0.914 0.424582 0.0472419
0.929488 0.428351 0.058793
0.94461 0.432105 0.0660258
0.0479438 0.388922 0.15491
0.0584268 0.388602 0.154604
0.0694896 0.387243 0.153445
0.0804761 0.386145 0.152102
0.0921798 0.385672 0.150103
0.108034 0.385901 0.146609
0.128008 0.382483 0.137453
0.157641 0.375143 0.123629
0.195697 0.368963 0.110231
0.23801 0.366751 0.0990616
0.281086 0.368048 0.0900893
0.324727 0.372061 0.0821546
0.370031 0.378637 0.0743267
0.417502 0.387457 0.0665599
0.466468 0.398001 0.0594797
0.51516 0.409323 0.0505989
0.561349 0.420096 0.0408942
0.603723 0.428931 0.0345006
0.641627 0.435035 0.030869
0.675578 0.43856 0.0291752
0.706249 0.440269 0.0287175
0.734295 0.441215 0.028336
0.760128 0.441749 0.0274357
0.784268 0.442359 0.0274662
0.80679 0.443183 0.0271763
0.82797 0.444404 0.0274662
0.847959 0.445808 0.0278325
0.866957 0.447562 0.0287327
0.885039 0.449775 0.0310063
0.901869 0.452277 0.0383154
0.917861 0.455177 0.0506905
0.933242 0.458442 0.0607462
0.948211 0.461784 0.0686961
0.047013 0.419486 0.161807
0.0578927 0.419211 0.161517
0.0691081 0.418479 0.160372
0.080354 0.418158 0.159075
0.0917525 0.417853 0.157443
0.107652 0.418357 0.153979
0.126513 0.417166 0.147311
0.153597 0.411337 0.134722
0.190341 0.404608 0.119966
0.232181 0.400839 0.106813
0.275822 0.400641 0.0958114
0.319738 0.403586 0.0861067
0.364263 0.409049 0.0770733
0.41062 0.417197 0.0683452
0.458991 0.428016 0.0603952
0.5084 0.440528 0.0506905
0.556466 0.452827 0.0400549
0.601144 0.463035 0.0337987
0.641459 0.470024 0.0309606
0.677409 0.473793 0.0294499
0.709514 0.475288 0.0290379
0.738476 0.475593 0.0286259
0.764904 0.475486 0.0280308
0.789303 0.475456 0.0278325
0.811933 0.475822 0.0273289
0.833082 0.476585 0.027512
0.852964 0.477638 0.0280156
0.871839 0.479149 0.0295567
0.889693 0.480995 0.0325017
0.90631 0.483116 0.0409094
0.922087 0.485527 0.0540017
0.93727 0.488167 0.0626383
0.952026 0.491081 0.0710155
0.0500954 0.450019 0.169345
0.0603494 0.449897 0.169009
0.0711986 0.449516 0.168078
0.082475 0.44892 0.1664
0.0949264 0.448493 0.163989
0.109361 0.449729 0.161425
0.127459 0.449256 0.155535
0.152422 0.446525 0.145495
0.187045 0.44036 0.130907
0.228092 0.435615 0.116167
0.272206 0.434165 0.103059
0.316777 0.435904 0.0916152
0.361303 0.440452 0.0810407
0.406912 0.447791 0.0708171
0.454337 0.458366 0.061799
0.503288 0.471351 0.0517433
0.552056 0.484718 0.0406043
0.59823 0.49604 0.0341802
0.640345 0.503822 0.0312047
0.677913 0.507942 0.0298619
0.711482 0.50956 0.0289311
0.741833 0.509728 0.0289921
0.769284 0.509346 0.0285649
0.79443 0.508858 0.0273899
0.817411 0.508705 0.0273289
0.838727 0.50901 0.0273594
0.858671 0.509789 0.0279698
0.87744 0.510887 0.0301976
0.895048 0.512276 0.0332189
0.911437 0.514031 0.042649
0.926925 0.51603 0.0554818
0.941863 0.518151 0.0639811
0.956191 0.520516 0.0726482
0.0544137 0.48014 0.17789
0.0645151 0.480003 0.1776
0.0756542 0.47953 0.176364
0.0866255 0.478767 0.174304
0.0992142 0.478477 0.171374
0.112123 0.479332 0.168505
0.129686 0.479515 0.163043
0.153399 0.478691 0.154788
0.185641 0.47451 0.141665
0.225574 0.469718 0.126329
0.269688 0.467338 0.111498
0.314961 0.468193 0.0980392
0.360159 0.472007 0.0858015
0.405631 0.478752 0.0742504
0.452293 0.488869 0.0640726
0.500404 0.501869 0.054139
0.54876 0.515816 0.0417639
0.5953 0.528054 0.0346685
0.63827 0.536599 0.0317845
0.677134 0.541238 0.0302586
0.712154 0.543175 0.0292363
0.743832 0.543542 0.0290074
0.772702 0.543206 0.0285801
0.798886 0.542748 0.0276799
0.82266 0.542382 0.0274662
0.84448 0.542306 0.0276036
0.864637 0.542611 0.0283513
0.883482 0.543282 0.0302892
0.900938 0.544259 0.0339513
0.917113 0.545495 0.044007
0.932387 0.546853 0.056611
0.947005 0.548516 0.065156
0.960845 0.550347 0.0747234
0.0595254 0.508919 0.186679
0.0697642 0.508797 0.186343
0.0806134 0.5084 0.185183
0.0917678 0.507744 0.182773
0.103716 0.50724 0.179202
0.116838 0.507454 0.175494
0.133562 0.508034 0.17023
0.1561 0.508263 0.162829
0.186343 0.506203 0.151324
0.224247 0.502419 0.136477
0.267704 0.499855 0.120653
0.313634 0.500023 0.105425
0.359915 0.503258 0.0914015
0.406043 0.509575 0.0785382
0.452598 0.519326 0.0670176
0.499763 0.531929 0.0570993
0.546807 0.5458 0.0443122
0.592523 0.558526 0.0360571
0.635584 0.56788 0.032639
0.675196 0.573373 0.0306859
0.711391 0.576074 0.0298314
0.744427 0.577066 0.0289464
0.774578 0.577264 0.0289769
0.801968 0.577234 0.0280461
0.826825 0.576974 0.0276951
0.849454 0.576699 0.028275
0.8701 0.576486 0.0292058
0.88922 0.576532 0.0310674
0.906676 0.576761 0.0360113
0.922805 0.577295 0.0470436
0.938064 0.578103 0.0583352
0.952453 0.579217 0.0668193
0.965911 0.580697 0.0771038
0.0645914 0.536477 0.195926
0.074876 0.536355 0.19559
0.0858167 0.536019 0.194278
0.0974441 0.53547 0.19147
0.109773 0.534768 0.187381
0.123308 0.534524 0.182818
0.139651 0.534844 0.177096
0.160754 0.535515 0.169802
0.188693 0.534936 0.159442
0.224048 0.532815 0.145586
0.266453 0.530724 0.129473
0.312459 0.530709 0.11313
0.359808 0.533547 0.0974899
0.406989 0.539605 0.0831617
0.453895 0.54902 0.0703746
0.500404 0.561196 0.0601053
0.546029 0.574655 0.048127
0.590173 0.587381 0.0381018
0.632258 0.597498 0.0336614
0.672114 0.60441 0.0314946
0.709377 0.608515 0.0299382
0.74374 0.61062 0.0289311
0.775113 0.611643 0.0288396
0.803708 0.612146 0.0281834
0.829618 0.612146 0.0281376
0.853056 0.611688 0.0288243
0.874372 0.611109 0.0301823
0.893935 0.610544 0.0324712
0.911543 0.609918 0.0399023
0.927916 0.609583 0.0517739
0.943267 0.609751 0.0612192
0.957641 0.610346 0.069749
0.970977 0.61146 0.0801404
0.0712139 0.562234 0.204501
0.0817884 0.562203 0.204166
0.0927901 0.561929 0.20264
0.104753 0.561425 0.19968
0.117449 0.560662 0.195438
0.131518 0.560204 0.190021
0.147539 0.560235 0.183841
0.167803 0.560861 0.176089
0.19321 0.561318 0.166415
0.225788 0.560647 0.153597
0.265873 0.559625 0.137835
0.311208 0.559808 0.120806
0.359106 0.562478 0.104051
0.407553 0.568338 0.0883803
0.455283 0.5776 0.0744182
0.501503 0.589334 0.0631113
0.545785 0.602289 0.0527047
0.588067 0.614771 0.0418555
0.628794 0.625589 0.0356756
0.668391 0.634119 0.0324254
0.706386 0.64004 0.0303502
0.741955 0.643748 0.0293431
0.774716 0.64596 0.029221
0.80441 0.647105 0.0283818
0.831189 0.647379 0.0288548
0.855238 0.646983 0.0297246
0.877226 0.64622 0.0314488
0.8972 0.645151 0.0354314
0.915084 0.643854 0.0449226
0.931762 0.642771 0.0570382
0.947326 0.642115 0.0652628
0.961852 0.642054 0.0746929
0.975296 0.642405 0.0856184
0.0797742 0.586374 0.212543
0.090074 0.586313 0.212192
0.10135 0.586084 0.210681
0.11339 0.585672 0.207858
0.126131 0.58497 0.203586
0.140993 0.58471 0.197665
0.156802 0.584543 0.191089
0.176532 0.585229 0.182956
0.200259 0.586084 0.173281
0.23003 0.586618 0.161181
0.267155 0.586648 0.145968
0.310353 0.587442 0.128939
0.357794 0.590143 0.111345
0.406897 0.595773 0.0945449
0.455558 0.604791 0.0794537
0.502068 0.61619 0.0670787
0.545647 0.628656 0.0574502
0.586496 0.640955 0.0464332
0.625834 0.652262 0.0380713
0.664546 0.662043 0.0336156
0.702693 0.669963 0.0314488
0.739391 0.675715 0.0300298
0.773571 0.679606 0.0296025
0.804562 0.681834 0.029572
0.831998 0.682673 0.0297093
0.856611 0.682506 0.0307622
0.878981 0.681758 0.0334325
0.899046 0.680354 0.0392004
0.917266 0.678523 0.0509194
0.934112 0.676738 0.0614939
0.949783 0.675196 0.0707866
0.964599 0.674235 0.0813916
0.978119 0.673396 0.0928664
0.089189 0.608789 0.220218
0.0994125 0.608804 0.219913
0.110811 0.608591 0.218494
0.122911 0.60827 0.215671
0.13637 0.608072 0.211231
0.151202 0.607904 0.205417
0.167529 0.607843 0.198352
0.186618 0.60853 0.190066
0.20911 0.609567 0.180133
0.236423 0.610819 0.168383
0.270207 0.611795 0.153918
0.310582 0.613245 0.13695
0.356191 0.61619 0.11899
0.405112 0.621637 0.101198
0.454398 0.630365 0.0849317
0.501534 0.641443 0.0713664
0.545159 0.653635 0.0610971
0.585122 0.665888 0.0510872
0.623285 0.677623 0.0415351
0.661036 0.688502 0.0362554
0.698878 0.698177 0.0332647
0.736278 0.706279 0.031632
0.771801 0.712215 0.0307012
0.803983 0.715923 0.0307927
0.832441 0.717693 0.0312505
0.857664 0.717906 0.0326238
0.880278 0.717098 0.0358282
0.900252 0.71548 0.0436866
0.918547 0.713451 0.0559396
0.935439 0.711208 0.0654002
0.951171 0.708919 0.0759899
0.966033 0.706874 0.0879683
0.979461 0.70457 0.101335
0.0995346 0.630167 0.227741
0.109957 0.630137 0.227375
0.121202 0.630076 0.226123
0.133547 0.630014 0.223377
0.147219 0.630076 0.219028
0.161929 0.630076 0.213336
0.178714 0.630381 0.206195
0.197375 0.631067 0.197772
0.219272 0.63238 0.187747
0.244633 0.634028 0.176089
0.275242 0.635691 0.16199
0.312215 0.637736 0.145403
0.355184 0.640955 0.127245
0.402579 0.646342 0.108858
0.451728 0.654612 0.0914931
0.499443 0.665293 0.0765545
0.543465 0.677333 0.0652476
0.583505 0.689708 0.0564431
0.621241 0.702037 0.0470588
0.658274 0.71397 0.0401617
0.695674 0.725185 0.0359045
0.733104 0.735058 0.0336309
0.769131 0.74284 0.0327001
0.802502 0.748165 0.0330053
0.832273 0.751156 0.0341192
0.858457 0.752209 0.0374304
0.881285 0.75172 0.0426947
0.90132 0.750149 0.0514992
0.919539 0.748028 0.0606851
0.936294 0.745464 0.068986
0.952041 0.742718 0.0803082
0.966674 0.739727 0.0935683
0.979904 0.73608 0.109285
0.11043 0.650706 0.235599
0.120958 0.650736 0.235309
0.132296 0.650843 0.233951
0.144854 0.651041 0.231342
0.15848 0.651316 0.22739
0.173297 0.651499 0.221958
0.190478 0.652247 0.214893
0.208896 0.653132 0.206577
0.230137 0.654704 0.196506
0.254307 0.65655 0.184833
0.282277 0.65864 0.171099
0.315633 0.661097 0.154864
0.355169 0.664637 0.13669
0.399878 0.669841 0.117952
0.447852 0.677638 0.0996567
0.495644 0.687816 0.0834516
0.540368 0.699565 0.0705119
0.581033 0.712077 0.0612345
0.619013 0.724926 0.0527962
0.655772 0.737789 0.0448005
0.692653 0.750271 0.0401923
0.729595 0.761517 0.0379034
0.765743 0.77084 0.0376287
0.799924 0.777813 0.0387274
0.831022 0.78233 0.0423896
0.858412 0.784573 0.0470893
0.881941 0.784802 0.0540322
0.902373 0.783612 0.0600137
0.920562 0.781506 0.0656443
0.93724 0.778866 0.0733806
0.952819 0.775876 0.0843977
0.967117 0.772259 0.0981765
0.980148 0.767819 0.115633
0.122133 0.67126 0.244495
0.132723 0.671305 0.24416
0.143999 0.671427 0.242969
0.15639 0.671656 0.240604
0.169833 0.671962 0.236896
0.185199 0.672801 0.231693
0.201999 0.673701 0.225086
0.2206 0.674907 0.2168
0.241245 0.67657 0.207095
0.264363 0.678614 0.195453
0.290455 0.680888 0.18204
0.320928 0.683574 0.16643
0.356695 0.68716 0.148653
0.398062 0.692119 0.129793
0.443793 0.699351 0.111086
0.490745 0.708934 0.0939193
0.535653 0.720272 0.0795453
0.577447 0.73286 0.0682689
0.616205 0.746136 0.0605173
0.653117 0.759747 0.0547036
0.689769 0.773358 0.0493324
0.72636 0.785885 0.0465095
0.762371 0.796582 0.0460975
0.796841 0.804929 0.0481422
0.828641 0.810742 0.0519417
0.857298 0.814237 0.0561532
0.881834 0.815381 0.0614939
0.903075 0.814923 0.0664988
0.92163 0.813321 0.0724041
0.938354 0.810941 0.079942
0.953719 0.807904 0.0899977
0.967681 0.804028 0.103288
0.980636 0.799313 0.121569
0.133806 0.691279 0.254475
0.144289 0.69131 0.254215
0.155581 0.691493 0.253162
0.167956 0.69189 0.250996
0.181827 0.692744 0.247623
0.197055 0.693706 0.242756
0.213504 0.694743 0.236576
0.232166 0.696376 0.22858
0.252369 0.6981 0.21915
0.274861 0.700252 0.207858
0.299397 0.702586 0.194842
0.327489 0.705318 0.17969
0.360143 0.708782 0.162493
0.397726 0.713512 0.143938
0.440436 0.72018 0.12517
0.485573 0.729015 0.107317
0.530159 0.739803 0.0915847
0.572549 0.752194 0.0782788
0.612314 0.765698 0.0684672
0.649927 0.779889 0.0619059
0.686763 0.794293 0.0570993
0.72314 0.807919 0.0544442
0.758831 0.819791 0.0540322
0.793194 0.829358 0.0556191
0.825528 0.836362 0.0585946
0.854917 0.840757 0.0624704
0.880507 0.842756 0.0681468
0.902708 0.843122 0.0747387
0.921981 0.842191 0.0816815
0.939025 0.840284 0.0894484
0.954437 0.837507 0.0983749
0.968322 0.833585 0.111223
0.98114 0.828702 0.129976
0.145632 0.711406 0.265599
0.156161 0.711452 0.265385
0.167422 0.711772 0.264378
0.179904 0.712337 0.262409
0.193591 0.713237 0.259312
0.208515 0.714351 0.254932
0.225238 0.715648 0.248905
0.243458 0.717372 0.241474
0.263371 0.719188 0.232349
0.284977 0.721294 0.221561
0.308659 0.723598 0.208896
0.334722 0.726207 0.194461
0.364248 0.729397 0.178073
0.398917 0.733822 0.160143
0.43798 0.739834 0.141695
0.480415 0.747906 0.123644
0.523919 0.758083 0.106966
0.5664 0.770108 0.0919661
0.606912 0.783581 0.0796674
0.645685 0.798154 0.0702373
0.683284 0.813245 0.0638895
0.719707 0.827604 0.0609751
0.755245 0.84036 0.0601511
0.789487 0.850874 0.0611429
0.822034 0.858839 0.06392
0.851652 0.863859 0.0685283
0.877974 0.866621 0.0753185
0.901106 0.867765 0.0834821
0.92134 0.867643 0.0922103
0.939086 0.866407 0.100999
0.954879 0.864225 0.110521
0.968841 0.860365 0.124331
0.981506 0.855009 0.144152
0.157305 0.731533 0.277623
0.16788 0.731594 0.277424
0.179171 0.731929 0.276616
0.19144 0.73254 0.274891
0.204883 0.733425 0.272038
0.21976 0.734569 0.267857
0.236332 0.736049 0.262287
0.254139 0.737728 0.25536
0.273762 0.739498 0.246464
0.294759 0.741466 0.23624
0.317296 0.743526 0.224109
0.342 0.745937 0.210407
