creative/lut-sunset-glow.cube
TITLE "Generated by Resolve"
LUT_3D_SIZE 9
0 0 0
0.133715 0 0
0.2636 0 0
0.393469 0 0
0.523339 0 0
0.653223 0 0
0.783093 0 0
0.912963 0 0
1 0 0
0.0242008 0.120287 0
0.151278 0.117632 0
0.274571 0.113161 0
0.401312 0.106065 0
0.52932 0.0957809 0
0.657984 0.0814984 0
0.78703 0.0627604 0
0.916274 0.0406653 0
1 0.0146334 0
0.0648356 0.242649 0
0.176944 0.241108 0
0.290944 0.238529 0
0.413199 0.234501 0
0.538796 0.22887 0
0.665751 0.221469 0
0.79353 0.212055 0
0.921736 0.200504 0
1 0.185977 0
0.122469 0.365026 0
0.211856 0.363958 0
0.314763 0.362188 0
0.43061 0.359411 0
0.552285 0.355596 0
0.676982 0.350576 0
0.803235 0.344381 0
0.930159 0.336904 0
1 0.327871 0
0.180865 0.487404 0
0.253376 0.486595 0
0.345144 0.485252 0
0.453498 0.483177 0
0.57026 0.480323 0
0.691539 0.476616 0
0.815503 0.471992 0
0.94107 0.466423 0
1 0.459846 0
0.239277 0.609781 0
0.299489 0.60914 0
0.38085 0.608087 0
0.481407 0.606424 0
0.592599 0.60415 0
0.709957 0.601205 0
0.830991 0.597559 0
0.95436 0.593194 0
1 0.588037 0
0.297688 0.732158 0
0.348775 0.731609 0
0.421027 0.730739 0
0.513756 0.729397 0
0.619043 0.72752 0
0.731884 0.725109 0
0.849622 0.722103 0
0.970443 0.718517 0
1 0.714305 0
0.356085 0.854536 0
0.400153 0.854063 0
0.464439 0.853361 0
0.549889 0.852201 0
0.649134 0.850614 0
0.757321 0.848554 0
0.871321 0.846036 0
0.989258 0.843015 0
1 0.83949 0
0.414496 0.976913 0
0.452811 0.976532 0
0.510918 0.97586 0
0.58938 0.974868 0
0.682612 0.97351 0
0.785916 0.97174 0
0.895903 0.969589 0
1 0.966964 0
1 0.963912 0
0.00479133 0.000595102 0.108965
0.137667 0 0.103807
0.266331 0 0.0970169
0.395819 0 0.0870222
0.525567 0 0.0727703
0.655482 0 0.0549172
0.785489 0 0.0330968
0.91545 0 0.00708019
1 0 0
0.02916 0.121035 0.0953078
0.154528 0.118441 0.0915541
0.27657 0.114031 0.0851759
0.40296 0.106935 0.0748302
0.530999 0.0966049 0.0610056
0.659815 0.0821698 0.0433051
0.788983 0.0632181 0.0215763
0.918471 0.0406958 0
1 0.014435 0
0.0698711 0.243153 0.0753185
0.179873 0.241627 0.0714885
0.292836 0.239063 0.065095
0.414572 0.235035 0.0551766
0.539895 0.229389 0.0415503
0.666896 0.221988 0.0239567
0.794903 0.212497 0.00230411
0.923461 0.200717 0
1 0.186099 0
0.126467 0.365377 0.0450599
0.21442 0.364324 0.0413062
0.316518 0.36257 0.0349737
0.431907 0.359808 0.0251469
0.553277 0.355993 0.0115816
0.677775 0.350988 0
0.803922 0.344778 0
0.931167 0.337194 0
1 0.328054 0
0.183886 0.487678 0.0037995
0.255665 0.48687 7.62951e-05
0.346716 0.485557 0
0.454688 0.483497 0
0.571283 0.480598 0
0.692348 0.476905 0
0.816083 0.472343 0
0.941588 0.466758 0
1 0.460105 0
0.241764 0.609995 0
0.301396 0.609369 0
0.382361 0.608316 0
0.482628 0.606653 0
0.593591 0.604379 0
0.71075 0.601434 0
0.831647 0.597803 0
0.954849 0.593469 0
1 0.588296 0
0.299779 0.732326 0
0.350332 0.731807 0
0.422354 0.730938 0
0.514931 0.72958 0
0.619883 0.727733 0
0.732631 0.725307 0
0.850172 0.722332 0
0.971008 0.718715 0
1 0.714549 0
0.357824 0.854673 0
0.401587 0.854231 0
0.465812 0.853498 0
0.550988 0.852354 0
0.65005 0.850767 0
0.757931 0.848753 0
0.871977 0.846189 0
0.989807 0.843183 0
1 0.839658 0
0.416037 0.977035 0
0.454261 0.976638 0
0.51194 0.976013 0
0.590372 0.975006 0
0.68333 0.973678 0
0.786648 0.971878 0
0.896544 0.969726 0
1 0.967102 0
1 0.96405 0
0.0128328 0.00158694 0.225025
0.143374 0 0.221622
0.269749 0 0.216999
0.398169 0 0.210712
0.527352 0 0.202548
0.656855 0 0.192203
0.786633 0 0.179202
0.916457 0 0.162875
1 0 0.142321
0.0373999 0.122011 0.215763
0.159869 0.119493 0.213367
0.279896 0.11516 0.209491
0.40528 0.108232 0.203647
0.532769 0.0980545 0.195682
0.66125 0.0837873 0.18529
0.790173 0.0649271 0.17203
0.919417 0.0426184 0.155261
1 0.016083 0.134005
0.0781415 0.243839 0.203754
0.184649 0.242344 0.201556
0.29601 0.239796 0.197894
0.416846 0.235828 0.192126
0.541588 0.230243 0.1841
0.668315 0.222827 0.173449
0.796048 0.213443 0.159625
0.924483 0.201648 0.141955
1 0.187213 0.119112
0.132677 0.365911 0.185992
0.218616 0.364874 0.183764
0.319509 0.363119 0.179965
0.434119 0.360372 0.173983
0.554971 0.356588 0.165454
0.679118 0.351614 0.153994
0.805081 0.345388 0.13901
0.932128 0.337835 0.119402
1 0.328771 0.0933852
0.188586 0.488121 0.16022
0.259266 0.487312 0.157778
0.349447 0.486 0.153597
0.456855 0.483925 0.146914
0.5729 0.481071 0.137285
0.693736 0.477363 0.124224
0.817273 0.47277 0.106584
0.942611 0.467201 0.0827955
1 0.460639 0.0522011
0.245472 0.610361 0.122271
0.304616 0.609705 0.119341
0.384863 0.608667 0.114214
0.484504 0.60705 0.105974
0.595178 0.604761 0.0939803
0.712001 0.601831 0.0766918
0.8327 0.598215 0.0549935
0.955856 0.593835 0.02916
1 0.588647 0
0.303014 0.732616 0.061799
0.353109 0.732113 0.0580453
0.424704 0.731243 0.0517128
0.516793 0.729885 0.0419318
0.621469 0.728023 0.0283513
0.733928 0.725612 0.0108797
0.851301 0.722637 0
0.971939 0.719036 0
1 0.714855 0
0.36054 0.854932 0
0.403967 0.85449 0
0.468009 0.853742 0
0.552682 0.852628 0
0.651423 0.851041 0
0.759304 0.848981 0
0.872953 0.846494 0
0.990707 0.843458 0
1 0.839887 0
0.418387 0.977249 0
0.456413 0.976867 0
0.513848 0.976242 0
0.591943 0.97525 0
0.68484 0.973877 0
0.787762 0.972122 0
0.897581 0.969955 0
1 0.967346 0
1 0.964279 0
0.0253452 0.0031281 0.34107
0.151934 0.000198367 0.338567
0.274952 0 0.335012
0.401816 0 0.330175
0.530114 0 0.324132
0.659113 0 0.316747
0.788449 0 0.307912
0.917967 0 0.297383
1 0 0.284901
0.0501259 0.123339 0.333989
0.167834 0.120912 0.332143
0.284947 0.116701 0.329198
0.408881 0.109926 0.324849
0.535485 0.0999924 0.319127
0.663386 0.0861067 0.311925
0.791974 0.0673686 0.303151
0.921004 0.0449989 0.292622
1 0.018967 0.280079
0.0908827 0.244755 0.324819
0.191882 0.243275 0.323247
0.300923 0.240757 0.320592
0.420356 0.236851 0.316564
0.544289 0.231357 0.31104
0.670466 0.224048 0.303975
0.797879 0.214694 0.295216
0.925948 0.203113 0.284596
1 0.188769 0.271855
0.141878 0.366644 0.3122
0.22501 0.365591 0.310689
0.324071 0.363851 0.308171
0.437507 0.361151 0.304234
0.557671 0.357366 0.298756
0.681254 0.352453 0.291691
0.806851 0.346273 0.28278
0.933715 0.338689 0.271901
1 0.329717 0.258732
0.195911 0.488701 0.295338
0.264744 0.487922 0.293828
0.353674 0.486595 0.291264
0.460105 0.484535 0.287266
0.575463 0.481712 0.281682
0.695796 0.478019 0.274372
0.819028 0.473442 0.26511
0.944091 0.467887 0.253712
1 0.461311 0.239826
0.251301 0.610864 0.273136
0.3093 0.610239 0.27155
0.388724 0.609186 0.268864
0.487739 0.607523 0.264652
0.597589 0.605295 0.258717
0.714046 0.602365 0.25095
0.834455 0.598733 0.241016
0.957321 0.594385 0.228656
1 0.589273 0.213474
0.307698 0.733074 0.243946
0.357351 0.73254 0.242206
0.428138 0.731685 0.239277
0.5196 0.730327 0.234684
0.623865 0.728466 0.228138
0.735866 0.726085 0.21944
0.852964 0.723095 0.208377
0.973327 0.719524 0.1944
1 0.715328 0.176989
0.364813 0.855299 0.204974
0.407584 0.854887 0.20296
0.470985 0.854154 0.199557
0.555398 0.852995 0.194186
0.653666 0.851438 0.186557
0.761212 0.849378 0.176272
0.874647 0.84686 0.163012
0.992096 0.84387 0.145846
1 0.840284 0.123827
0.421866 0.9776 0.150057
0.459754 0.977203 0.147494
0.516991 0.976547 0.143145
0.594369 0.975601 0.136126
0.6869 0.974243 0.126085
0.789639 0.972457 0.1122
0.899245 0.970291 0.0933394
1 0.967666 0.0677653
1 0.964645 0.0374914
0.042649 0.0052491 0.45713
0.16318 0.00236515 0.455177
0.281971 0 0.452308
0.40679 0 0.448325
0.533898 0 0.443351
0.662089 0 0.43743
0.790921 0 0.430518
0.920073 0 0.422431
1 0 0.413184
0.0675059 0.125093 0.451423
0.178393 0.122713 0.449897
0.291814 0.118624 0.447471
0.413779 0.112016 0.443931
0.539239 0.102342 0.439307
0.666392 0.0888228 0.4336
0.79443 0.0704356 0.426795
0.923079 0.048249 0.418845
1 0.0222782 0.409598
0.106615 0.245899 0.443854
0.201511 0.24445 0.442557
0.307408 0.242008 0.440436
0.425147 0.238148 0.437186
0.547997 0.232715 0.432853
0.673442 0.225513 0.427375
0.80029 0.216327 0.420737
0.928038 0.204852 0.412848
1 0.190509 0.403616
0.153964 0.367529 0.433677
0.233509 0.366491 0.432486
0.33022 0.364782 0.430518
0.442161 0.362081 0.427497
0.561257 0.358358 0.423331
0.684245 0.353445 0.418006
0.809293 0.347356 0.41146
0.935744 0.339879 0.403601
1 0.330922 0.394339
0.205402 0.489448 0.42063
0.272236 0.488655 0.419501
0.359426 0.487358 0.417594
0.46453 0.485313 0.414649
0.578988 0.48249 0.410574
0.698711 0.478828 0.40528
0.821424 0.474296 0.398718
0.946212 0.468742 0.390784
1 0.462226 0.381369
0.259098 0.611505 0.404288
0.315816 0.610864 0.403159
0.393957 0.609827 0.401236
0.49189 0.608179 0.398276
0.601022 0.605951 0.394171
0.716854 0.603052 0.388785
0.836835 0.59942 0.382086
0.959258 0.595148 0.373938
1 0.589944 0.364263
0.314321 0.733623 0.383917
0.362936 0.73312 0.382773
0.433005 0.732235 0.380789
0.523491 0.730907 0.377722
0.627131 0.72903 0.373465
0.738659 0.72665 0.367941
0.855329 0.723674 0.360922
0.975357 0.720119 0.352422
1 0.715923 0.342229
0.370291 0.855802 0.358694
0.412695 0.85536 0.357488
0.475486 0.854627 0.355367
0.559106 0.853498 0.352148
0.656947 0.851896 0.347662
0.763745 0.849912 0.341726
0.876844 0.847395 0.33431
0.994079 0.844373 0.325246
1 0.840803 0.314321
0.426749 0.978042 0.32723
0.464118 0.977661 0.325917
0.520623 0.977035 0.323659
0.597879 0.976043 0.32018
0.689921 0.97467 0.315267
0.792248 0.9729 0.308797
0.901473 0.970733 0.300694
1 0.968154 0.290639
1 0.965072 0.278553
0.0649882 0.00801099 0.57319
0.176898 0.00514229 0.571603
0.290837 0.000167849 0.569207
0.413077 0 0.565835
0.538689 0 0.561578
0.66598 0 0.556542
0.79411 0 0.550729
0.922835 0 0.544045
1 0 0.536461
0.090013 0.12723 0.568475
0.191287 0.124941 0.567178
0.30042 0.120958 0.565087
0.42002 0.114504 0.562066
0.544015 0.105135 0.558114
0.670207 0.0920424 0.553292
0.79765 0.0738994 0.547601
0.92575 0.0520638 0.541054
1 0.0261387 0.533578
0.124926 0.247257 0.561959
0.213397 0.245838 0.560845
0.315694 0.243458 0.559014
0.431205 0.239673 0.556268
0.552712 0.234333 0.552636
0.677272 0.227207 0.548074
0.803494 0.218143 0.54258
0.93077 0.206836 0.536171
1 0.192813 0.528771
0.168551 0.368566 0.553246
0.244038 0.367575 0.552254
0.337987 0.365881 0.550607
0.448035 0.363226 0.548089
0.565866 0.359533 0.544656
0.687953 0.354696 0.540307
0.812436 0.348638 0.534981
0.938399 0.341253 0.52871
1 0.332326 0.521385
0.217319 0.490288 0.542397
0.281575 0.489525 0.541436
0.366674 0.488243 0.539895
0.470039 0.486259 0.537499
0.583474 0.483436 0.534188
0.702373 0.479805 0.529961
0.824567 0.475273 0.524758
0.948837 0.469795 0.518532
1 0.46334 0.511269
0.268925 0.612238 0.529076
0.323995 0.611627 0.528176
0.400717 0.610574 0.52668
0.497276 0.608942 0.524315
0.605341 0.606744 0.521065
0.720485 0.603845 0.516915
0.839857 0.600259 0.511757
0.962097 0.59588 0.505501
1 0.59086 0.498131
0.322637 0.734279 0.513039
0.370214 0.733776 0.512139
0.438911 0.732937 0.510643
0.528557 0.731579 0.508278
0.631327 0.729717 0.505013
0.742016 0.727382 0.500832
0.858305 0.724392 0.495552
0.977996 0.720806 0.489296
1 0.71664 0.481834
0.377508 0.856382 0.493797
0.419059 0.855955 0.492897
0.480934 0.855238 0.491386
0.563806 0.854093 0.488991
0.660761 0.852552 0.485634
0.767346 0.850462 0.481346
0.879774 0.848005 0.475975
0.996643 0.844999 0.469505
1 0.841474 0.461769
0.433112 0.978561 0.470848
0.469673 0.97821 0.469856
0.525734 0.977569 0.468284
0.60235 0.976562 0.465797
0.693629 0.975235 0.462379
0.795346 0.97348 0.457908
0.904311 0.971283 0.452308
1 0.968704 0.445518
1 0.965667 0.437461
0.0924086 0.0114137 0.68925
0.192782 0.00852979 0.687922
0.301442 0.00361639 0.685893
0.420722 0 0.682979
0.544564 0 0.679271
0.670649 0 0.674861
0.798062 0 0.669718
0.926131 0 0.663935
1 0 0.657481
0.114229 0.129839 0.685222
0.206256 0.127611 0.684108
0.310735 0.12372 0.682307
0.427558 0.117479 0.679637
0.549844 0.108385 0.676158
0.674968 0.0955978 0.671977
0.801556 0.0780346 0.667033
0.929137 0.0562142 0.661387
1 0.0306249 0.655009
0.145159 0.248905 0.679515
0.227298 0.247486 0.678569
0.325597 0.245151 0.676982
0.438651 0.241413 0.674571
0.558526 0.236164 0.671366
0.68191 0.229221 0.667384
0.807385 0.220295 0.662654
0.934112 0.20911 0.657176
1 0.195407 0.650904
0.185214 0.369787 0.671885
0.256504 0.368811 0.671
0.347478 0.367102 0.669612
0.455192 0.364508 0.667369
0.571557 0.360861 0.664408
0.692531 0.356115 0.660639
0.816236 0.350149 0.656123
0.941695 0.342809 0.650797
1 0.33402 0.644648
0.231128 0.491295 0.662364
0.292714 0.490532 0.66157
0.375372 0.489265 0.660227
0.477028 0.487251 0.658228
0.589044 0.484474 0.655406
0.706905 0.480903 0.651804
0.828382 0.476402 0.647456
0.95198 0.471046 0.642252
1 0.464576 0.636194
0.28069 0.613077 0.650996
0.333867 0.612482 0.650263
0.408789 0.611444 0.648966
0.503716 0.609842 0.646998
0.610727 0.60763 0.644297
0.724926 0.604761 0.640803
0.84358 0.601221 0.636484
0.965194 0.596918 0.631388
1 0.591867 0.625391
0.332448 0.735042 0.637507
0.378882 0.734539 0.63679
0.446433 0.733684 0.635554
0.534768 0.732341 0.633616
0.636439 0.730495 0.630945
0.746441 0.72813 0.627512
0.861967 0.7252 0.623255
0.98114 0.721645 0.618128
1 0.717494 0.612146
0.386099 0.857053 0.621729
0.427008 0.856611 0.620951
0.487907 0.855894 0.619745
0.569512 0.854795 0.617807
0.665644 0.853239 0.615137
0.77142 0.851194 0.611704
0.88333 0.848737 0.607462
0.999619 0.845777 0.602258
1 0.842237 0.596201
0.440711 0.979156 0.603235
0.476722 0.978821 0.602472
0.532036 0.978164 0.601251
0.607828 0.977172 0.599298
0.69836 0.975845 0.596536
0.799481 0.97409 0.593057
0.907698 0.971939 0.588724
1 0.96936 0.583535
1 0.966339 0.577279
0.120592 0.0154879 0.80531
0.210513 0.0125887 0.804196
0.313649 0.00775158 0.802411
0.429725 3.0518e-05 0.799832
0.551537 0 0.796582
0.676341 0 0.79263
0.802716 0 0.788052
0.930129 0 0.78291
1 0 0.777173
0.139345 0.132891 0.801846
0.223148 0.130709 0.800839
0.322683 0.12694 0.799237
0.436454 0.120836 0.796872
0.556756 0.112001 0.793835
0.680491 0.099733 0.790066
0.806195 0.0829633 0.785641
0.933089 0.0610971 0.780636
1 0.0357061 0.77496
0.166934 0.250797 0.796765
0.242847 0.249439 0.795911
0.337102 0.24712 0.794491
0.447288 0.243458 0.79237
0.56527 0.238315 0.789487
0.687449 0.231449 0.785946
0.812009 0.22269 0.78175
0.938064 0.211704 0.776883
1 0.198154 0.771374
0.203769 0.37116 0.789914
0.270741 0.370214 0.789166
0.358282 0.368566 0.787854
0.463584 0.365988 0.785901
0.578195 0.362387 0.783291
0.698054 0.357656 0.779965
0.820905 0.351736 0.775952
0.945647 0.344518 0.771252
1 0.335866 0.765911
0.246738 0.492424 0.78143
0.305425 0.491676 0.780713
0.385534 0.490425 0.779522
0.485191 0.488396 0.777722
0.595483 0.48571 0.77525
0.712215 0.48217 0.772091
0.832868 0.477699 0.768292
0.955962 0.472313 0.76376
1 0.465904 0.758556
0.293996 0.614038 0.771328
0.345098 0.613489 0.770657
0.418112 0.612436 0.769589
0.511406 0.610834 0.767849
0.616953 0.608652 0.765484
0.73019 0.605783 0.762448
0.848096 0.602243 0.758755
0.969055 0.598001 0.75436
1 0.592996 0.749249
0.343893 0.735897 0.759579
0.389181 0.735363 0.758968
0.455085 0.734539 0.75787
0.541939 0.733211 0.756191
0.642466 0.73138 0.753918
0.751553 0.72903 0.750957
0.866361 0.726101 0.747326
0.984863 0.722606 0.742977
1 0.718471 0.737896
0.395972 0.857847 0.745968
0.435981 0.857404 0.745312
0.49575 0.856687 0.744289
0.576349 0.855573 0.742657
0.671443 0.854017 0.740368
0.776242 0.852018 0.737499
0.887572 0.849546 0.733913
1 0.84654 0.729595
1 0.843061 0.724544
0.449439 0.979873 0.730297
0.4851 0.979477 0.729641
0.539269 0.978882 0.728664
0.614191 0.977874 0.727016
0.703899 0.976547 0.724743
0.80415 0.974823 0.721874
0.911864 0.972656 0.718242
1 0.970108 0.713939
1 0.967071 0.708858
0.148775 0.0202487 0.92137
0.229801 0.0173495 0.920378
0.327428 0.0125277 0.918853
0.440024 0.00486763 0.916533
0.559594 0 0.913619
0.68278 0 0.910063
0.808164 0 0.905928
0.934691 0 0.90132
1 0 0.896086
0.165209 0.136385 0.918318
0.24155 0.134249 0.917449
0.336126 0.130587 0.916014
0.446586 0.124651 0.913909
0.564721 0.116045 0.911162
0.686992 0.104158 0.907774
0.811597 0.0881056 0.903731
0.937652 0.0666819 0.899214
1 0.0411841 0.894148
0.190051 0.252949 0.913771
0.260121 0.251606 0.913039
0.350118 0.249348 0.911711
0.457282 0.245731 0.909789
0.573175 0.240681 0.907195
0.693782 0.234012 0.90399
0.81738 0.22533 0.900191
0.942596 0.214618 0.895842
1 0.201266 0.890852
0.223728 0.372732 0.907591
0.286687 0.371786 0.906874
0.370596 0.370184 0.905684
0.473228 0.36762 0.903944
0.58584 0.364111 0.901564
0.704311 0.359457 0.898528
0.826123 0.353643 0.894926
0.950134 0.346487 0.89073
1 0.337774 0.885954
0.263951 0.493675 0.899855
0.319799 0.492943 0.899229
0.397162 0.491691 0.898146
0.494316 0.489738 0.896529
0.603067 0.487022 0.89427
0.718471 0.483528 0.891447
0.838117 0.479133 0.888014
0.960464 0.473793 0.884031
1 0.467491 0.879393
0.308888 0.615106 0.890745
0.358083 0.614542 0.890166
0.42887 0.613519 0.889143
0.520256 0.611917 0.887648
0.62414 0.609796 0.885527
0.736187 0.606958 0.882811
0.853239 0.603433 0.87953
0.973465 0.599222 0.875639
1 0.594202 0.871122
0.35697 0.736812 0.880217
0.400702 0.736309 0.879637
0.465095 0.73547 0.87866
0.550362 0.734157 0.877195
0.649485 0.732326 0.875196
0.757351 0.730053 0.872572
0.871397 0.727108 0.869398
0.989258 0.723629 0.865583
1 0.719554 0.861128
0.407507 0.858671 0.868132
0.446189 0.858274 0.867582
0.504799 0.857557 0.866667
0.584268 0.856397 0.865232
0.67805 0.854902 0.863249
0.782071 0.852857 0.8607
0.892607 0.850401 0.857572
1 0.847486 0.853819
1 0.843961 0.849439
0.459495 0.980652 0.854398
0.49453 0.98024 0.853864
0.547799 0.979629 0.852934
0.621393 0.978683 0.85156
0.710262 0.977325 0.849607
0.809689 0.975601 0.847089
0.916686 0.973465 0.843976
1 0.970901 0.840223
1 0.967895 0.835935
